/* XPM */
static char * collectible_xpm[] = {
"41 64 895 2",
"  	c None",
". 	c #4B1D57",
"+ 	c #78248E",
"@ 	c #3E3341",
"# 	c #39353A",
"$ 	c #671B78",
"% 	c #A035BB",
"& 	c #4A215C",
"* 	c #717273",
"= 	c #3A1F42",
"- 	c #8D21A4",
"; 	c #DD71EB",
"> 	c #630B83",
", 	c #4C4252",
"' 	c #939392",
") 	c #332639",
"! 	c #8A2AA6",
"~ 	c #D967E8",
"{ 	c #DA76E7",
"] 	c #6B0E8B",
"^ 	c #531369",
"/ 	c #939290",
"( 	c #6F7172",
"_ 	c #38223F",
": 	c #AD39D0",
"< 	c #F38AF8",
"[ 	c #D978E5",
"} 	c #670C8C",
"| 	c #70148F",
"1 	c #503E5B",
"2 	c #29232C",
"3 	c #9C1EC7",
"4 	c #BB48E1",
"5 	c #F698F9",
"6 	c #E880F1",
"7 	c #8E28AD",
"8 	c #660C88",
"9 	c #5A1176",
"0 	c #2E193E",
"a 	c #3C3A3E",
"b 	c #531969",
"c 	c #A829D4",
"d 	c #D56DE7",
"e 	c #ED82F3",
"f 	c #F891FA",
"g 	c #AD44C7",
"h 	c #660B88",
"i 	c #6B118C",
"j 	c #3D1951",
"k 	c #4E4952",
"l 	c #4F1865",
"m 	c #9821BF",
"n 	c #AA31D3",
"o 	c #F386F8",
"p 	c #E76CF0",
"q 	c #EF83F4",
"r 	c #AD43C8",
"s 	c #660B87",
"t 	c #6C0F8F",
"u 	c #5C1479",
"v 	c #311940",
"w 	c #291F29",
"x 	c #7E1B9F",
"y 	c #AF26DD",
"z 	c #A82FCE",
"A 	c #F077F6",
"B 	c #E869F2",
"C 	c #EA74F3",
"D 	c #B345CB",
"E 	c #640C85",
"F 	c #610D80",
"G 	c #620D83",
"H 	c #4C1762",
"I 	c #2C1835",
"J 	c #6E2283",
"K 	c #B132D9",
"L 	c #AB28DC",
"M 	c #C03BE5",
"N 	c #EF70F5",
"O 	c #E564F0",
"P 	c #E86DF1",
"Q 	c #DE66EA",
"R 	c #670D86",
"S 	c #5C0D7C",
"T 	c #5B0D7A",
"U 	c #60127C",
"V 	c #4B2B5A",
"W 	c #291325",
"X 	c #752292",
"Y 	c #B83CE5",
"Z 	c #AE38DF",
"` 	c #DF6BEF",
" .	c #EC6DF5",
"..	c #E561F1",
"+.	c #E463EF",
"@.	c #E261ED",
"#.	c #680D88",
"$.	c #5D0D7C",
"%.	c #611180",
"&.	c #5C1679",
"*.	c #34223F",
"=.	c #8F2AAC",
"-.	c #B933E3",
";.	c #B232E3",
">.	c #C458E3",
",.	c #F07AF5",
"'.	c #E666F0",
").	c #E762F2",
"!.	c #E561F0",
"~.	c #E35DEE",
"{.	c #6B0F8B",
"].	c #5C0D7D",
"^.	c #5E0D7E",
"/.	c #5D0E7D",
"(.	c #5F117E",
"_.	c #491660",
":.	c #4F1861",
"<.	c #9D26C0",
"[.	c #C02FED",
"}.	c #AE2AE2",
"|.	c #D57BEB",
"1.	c #F082F6",
"2.	c #E763F1",
"3.	c #E760F1",
"4.	c #E55BEF",
"5.	c #8821A1",
"6.	c #5C0B7C",
"7.	c #600E81",
"8.	c #5F0E80",
"9.	c #611183",
"0.	c #611781",
"a.	c #3E1C4E",
"b.	c #747473",
"c.	c #3C3240",
"d.	c #7D2399",
"e.	c #BF2FE8",
"f.	c #BB2CEB",
"g.	c #B542DE",
"h.	c #E077EF",
"i.	c #E273F2",
"j.	c #DB5FEE",
"k.	c #E164EF",
"l.	c #E865F3",
"m.	c #E357EF",
"n.	c #B545C3",
"o.	c #5F0D7F",
"p.	c #600C81",
"q.	c #620F85",
"r.	c #8125AF",
"s.	c #6A2390",
"t.	c #462F52",
"u.	c #8E918D",
"v.	c #79787B",
"w.	c #551B6B",
"x.	c #9122B6",
"y.	c #AE27D8",
"z.	c #AA26DA",
"A.	c #CD61E3",
"B.	c #DF6AEF",
"C.	c #D65BEE",
"D.	c #D357EE",
"E.	c #D95FEF",
"F.	c #E363F1",
"G.	c #E663EE",
"H.	c #C257CA",
"I.	c #5D0C7E",
"J.	c #5F0D81",
"K.	c #9B22C3",
"L.	c #BF31ED",
"M.	c #B736EA",
"N.	c #6E2491",
"O.	c #4F4257",
"P.	c #888B89",
"Q.	c #3F2549",
"R.	c #7C199D",
"S.	c #961DBE",
"T.	c #A325D1",
"U.	c #9F22CE",
"V.	c #CC62E2",
"W.	c #DD66F1",
"X.	c #D254ED",
"Y.	c #D154ED",
"Z.	c #D155EC",
"`.	c #D85DED",
" +	c #EC7DF0",
".+	c #C859CF",
"++	c #660E85",
"@+	c #650E88",
"#+	c #A624CF",
"$+	c #A02BE8",
"%+	c #9431EE",
"&+	c #9B34EC",
"*+	c #A733E8",
"=+	c #521F6B",
"-+	c #5C545E",
";+	c #615F64",
">+	c #9128B1",
",+	c #A01EC8",
"'+	c #981BC1",
")+	c #A122D0",
"!+	c #A328D0",
"~+	c #D460E7",
"{+	c #DB5EF0",
"]+	c #D050ED",
"^+	c #DB5BEE",
"/+	c #DE4FE1",
"(+	c #9726A9",
"_+	c #B32AE1",
":+	c #A027E3",
"<+	c #982AEA",
"[+	c #942FEF",
"}+	c #952FEE",
"|+	c #9E2FE8",
"1+	c #9830C0",
"2+	c #381448",
"3+	c #565059",
"4+	c #541B70",
"5+	c #9C1FC7",
"6+	c #981AC1",
"7+	c #991BC3",
"8+	c #9E1DCD",
"9+	c #B73FD9",
"0+	c #E663F6",
"a+	c #D049ED",
"b+	c #D04DEC",
"c+	c #D04FEC",
"d+	c #D253EC",
"e+	c #D254EB",
"f+	c #DE5CF0",
"g+	c #EA5DEE",
"h+	c #AF32C7",
"i+	c #AF2CE6",
"j+	c #8F24E0",
"k+	c #952AEE",
"l+	c #942BEF",
"m+	c #942CEF",
"n+	c #962BEF",
"o+	c #9F2EEE",
"p+	c #781FA7",
"q+	c #25182E",
"r+	c #616261",
"s+	c #6D6F6D",
"t+	c #523A5D",
"u+	c #9A27B8",
"v+	c #A724CB",
"w+	c #8E17B6",
"x+	c #9218BC",
"y+	c #9A1CC9",
"z+	c #B33FD5",
"A+	c #E767F5",
"B+	c #D049EC",
"C+	c #CE49EA",
"D+	c #D450ED",
"E+	c #DF5AF0",
"F+	c #C845DB",
"G+	c #C437D6",
"H+	c #CA39E6",
"I+	c #A82DE1",
"J+	c #9123E0",
"K+	c #952AEF",
"L+	c #952AF0",
"M+	c #952BF0",
"N+	c #942AEF",
"O+	c #922AED",
"P+	c #A029E4",
"Q+	c #411558",
"R+	c #535258",
"S+	c #727272",
"T+	c #6E6F6E",
"U+	c #19151B",
"V+	c #78208E",
"W+	c #AE2DC7",
"X+	c #B329D0",
"Y+	c #A324C3",
"Z+	c #A525C6",
"`+	c #9B26C4",
" @	c #E36EED",
".@	c #E96EF4",
"+@	c #DE58EF",
"@@	c #DC55ED",
"#@	c #E55DF0",
"$@	c #D054DE",
"%@	c #8C23A4",
"&@	c #590976",
"*@	c #570874",
"=@	c #9A21B5",
"-@	c #C737E5",
";@	c #9824DC",
">@	c #9427EE",
",@	c #952AF1",
"'@	c #9428EF",
")@	c #9227EF",
"!@	c #A92EEB",
"~@	c #9F29D6",
"{@	c #431B51",
"]@	c #5A5A5C",
"^@	c #737473",
"/@	c #211A21",
"(@	c #450D5E",
"_@	c #5F117C",
":@	c #8D22A3",
"<@	c #9B29B0",
"[@	c #AE2EC5",
"}@	c #C43DDB",
"|@	c #F16CF6",
"1@	c #EC6EF4",
"2@	c #EF70F6",
"3@	c #DB58E5",
"4@	c #8C28A2",
"5@	c #5F0E7D",
"6@	c #560A73",
"7@	c #540A72",
"8@	c #550A76",
"9@	c #560879",
"0@	c #9F25B9",
"a@	c #BD2FE4",
"b@	c #9224E4",
"c@	c #9529EF",
"d@	c #9428F0",
"e@	c #9327EF",
"f@	c #B232F2",
"g@	c #AB37E9",
"h@	c #8B26AA",
"i@	c #4A424F",
"j@	c #555556",
"k@	c #311C3F",
"l@	c #61147F",
"m@	c #4F1167",
"n@	c #510F6D",
"o@	c #61117D",
"p@	c #AE31C6",
"q@	c #EA5BF2",
"r@	c #ED67F6",
"s@	c #BC4BCB",
"t@	c #701A8E",
"u@	c #580C79",
"v@	c #570D78",
"w@	c #570C78",
"x@	c #5E0C80",
"y@	c #630E86",
"z@	c #590B7C",
"A@	c #570A78",
"B@	c #A724C7",
"C@	c #B22BE8",
"D@	c #9826EB",
"E@	c #9428EE",
"F@	c #9429F1",
"G@	c #9329F0",
"H@	c #9129F0",
"I@	c #AE37F1",
"J@	c #B334CF",
"K@	c #741D8C",
"L@	c #281F2E",
"M@	c #2D2731",
"N@	c #5F137E",
"O@	c #51116B",
"P@	c #551070",
"Q@	c #5A0F78",
"R@	c #5F0F7F",
"S@	c #A825C0",
"T@	c #C635DC",
"U@	c #7E1D9C",
"V@	c #5E0D82",
"W@	c #5C0D7E",
"X@	c #5B0E7B",
"Y@	c #590D7A",
"Z@	c #610D85",
"`@	c #5D0E80",
" #	c #5A0D7D",
".#	c #590C7B",
"+#	c #5A0C7B",
"@#	c #BC2ADE",
"##	c #AD28E7",
"$#	c #9124E9",
"%#	c #932AF1",
"&#	c #8B25E6",
"*#	c #BD3CEF",
"=#	c #B025C7",
"-#	c #7C1D94",
";#	c #220F2A",
">#	c #28222A",
",#	c #5E127E",
"'#	c #591276",
")#	c #61137F",
"!#	c #7810A0",
"~#	c #680F8C",
"{#	c #7D1996",
"]#	c #C331DA",
"^#	c #6D0F8E",
"/#	c #5E0D80",
"(#	c #5E0D7F",
"_#	c #5D0E7E",
":#	c #5B0E7E",
"<#	c #5B0E7D",
"[#	c #590D7C",
"}#	c #5B0C7D",
"|#	c #5C0B7E",
"1#	c #6D118F",
"2#	c #C32DE9",
"3#	c #AA2BEC",
"4#	c #9E2AED",
"5#	c #B137F2",
"6#	c #A836E7",
"7#	c #AA36D0",
"8#	c #4B1260",
"9#	c #3D0F4F",
"0#	c #211026",
"a#	c #481760",
"b#	c #611181",
"c#	c #630F84",
"d#	c #770FA0",
"e#	c #6C0F91",
"f#	c #7F1B9B",
"g#	c #BF31D7",
"h#	c #690E8B",
"i#	c #5C0E7F",
"j#	c #5D0F80",
"k#	c #5B0E7F",
"l#	c #5B0D7D",
"m#	c #5C0C7F",
"n#	c #6E0D95",
"o#	c #5D0A80",
"p#	c #8D1CB5",
"q#	c #B229E1",
"r#	c #B32BDD",
"s#	c #8D20B1",
"t#	c #601679",
"u#	c #56126E",
"v#	c #4E1362",
"w#	c #3E1F4F",
"x#	c #352F3A",
"y#	c #23152D",
"z#	c #75119E",
"A#	c #790FA3",
"B#	c #7B10A5",
"C#	c #730F9C",
"D#	c #811B9D",
"E#	c #B82FD0",
"F#	c #620E84",
"G#	c #5C0F7D",
"H#	c #5A0E7C",
"I#	c #5C0F80",
"J#	c #5D0F82",
"K#	c #5E0F81",
"L#	c #5D0E7F",
"M#	c #610D86",
"N#	c #730D9C",
"O#	c #600B84",
"P#	c #8716B1",
"Q#	c #941DBE",
"R#	c #610E80",
"S#	c #4D0B67",
"T#	c #540E6E",
"U#	c #5B1175",
"V#	c #641880",
"W#	c #3F3248",
"X#	c #291932",
"Y#	c #7912A3",
"Z#	c #8014A9",
"`#	c #6E0E94",
" $	c #6C0E92",
".$	c #81199D",
"+$	c #B72ECE",
"@$	c #70148C",
"#$	c #6A178A",
"$$	c #580E79",
"%$	c #5F0F82",
"&$	c #620E87",
"*$	c #6C0F95",
"=$	c #6F0C9A",
"-$	c #6B0D94",
";$	c #710F98",
">$	c #8617AF",
",$	c #741398",
"'$	c #500B6D",
")$	c #520D6E",
"!$	c #570E74",
"~$	c #5C1079",
"{$	c #61147D",
"]$	c #311E39",
"^$	c #3C3642",
"/$	c #6D1B90",
"($	c #8D1BB7",
"_$	c #6D1091",
":$	c #69108D",
"<$	c #6E128F",
"[$	c #A928BE",
"}$	c #9620AD",
"|$	c #660E8B",
"1$	c #650E8C",
"2$	c #670E8F",
"3$	c #6A0F91",
"4$	c #6D1095",
"5$	c #750FA2",
"6$	c #7A0FA8",
"7$	c #780EA6",
"8$	c #700E9B",
"9$	c #8215AD",
"0$	c #7F15A6",
"a$	c #570C76",
"b$	c #520B6F",
"c$	c #550C73",
"d$	c #571073",
"e$	c #581373",
"f$	c #392C3E",
"g$	c #452059",
"h$	c #911BBE",
"i$	c #711396",
"j$	c #67118B",
"k$	c #68128A",
"l$	c #A127B7",
"m$	c #9922B3",
"n$	c #690E91",
"o$	c #690F91",
"p$	c #6A0F92",
"q$	c #6E1097",
"r$	c #7710A3",
"s$	c #7810A6",
"t$	c #770FA6",
"u$	c #780FA7",
"v$	c #7C12AB",
"w$	c #8918B6",
"x$	c #7915A0",
"y$	c #530B72",
"z$	c #570D76",
"A$	c #570E76",
"B$	c #560E75",
"C$	c #631283",
"D$	c #30203D",
"E$	c #421E55",
"F$	c #8F1ABE",
"G$	c #6E1292",
"H$	c #66118A",
"I$	c #671189",
"J$	c #A228B7",
"K$	c #9921B3",
"L$	c #690F93",
"M$	c #710F9B",
"N$	c #790FA7",
"O$	c #7810A7",
"P$	c #8014AE",
"Q$	c #921BC0",
"R$	c #75149D",
"S$	c #580E77",
"T$	c #570F76",
"U$	c #26222C",
"V$	c #3A1C4A",
"W$	c #861AAF",
"X$	c #7F18A4",
"Y$	c #69118B",
"Z$	c #A428B9",
"`$	c #6B0F93",
" %	c #780EA4",
".%	c #770EA3",
"+%	c #780FA5",
"@%	c #7910A7",
"#%	c #7911A7",
"$%	c #7910A8",
"%%	c #8315B2",
"&%	c #8B1BB6",
"*%	c #661189",
"=%	c #5C0E7D",
"-%	c #5A0F7A",
";%	c #570F77",
">%	c #4C1567",
",%	c #221E26",
"'%	c #54196C",
")%	c #871BAE",
"!%	c #6C1290",
"~%	c #6B128D",
"{%	c #A427BB",
"]%	c #A728C0",
"^%	c #8213AF",
"/%	c #7E10AC",
"(%	c #7C10A9",
"_%	c #7810A5",
":%	c #7911A8",
"<%	c #8818B6",
"[%	c #731498",
"}%	c #5C0F7E",
"|%	c #580F7A",
"1%	c #6A158A",
"2%	c #241F2A",
"3%	c #4E1468",
"4%	c #7F18A9",
"5%	c #6D1291",
"6%	c #6F1491",
"7%	c #8118A0",
"8%	c #C337DC",
"9%	c #8E1BB8",
"0%	c #7E10AD",
"a%	c #7C10AA",
"b%	c #7A10A8",
"c%	c #7B12A8",
"d%	c #7912A6",
"e%	c #8B18BA",
"f%	c #8E1ABC",
"g%	c #5A0C78",
"h%	c #5E0E80",
"i%	c #5E1080",
"j%	c #5F1182",
"k%	c #6F1890",
"l%	c #2C252F",
"m%	c #4B1166",
"n%	c #8016AC",
"o%	c #731497",
"p%	c #6F1493",
"q%	c #721396",
"r%	c #C33CDB",
"s%	c #951FBE",
"t%	c #7F11AD",
"u%	c #8515B3",
"v%	c #931BC1",
"w%	c #8315B1",
"x%	c #8214B0",
"y%	c #7F14AC",
"z%	c #971CC4",
"A%	c #8618B3",
"B%	c #570C74",
"C%	c #5E0E7F",
"D%	c #5E0F7F",
"E%	c #5F0F81",
"F%	c #741699",
"G%	c #571871",
"H%	c #58545B",
"I%	c #403C43",
"J%	c #661288",
"K%	c #7D16A3",
"L%	c #75169A",
"M%	c #7A179D",
"N%	c #C840DF",
"O%	c #9721C0",
"P%	c #8C18B9",
"Q%	c #8D18B9",
"R%	c #8B19B8",
"S%	c #8516B3",
"T%	c #911CBF",
"U%	c #6C1490",
"V%	c #5F0E81",
"W%	c #611084",
"X%	c #601082",
"Y%	c #851CAA",
"Z%	c #2C1732",
"`%	c #651286",
" &	c #8518AD",
".&	c #79199E",
"+&	c #7C189F",
"@&	c #CB42E2",
"#&	c #9F23C5",
"$&	c #941AC0",
"%&	c #941CC0",
"&&	c #921BBF",
"*&	c #901ABE",
"=&	c #901BBD",
"-&	c #931BC0",
";&	c #A022CE",
">&	c #69118C",
",&	c #611184",
"'&	c #611083",
")&	c #6D1490",
"!&	c #861CAC",
"~&	c #261829",
"{&	c #4D1966",
"]&	c #8119A5",
"^&	c #7C18A0",
"/&	c #A228C2",
"(&	c #D441ED",
"_&	c #971CC1",
":&	c #981DC3",
"<&	c #981EC3",
"[&	c #9A1EC5",
"}&	c #9C20C7",
"|&	c #9B1FC8",
"1&	c #9C21C9",
"2&	c #660F8A",
"3&	c #661289",
"4&	c #621184",
"5&	c #611182",
"6&	c #851AA9",
"7&	c #4D1765",
"8&	c #535157",
"9&	c #7C1AA1",
"0&	c #891AAF",
"a&	c #7A17A0",
"b&	c #8618AD",
"c&	c #D642ED",
"d&	c #971DBF",
"e&	c #9B1FC4",
"f&	c #A021CC",
"g&	c #A121CC",
"h&	c #901DBA",
"i&	c #6B1091",
"j&	c #6C1191",
"k&	c #621085",
"l&	c #7F16A3",
"m&	c #331541",
"n&	c #5B5A5C",
"o&	c #7B1C9F",
"p&	c #851BAC",
"q&	c #75159B",
"r&	c #8317A8",
"s&	c #CF3BE7",
"t&	c #9E22C4",
"u&	c #9E21C7",
"v&	c #A022CB",
"w&	c #A322CE",
"x&	c #A625D2",
"y&	c #AD2BD8",
"z&	c #7C16A3",
"A&	c #69108C",
"B&	c #711397",
"C&	c #711294",
"D&	c #7B16A0",
"E&	c #7A149F",
"F&	c #2A1437",
"G&	c #4F4C50",
"H&	c #6A2087",
"I&	c #851CA9",
"J&	c #77169C",
"K&	c #77159D",
"L&	c #D339E9",
"M&	c #B72ED7",
"N&	c #A223CA",
"O&	c #A323CD",
"P&	c #AA27D6",
"Q&	c #AA29D4",
"R&	c #78159E",
"S&	c #79159F",
"T&	c #7A14A1",
"U&	c #741298",
"V&	c #8417AA",
"W&	c #4F1267",
"X&	c #57575B",
"Y&	c #881BA9",
"Z&	c #78169D",
"`&	c #74149A",
" *	c #D53BE8",
".*	c #C032DE",
"+*	c #A323CC",
"@*	c #A424CD",
"#*	c #A422CE",
"$*	c #B22CDA",
"%*	c #AD2CD8",
"&*	c #711295",
"**	c #8618AE",
"=*	c #7A13A1",
"-*	c #77139D",
";*	c #8816AE",
">*	c #4D1464",
",*	c #565658",
"'*	c #8A1AA9",
")*	c #7C179E",
"!*	c #7D18A1",
"~*	c #D643EA",
"{*	c #C035DF",
"]*	c #A523CD",
"^*	c #AC29D2",
"/*	c #B52DD9",
"(*	c #B42FDA",
"_*	c #A327CE",
":*	c #77149D",
"<*	c #931BBD",
"[*	c #941ABF",
"}*	c #9C1FC3",
"|*	c #77179A",
"1*	c #473556",
"2*	c #545355",
"3*	c #671382",
"4*	c #7C179B",
"5*	c #8018A1",
"6*	c #D649EA",
"7*	c #AE2BD5",
"8*	c #A928CF",
"9*	c #BE34DC",
"0*	c #C439DE",
"a*	c #BF34DE",
"b*	c #8B1FAF",
"c*	c #9F22C8",
"d*	c #A326CC",
"e*	c #9F21C7",
"f*	c #8E1CB3",
"g*	c #591675",
"h*	c #818481",
"i*	c #3E264D",
"j*	c #9F23C0",
"k*	c #A928C8",
"l*	c #D84BEC",
"m*	c #AE2DD1",
"n*	c #B431D3",
"o*	c #E54FF1",
"p*	c #E54AF3",
"q*	c #8921A7",
"r*	c #9D20C5",
"s*	c #A324CB",
"t*	c #941EBE",
"u*	c #761F98",
"v*	c #47424C",
"w*	c #342740",
"x*	c #811AA1",
"y*	c #B236CF",
"z*	c #D952EB",
"A*	c #F46EF9",
"B*	c #F369F9",
"C*	c #E459F0",
"D*	c #BC3AD3",
"E*	c #A129C0",
"F*	c #9A23BF",
"G*	c #A123C8",
"H*	c #951FBF",
"I*	c #781A9E",
"J*	c #463D4D",
"K*	c #5D2378",
"L*	c #931EB7",
"M*	c #AE31CB",
"N*	c #F874FB",
"O*	c #E75CF5",
"P*	c #E14EF2",
"Q*	c #EB5AF7",
"R*	c #B52FCF",
"S*	c #9820BD",
"T*	c #9022B8",
"U*	c #7F1DA6",
"V*	c #3E3547",
"W*	c #7F7D7E",
"X*	c #352C41",
"Y*	c #821AA3",
"Z*	c #A728C8",
"`*	c #D454E3",
" =	c #E458F3",
".=	c #E150F2",
"+=	c #E960F4",
"@=	c #A428C4",
"#=	c #9221B6",
"$=	c #7E1DA2",
"%=	c #3E1854",
"&=	c #757472",
"*=	c #8C8B88",
"==	c #434049",
"-=	c #6E3088",
";=	c #9C21BE",
">=	c #B93DD2",
",=	c #DD56EE",
"'=	c #F06DF7",
")=	c #ED70F3",
"!=	c #921FB6",
"~=	c #8B22AE",
"{=	c #651B83",
"]=	c #372E3C",
"^=	c #8A8B84",
"/=	c #4A3F51",
"(=	c #8F1DAF",
"_=	c #B63ECE",
":=	c #DD58EE",
"<=	c #F376F8",
"[=	c #E26AEB",
"}=	c #9021B6",
"|=	c #701E8F",
"1=	c #39194B",
"2=	c #575459",
"3=	c #63157A",
"4=	c #A433BE",
"5=	c #DF5EEF",
"6=	c #F273F6",
"7=	c #AA33C7",
"8=	c #7C1E9C",
"9=	c #4D1B64",
"0=	c #291034",
"a=	c #972AB3",
"b=	c #DC5BEC",
"c=	c #E169E9",
"d=	c #9A26BA",
"e=	c #5B1873",
"f=	c #747479",
"g=	c #656365",
"h=	c #721E88",
"i=	c #CC52DC",
"j=	c #CA50D9",
"k=	c #6F1A86",
"l=	c #4F415C",
"m=	c #7F7F82",
"n=	c #8B8C8A",
"o=	c #868684",
"p=	c #370949",
"q=	c #B138C5",
"r=	c #8D2AA1",
"s=	c #422755",
"t=	c #898988",
"u=	c #898987",
"v=	c #817F7E",
"w=	c #691183",
"x=	c #581C6F",
"y=	c #8C8D8B",
"z=	c #888887",
"A=	c #838480",
"B=	c #646963",
"                                                                                  ",
"                                                                                  ",
"                                                                                  ",
"                                                                                  ",
"                                                                                  ",
"                                  . + @                                           ",
"                                # $ % &                                           ",
"                              * = - ; > , '                                       ",
"                              ) ! ~ { ] ^ /                                       ",
"                            ( _ : < [ } | 1                                       ",
"                            2 3 4 5 6 7 8 9 0                                     ",
"                          a b c d e f g h i j k                                   ",
"                          l m n o p q r s t u v                                   ",
"                        w x y z A B C D E F G H I                                 ",
"                        J K L M N O P Q R S T U V                                 ",
"                      W X Y Z `  ...+.@.#.$.$.%.&.*.                              ",
"                      =.-.;.>.,.'.).!.~.{.].^./.(._.                              ",
"                    :.<.[.}.|.1.'.2.3.4.5.6.7.8.9.0.a.                            ",
"                b.c.d.e.f.g.h.i.j.k.l.m.n.6.o.p.q.r.s.t.                          ",
"              u.v.w.x.y.z.A.B.C.D.E.F.G.H.p.I.J.K.L.M.N.O.                        ",
"              P.Q.R.S.T.U.V.W.X.Y.Z.`. +.+++@+#+$+%+&+*+=+-+                      ",
"              ;+>+,+'+)+!+~+{+]+]+Y.Z.^+/+(+_+:+<+[+}+|+1+2+                      ",
"            3+4+5+6+7+8+9+0+a+b+c+d+e+f+g+h+i+j+k+l+m+n+o+p+q+r+s+                ",
"            t+u+v+w+x+y+z+A+B+C+D+E+..F+G+H+I+J+K+L+M+N+O+P+Q+R+S+T+              ",
"          U+V+W+X+Y+Z+`+ @.@+@@@#@$@%@&@*@=@-@;@>@,@,@'@)@!@~@{@]@^@              ",
"          /@(@_@:@<@[@}@|@1@2@3@4@5@6@7@8@9@0@a@b@c@L+d@e@f@g@h@i@j@              ",
"            k@l@m@n@o@p@q@r@s@t@u@v@w@x@y@z@A@B@C@D@E@F@G@H@I@J@K@L@              ",
"            M@N@O@P@Q@R@S@T@U@V@W@X@Y@Z@`@ #.#+#@###$#N+%#&#*#=#-#;#              ",
"            >#,#'#)#!#~#{#]#^#/#(#_#:#<# #[#}#|#1#2#3#4#5#6#7#8#9#0#              ",
"              a#b#c#d#e#f#g#h#W@i#`@j#k#:#l#m#n#o#p#q#r#s#t#u#v#w#x#              ",
"              y#z#A#B#C#D#E#F#G#H#I#J#K#`@L#M#N#O#P#Q#R#S#T#U#V#W#                ",
"              X#Y#Z#`# $.$+$@$#$$$j#K#%$&$*$=$-$;$>$,$'$)$!$~${$]$                ",
"              ^$/$($_$:$<$[$}$|$1$2$3$4$5$6$7$8$9$0$a$b$c$c$d$e$f$                ",
"                g$h$i$j$k$l$m$n$o$p$q$r$s$t$u$v$w$x$y$z$A$B$C$D$                  ",
"                E$F$G$H$I$J$K$p$L$*$M$N$s$s$O$P$Q$R$z$S$T$A$R@U$                  ",
"                V$W$X$Y$k$Z$m$`$q$ %.%+%@%#%$%%%&%*%=%-%;%(.>%,%                  ",
"                  '%)%!%~%{%]%^%/%(%@%_%s$#%:%<%[%L#K#}%|%1%2%                    ",
"                  3%4%5%6%7%8%9%0%a%b%@%c%d%e%f%g%h%i%K#j%k%l%                    ",
"                  m%n%o%p%q%r%s%t%u%v%w%x%y%z%A%B%C%D%E%F%G%H%                    ",
"                  I%J%K%L%M%N%O%P%Q%h$R%w$S%T%U%V%W%X%X%Y%Z%                      ",
"                    `% &.&+&@&#&$&%&&&*&=&-&;&>&X%,&'&)&!&~&                      ",
"                    {&X$]&^&/&(&_&:&<&[&}&|&1&2&3&4&5&6&7&                        ",
"                    8&9&0&a&b&c&d&e&5+f&g&f&h&i&j&!%k&l&m&                        ",
"                    n&o&p&q&r&s&t&u&v&w&x&y&z&A&B&C&D&E&F&                        ",
"                    G&H&I&J&K&L&M&N&O&O&P&Q&R&S&T&U&V&W&                          ",
"                      X&Y&Z&`& *.*+*@*#*$*%*&***=*-*;*>*                          ",
"                      ,*'*)*!*~*{*]*^*/*(*_*:*<*[*}*|*1*                          ",
"                      2*3*4*5*6*7*8*9*0*a*b*c*d*e*f*g*                            ",
"                      h*i*j*k*l*m*n*}@o*p*q*r*s*t*u*v*                            ",
"                        w*x*y*z*A*B*C*D*E*F*G*H*I*J*                              ",
"                          K*L*M*N*O*P*Q*R*S*T*U*V*W*                              ",
"                          X*Y*Z*`* =.=+=@=#=$=%=&=*=                              ",
"                          ==-=;=>=,='=)=!=~={=]=^=                                ",
"                            /=(=_=:=<=[=}=|=1=                                    ",
"                            2=3=4=5=6=7=8=9=                                      ",
"                              0=a=b=c=d=e=f=                                      ",
"                              g=h=i=j=k=l=m=                                      ",
"                            n=o=p=q=r=s=                                          ",
"                            t=u=v=w=x=                                            ",
"                            y=z=A=B=                                              ",
"                                                                                  ",
"                                                                                  ",
"                                                                                  ",
"                                                                                  "};
