/* XPM */
static char * de_dos_xpm[] = {
"64 64 1342 2",
"  	c None",
". 	c #5DA5A4",
"+ 	c #34B1AB",
"@ 	c #23B0AA",
"# 	c #24B1AB",
"$ 	c #24B3AC",
"% 	c #24B4AE",
"& 	c #3CB1AB",
"* 	c #5A938E",
"= 	c #369395",
"- 	c #328C8D",
"; 	c #28B2AB",
"> 	c #27B7B0",
", 	c #26B5AE",
"' 	c #26B4AE",
") 	c #27B4B0",
"! 	c #28B2AE",
"~ 	c #35807E",
"{ 	c #358684",
"] 	c #476D6D",
"^ 	c #515757",
"/ 	c #48585A",
"( 	c #41716F",
"_ 	c #2F7774",
": 	c #25A29D",
"< 	c #27A5A1",
"[ 	c #27A19E",
"} 	c #299F9C",
"| 	c #28A09C",
"1 	c #26A5A1",
"2 	c #346B6A",
"3 	c #3E7776",
"4 	c #455B5C",
"5 	c #434F51",
"6 	c #5B5D5B",
"7 	c #3E4644",
"8 	c #495455",
"9 	c #436563",
"0 	c #30726F",
"a 	c #279894",
"b 	c #328686",
"c 	c #338180",
"d 	c #337F7D",
"e 	c #327F7D",
"f 	c #259D99",
"g 	c #336867",
"h 	c #3E7674",
"i 	c #475A5B",
"j 	c #404849",
"k 	c #58595A",
"l 	c #373938",
"m 	c #393C3B",
"n 	c #434E4D",
"o 	c #445958",
"p 	c #305557",
"q 	c #1E8181",
"r 	c #426361",
"s 	c #465F5E",
"t 	c #446260",
"u 	c #299592",
"v 	c #365656",
"w 	c #405F5E",
"x 	c #425151",
"y 	c #3B4042",
"z 	c #3D3F41",
"A 	c #353737",
"B 	c #484847",
"C 	c #393A3A",
"D 	c #3C3F40",
"E 	c #414A4A",
"F 	c #445656",
"G 	c #3A5355",
"H 	c #316A6B",
"I 	c #435C5D",
"J 	c #465B5C",
"K 	c #475C5D",
"L 	c #465D5C",
"M 	c #357472",
"N 	c #3B4E4F",
"O 	c #435857",
"P 	c #414C4C",
"Q 	c #3D4243",
"R 	c #3D3F40",
"S 	c #414242",
"T 	c #383838",
"U 	c #3B3C3E",
"V 	c #373A3B",
"W 	c #3B3F41",
"X 	c #3B4748",
"Y 	c #394D4E",
"Z 	c #3C4E4F",
"` 	c #3B4F4F",
" .	c #3C5051",
"..	c #3C5152",
"+.	c #3D4F50",
"@.	c #3D4D4C",
"#.	c #3C4A4A",
"$.	c #3B4645",
"%.	c #363A3A",
"&.	c #383939",
"*.	c #404041",
"=.	c #424343",
"-.	c #5E5F5E",
";.	c #5E5E5D",
">.	c #3B3A3A",
",.	c #2F2F30",
"'.	c #333739",
").	c #38494A",
"!.	c #3C5859",
"~.	c #3D5E5F",
"{.	c #3E6361",
"].	c #405C5B",
"^.	c #3F5D5A",
"/.	c #3F5D5B",
"(.	c #3F5E5B",
"_.	c #3F5D5C",
":.	c #3F6260",
"<.	c #3F6563",
"[.	c #406161",
"}.	c #3A4F50",
"|.	c #323B3E",
"1.	c #302F31",
"2.	c #363537",
"3.	c #3D3C3D",
"4.	c #242323",
"5.	c #2E3434",
"6.	c #323D3D",
"7.	c #364244",
"8.	c #373B3E",
"9.	c #463836",
"0.	c #453834",
"a.	c #4F3830",
"b.	c #56382E",
"c.	c #53362D",
"d.	c #51362C",
"e.	c #50352C",
"f.	c #51362D",
"g.	c #54382F",
"h.	c #483834",
"i.	c #49413E",
"j.	c #494240",
"k.	c #364042",
"l.	c #354547",
"m.	c #354143",
"n.	c #2D3234",
"o.	c #2A282A",
"p.	c #565557",
"q.	c #282C2E",
"r.	c #2D2D2D",
"s.	c #332B2B",
"t.	c #2E2828",
"u.	c #292324",
"v.	c #272021",
"w.	c #211F20",
"x.	c #191B1E",
"y.	c #1A1C1F",
"z.	c #1A1B1F",
"A.	c #1D1D20",
"B.	c #222123",
"C.	c #262325",
"D.	c #272525",
"E.	c #2F2727",
"F.	c #302929",
"G.	c #1E2125",
"H.	c #525353",
"I.	c #52B0B3",
"J.	c #43A4A8",
"K.	c #48A2A7",
"L.	c #2C787A",
"M.	c #305957",
"N.	c #2B4242",
"O.	c #1F292B",
"P.	c #232122",
"Q.	c #2C2322",
"R.	c #3E2821",
"S.	c #402922",
"T.	c #452C24",
"U.	c #482D26",
"V.	c #472C25",
"W.	c #432B25",
"X.	c #3F2823",
"Y.	c #242022",
"Z.	c #1A1E21",
"`.	c #232728",
" +	c #2C4140",
".+	c #335453",
"++	c #268389",
"@+	c #469395",
"#+	c #39A2A2",
"$+	c #2FABAA",
"%+	c #4FA6A6",
"&+	c #31A7A6",
"*+	c #226D6C",
"=+	c #306A6B",
"-+	c #437775",
";+	c #476866",
">+	c #476865",
",+	c #456662",
"'+	c #426260",
")+	c #41635E",
"!+	c #446762",
"~+	c #3D5A57",
"{+	c #395653",
"]+	c #3A5652",
"^+	c #3B5753",
"/+	c #3C5753",
"(+	c #3D5754",
"_+	c #3C5754",
":+	c #3D5755",
"<+	c #426460",
"[+	c #486D68",
"}+	c #47706A",
"|+	c #407171",
"1+	c #426F6F",
"2+	c #3F6966",
"3+	c #436A67",
"4+	c #3E7270",
"5+	c #3C807D",
"6+	c #2E5D5A",
"7+	c #48A29D",
"8+	c #4FB2B4",
"9+	c #439393",
"0+	c #465453",
"a+	c #436562",
"b+	c #426562",
"c+	c #304444",
"d+	c #2B3233",
"e+	c #384F50",
"f+	c #405757",
"g+	c #425C5B",
"h+	c #415958",
"i+	c #405E5B",
"j+	c #3F625F",
"k+	c #48706A",
"l+	c #49716B",
"m+	c #466862",
"n+	c #466560",
"o+	c #45635F",
"p+	c #44625F",
"q+	c #44635E",
"r+	c #45625F",
"s+	c #466462",
"t+	c #476B67",
"u+	c #466965",
"v+	c #43605E",
"w+	c #445F5E",
"x+	c #475858",
"y+	c #495C5B",
"z+	c #485755",
"A+	c #435352",
"B+	c #2D3A3A",
"C+	c #272D2F",
"D+	c #3C5553",
"E+	c #3C6764",
"F+	c #3B5854",
"G+	c #3A9190",
"H+	c #3E8E8D",
"I+	c #29898B",
"J+	c #396666",
"K+	c #404546",
"L+	c #404344",
"M+	c #434949",
"N+	c #4B4A49",
"O+	c #342E2E",
"P+	c #18181B",
"Q+	c #374242",
"R+	c #3B4647",
"S+	c #3C4749",
"T+	c #3E4A4B",
"U+	c #425E5A",
"V+	c #416561",
"W+	c #3E5A57",
"X+	c #405150",
"Y+	c #40504F",
"Z+	c #3F4E4D",
"`+	c #3F4D4C",
" @	c #3F4D4B",
".@	c #3E4D4B",
"+@	c #404F4D",
"@@	c #3E504F",
"#@	c #41615E",
"$@	c #45615F",
"%@	c #445554",
"&@	c #414B49",
"*@	c #414A49",
"=@	c #414847",
"-@	c #3E4545",
";@	c #262728",
">@	c #2A2828",
",@	c #3B3C3A",
"'@	c #3F4342",
")@	c #384344",
"!@	c #3A494A",
"~@	c #3F6464",
"{@	c #2AA0A0",
"]@	c #3FA8A8",
"^@	c #495554",
"/@	c #384444",
"(@	c #3B494A",
"_@	c #3E4142",
":@	c #443F3F",
"<@	c #483A37",
"[@	c #36302F",
"}@	c #191A1D",
"|@	c #19191C",
"1@	c #353D3E",
"2@	c #384C4F",
"3@	c #3E5558",
"4@	c #397B7B",
"5@	c #348989",
"6@	c #345D5F",
"7@	c #32383A",
"8@	c #333637",
"9@	c #353839",
"0@	c #36393A",
"a@	c #36383A",
"b@	c #353739",
"c@	c #353738",
"d@	c #353E3E",
"e@	c #2B7E80",
"f@	c #328989",
"g@	c #3E6765",
"h@	c #3F4C4B",
"i@	c #3F4647",
"j@	c #383B3C",
"k@	c #222224",
"l@	c #1C1C1D",
"m@	c #342E2D",
"n@	c #433531",
"o@	c #403735",
"p@	c #384244",
"q@	c #3B4648",
"r@	c #415353",
"s@	c #3D5456",
"t@	c #526B6F",
"u@	c #333335",
"v@	c #39393A",
"w@	c #363738",
"x@	c #2D2928",
"y@	c #1F1E21",
"z@	c #2D2C2E",
"A@	c #1C1C20",
"B@	c #2F3436",
"C@	c #2E6569",
"D@	c #298C8F",
"E@	c #23969B",
"F@	c #298083",
"G@	c #296D6F",
"H@	c #363231",
"I@	c #81422B",
"J@	c #2E3031",
"K@	c #3A4041",
"L@	c #393D3E",
"M@	c #683626",
"N@	c #713A29",
"O@	c #333A39",
"P@	c #2A8281",
"Q@	c #27A1A1",
"R@	c #2F908D",
"S@	c #249D9B",
"T@	c #2F3031",
"U@	c #1D1C1E",
"V@	c #272628",
"W@	c #232224",
"X@	c #2C2929",
"Y@	c #3F3736",
"Z@	c #2F2E30",
"`@	c #343334",
" #	c #363737",
".#	c #333334",
"+#	c #5D5D5E",
"@#	c #2B393B",
"##	c #28282A",
"$#	c #2D2D2E",
"%#	c #242224",
"&#	c #2F2C2C",
"*#	c #222124",
"=#	c #393838",
"-#	c #262627",
";#	c #252324",
">#	c #393534",
",#	c #2E5655",
"'#	c #303D3E",
")#	c #334343",
"!#	c #333E3E",
"~#	c #3D3836",
"{#	c #7D4331",
"]#	c #31302F",
"^#	c #363939",
"/#	c #363837",
"(#	c #60362B",
"_#	c #6B3B2E",
":#	c #2E3536",
"<#	c #3D4B4B",
"[#	c #354141",
"}#	c #2F5453",
"|#	c #304948",
"1#	c #342B29",
"2#	c #1F1C1E",
"3#	c #393536",
"4#	c #2D2B2C",
"5#	c #2B292B",
"6#	c #252426",
"7#	c #272729",
"8#	c #252527",
"9#	c #555554",
"0#	c #2A7E81",
"a#	c #348688",
"b#	c #372A29",
"c#	c #292A2A",
"d#	c #28292A",
"e#	c #363332",
"f#	c #212022",
"g#	c #202123",
"h#	c #19191B",
"i#	c #1C1B1C",
"j#	c #2E292A",
"k#	c #373030",
"l#	c #302D2E",
"m#	c #42312E",
"n#	c #4B3734",
"o#	c #294A4D",
"p#	c #2F5756",
"q#	c #2A5151",
"r#	c #295252",
"s#	c #285050",
"t#	c #284E4D",
"u#	c #274E4E",
"v#	c #303535",
"w#	c #453837",
"x#	c #272B2C",
"y#	c #302D2C",
"z#	c #252122",
"A#	c #171518",
"B#	c #18171A",
"C#	c #1F1E20",
"D#	c #2E2D2F",
"E#	c #363739",
"F#	c #292B2E",
"G#	c #4C3936",
"H#	c #477D81",
"I#	c #379195",
"J#	c #446469",
"K#	c #354848",
"L#	c #2C2628",
"M#	c #373130",
"N#	c #2F2C2D",
"O#	c #222324",
"P#	c #17181A",
"Q#	c #161417",
"R#	c #1B171A",
"S#	c #1A181B",
"T#	c #221E1F",
"U#	c #242122",
"V#	c #3B3636",
"W#	c #3E3939",
"X#	c #323C3E",
"Y#	c #303C3E",
"Z#	c #2F3C3D",
"`#	c #2F3B3C",
" $	c #2E3A3B",
".$	c #2C383A",
"+$	c #2D393A",
"@$	c #363839",
"#$	c #403D3C",
"$$	c #1E1A1B",
"%$	c #1B191B",
"&$	c #141417",
"*$	c #161619",
"=$	c #302C2B",
"-$	c #3C3736",
";$	c #392D2B",
">$	c #3A3937",
",$	c #2D4B4F",
"'$	c #616568",
")$	c #465457",
"!$	c #384A4E",
"~$	c #2F363A",
"{$	c #292A2C",
"]$	c #2B2B2C",
"^$	c #352D2C",
"/$	c #2D2A2B",
"($	c #202022",
"_$	c #141418",
":$	c #191719",
"<$	c #1F1C1C",
"[$	c #262221",
"}$	c #201D1E",
"|$	c #151517",
"1$	c #262222",
"2$	c #292625",
"3$	c #2C2A2A",
"4$	c #2C2A29",
"5$	c #2B2929",
"6$	c #2A2827",
"7$	c #292828",
"8$	c #292727",
"9$	c #2A2727",
"0$	c #282526",
"a$	c #141519",
"b$	c #1D1D1F",
"c$	c #1E1C1D",
"d$	c #211D1F",
"e$	c #161517",
"f$	c #161719",
"g$	c #2D2A2A",
"h$	c #363130",
"i$	c #2D2E2F",
"j$	c #2A2E2F",
"k$	c #333E40",
"l$	c #304447",
"m$	c #365357",
"n$	c #6B797B",
"o$	c #4D5A5E",
"p$	c #314146",
"q$	c #323435",
"r$	c #54382C",
"s$	c #4E352C",
"t$	c #47332D",
"u$	c #29292B",
"v$	c #292729",
"w$	c #1F1F21",
"x$	c #16161A",
"y$	c #18191B",
"z$	c #1A1A1C",
"A$	c #141517",
"B$	c #1C1D1F",
"C$	c #1D1E20",
"D$	c #1E1F21",
"E$	c #1C1E1F",
"F$	c #16191A",
"G$	c #141719",
"H$	c #111417",
"I$	c #141619",
"J$	c #141518",
"K$	c #1F2122",
"L$	c #202223",
"M$	c #212223",
"N$	c #191B1C",
"O$	c #171719",
"P$	c #1B1A1C",
"Q$	c #151719",
"R$	c #131517",
"S$	c #121417",
"T$	c #282A2B",
"U$	c #2F3233",
"V$	c #443933",
"W$	c #50392D",
"X$	c #3D312D",
"Y$	c #24292B",
"Z$	c #273436",
"`$	c #3A494C",
" %	c #616D71",
".%	c #28383C",
"+%	c #3D3535",
"@%	c #523731",
"#%	c #57392E",
"$%	c #43322B",
"%%	c #48332B",
"&%	c #4C3127",
"*%	c #201E1F",
"=%	c #1A1A1D",
"-%	c #151619",
";%	c #151819",
">%	c #282B2C",
",%	c #313436",
"'%	c #2D2E30",
")%	c #242626",
"!%	c #1D1E1F",
"~%	c #1B1D1F",
"{%	c #17181B",
"]%	c #1C1E20",
"^%	c #18191C",
"/%	c #1E1E20",
"(%	c #29282A",
"_%	c #343435",
":%	c #343434",
"<%	c #242425",
"[%	c #18191A",
"}%	c #17191A",
"|%	c #181A1B",
"1%	c #151718",
"2%	c #141618",
"3%	c #191B1D",
"4%	c #1D1F20",
"5%	c #4B362D",
"6%	c #4A362F",
"7%	c #40312B",
"8%	c #44342D",
"9%	c #45322C",
"0%	c #332C2B",
"a%	c #252B2E",
"b%	c #436267",
"c%	c #436C6B",
"d%	c #253738",
"e%	c #342928",
"f%	c #483430",
"g%	c #48322D",
"h%	c #51342D",
"i%	c #42312D",
"j%	c #332726",
"k%	c #1D1A1C",
"l%	c #444547",
"m%	c #5C5D5E",
"n%	c #141F20",
"o%	c #0D7174",
"p%	c #154C52",
"q%	c #173941",
"r%	c #173034",
"s%	c #1E1F1F",
"t%	c #222323",
"u%	c #1F2123",
"v%	c #2A2B2B",
"w%	c #222223",
"x%	c #16181A",
"y%	c #193033",
"z%	c #164B4B",
"A%	c #0F605E",
"B%	c #124C49",
"C%	c #172A28",
"D%	c #3E3F3F",
"E%	c #595A5B",
"F%	c #362926",
"G%	c #3C2D29",
"H%	c #46332D",
"I%	c #3D2E2B",
"J%	c #432F29",
"K%	c #352A29",
"L%	c #25393E",
"M%	c #315E63",
"N%	c #607C82",
"O%	c #344A4C",
"P%	c #333E3F",
"Q%	c #28292C",
"R%	c #2E2D30",
"S%	c #2D2B2E",
"T%	c #232427",
"U%	c #1B1D21",
"V%	c #2B2E31",
"W%	c #707072",
"X%	c #142527",
"Y%	c #0D5055",
"Z%	c #0A6B70",
"`%	c #114B4E",
" &	c #19272A",
".&	c #242526",
"+&	c #27282A",
"@&	c #232425",
"#&	c #252526",
"$&	c #1F2021",
"%&	c #115C59",
"&&	c #0F6E6B",
"*&	c #106463",
"=&	c #143434",
"-&	c #464747",
";&	c #252628",
">&	c #252325",
",&	c #2E2829",
"'&	c #313033",
")&	c #2F3033",
"!&	c #25272A",
"~&	c #343C3F",
"{&	c #3A4344",
"]&	c #36676A",
"^&	c #5C787B",
"/&	c #36464A",
"(&	c #363B3C",
"_&	c #1E1E21",
":&	c #232426",
"<&	c #262628",
"[&	c #1B1D20",
"}&	c #333538",
"|&	c #5F5F60",
"1&	c #1A1C1D",
"2&	c #1A1E1F",
"3&	c #222425",
"4&	c #242628",
"5&	c #27292A",
"6&	c #28292B",
"7&	c #292B2D",
"8&	c #2B2C2E",
"9&	c #333638",
"0&	c #222326",
"a&	c #272A2B",
"b&	c #252626",
"c&	c #232526",
"d&	c #202222",
"e&	c #3A3A3B",
"f&	c #343537",
"g&	c #1F1F22",
"h&	c #28282B",
"i&	c #303133",
"j&	c #353535",
"k&	c #3A3B3A",
"l&	c #3C7172",
"m&	c #4D929B",
"n&	c #384547",
"o&	c #2E2C2E",
"p&	c #252D32",
"q&	c #293134",
"r&	c #1D2022",
"s&	c #55585B",
"t&	c #DEE3E6",
"u&	c #414344",
"v&	c #203035",
"w&	c #183F46",
"x&	c #154B50",
"y&	c #243539",
"z&	c #2D3134",
"A&	c #303234",
"B&	c #323436",
"C&	c #383B3D",
"D&	c #404444",
"E&	c #44494A",
"F&	c #242728",
"G&	c #424848",
"H&	c #3D4344",
"I&	c #3B4140",
"J&	c #333839",
"K&	c #273334",
"L&	c #1B4B49",
"M&	c #1C4142",
"N&	c #1C393B",
"O&	c #161518",
"P&	c #353536",
"Q&	c #4C4D4E",
"R&	c #1A1D21",
"S&	c #262D32",
"T&	c #273135",
"U&	c #2E3032",
"V&	c #34393A",
"W&	c #393F3F",
"X&	c #2C7678",
"Y&	c #54A9AC",
"Z&	c #4B4F4C",
"`&	c #473A37",
" *	c #392F2E",
".*	c #2B2A2B",
"+*	c #312E2F",
"@*	c #202428",
"#*	c #484A4C",
"$*	c #C0C2C2",
"%*	c #838587",
"&*	c #26272C",
"**	c #282C30",
"=*	c #2F3235",
"-*	c #36494D",
";*	c #393C3D",
">*	c #3F4444",
",*	c #414747",
"'*	c #434948",
")*	c #4B5151",
"!*	c #282A2C",
"~*	c #4A5050",
"{*	c #414848",
"]*	c #3D4444",
"^*	c #353D3D",
"/*	c #2F4C4C",
"(*	c #2C2D2E",
"_*	c #2B2F31",
":*	c #293335",
"<*	c #1A191B",
"[*	c #131314",
"}*	c #19191A",
"|*	c #424245",
"1*	c #202024",
"2*	c #292A2B",
"3*	c #30302F",
"4*	c #322F2F",
"5*	c #323030",
"6*	c #3F3433",
"7*	c #4D4A46",
"8*	c #1F9EA3",
"9*	c #2B2D2F",
"0*	c #2B3539",
"a*	c #29363A",
"b*	c #293739",
"c*	c #323839",
"d*	c #A1A3A5",
"e*	c #505053",
"f*	c #191B1F",
"g*	c #232528",
"h*	c #292A2E",
"i*	c #2B2C30",
"j*	c #373536",
"k*	c #343839",
"l*	c #3C4040",
"m*	c #3F4443",
"n*	c #404645",
"o*	c #424847",
"p*	c #4C5352",
"q*	c #292C2D",
"r*	c #4E5655",
"s*	c #414748",
"t*	c #3F4545",
"u*	c #3D4343",
"v*	c #3B4040",
"w*	c #363D3C",
"x*	c #302F30",
"y*	c #2B2C2D",
"z*	c #29292A",
"A*	c #1F1F20",
"B*	c #272828",
"C*	c #6B6B6C",
"D*	c #373A3D",
"E*	c #222E35",
"F*	c #272F35",
"G*	c #2F3437",
"H*	c #33363A",
"I*	c #2D3136",
"J*	c #2C2E33",
"K*	c #383A3C",
"L*	c #353636",
"M*	c #442F26",
"N*	c #2C2523",
"O*	c #1C2021",
"P*	c #1A1C1E",
"Q*	c #1B1B1F",
"R*	c #1C2729",
"S*	c #212729",
"T*	c #4C4644",
"U*	c #363A39",
"V*	c #393D3C",
"W*	c #3C403F",
"X*	c #404544",
"Y*	c #414646",
"Z*	c #4D5453",
"`*	c #3D4242",
" =	c #3C4141",
".=	c #383C3C",
"+=	c #393E3F",
"@=	c #313535",
"#=	c #282729",
"$=	c #46413F",
"%=	c #292829",
"&=	c #272727",
"*=	c #1F2121",
"==	c #1C1C1E",
"-=	c #202225",
";=	c #302928",
">=	c #4C322B",
",=	c #372F2F",
"'=	c #353537",
")=	c #3A3736",
"!=	c #332E2D",
"~=	c #1B1D1E",
"{=	c #16181B",
"]=	c #1C1D20",
"^=	c #666668",
"/=	c #1A191C",
"(=	c #2C2D30",
"_=	c #4B4443",
":=	c #2A2B2C",
"<=	c #333535",
"[=	c #353837",
"}=	c #3B3F3F",
"|=	c #3A3E3D",
"1=	c #3E4342",
"2=	c #4A5150",
"3=	c #252728",
"4=	c #484F4F",
"5=	c #373B3B",
"6=	c #3A3E3E",
"7=	c #3B3F40",
"8=	c #303333",
"9=	c #2E3132",
"0=	c #262526",
"a=	c #484240",
"b=	c #1F2022",
"c=	c #1C1D1E",
"d=	c #201F21",
"e=	c #18181C",
"f=	c #1D1A1E",
"g=	c #241D1D",
"h=	c #2C2524",
"i=	c #343030",
"j=	c #8E5441",
"k=	c #573E34",
"l=	c #2B2B2B",
"m=	c #322A29",
"n=	c #3F3533",
"o=	c #313132",
"p=	c #2C2C2D",
"q=	c #2B2D2D",
"r=	c #48423E",
"s=	c #2F2B2B",
"t=	c #313332",
"u=	c #313233",
"v=	c #323434",
"w=	c #343536",
"x=	c #4A504F",
"y=	c #242727",
"z=	c #323334",
"A=	c #303233",
"B=	c #353838",
"C=	c #303232",
"D=	c #393433",
"E=	c #3E3937",
"F=	c #292B2A",
"G=	c #1B1C1E",
"H=	c #343436",
"I=	c #393636",
"J=	c #322624",
"K=	c #3F3D3E",
"L=	c #241F1F",
"M=	c #4F3933",
"N=	c #794D3B",
"O=	c #5B5352",
"P=	c #323332",
"Q=	c #1B1C1F",
"R=	c #342625",
"S=	c #423431",
"T=	c #ACADAE",
"U=	c #1D1D1E",
"V=	c #2E2E2E",
"W=	c #2E2F30",
"X=	c #4A433F",
"Y=	c #252323",
"Z=	c #3A3D3D",
"`=	c #343737",
" -	c #323535",
".-	c #313334",
"+-	c #4B5150",
"@-	c #252829",
"#-	c #4C5253",
"$-	c #343636",
"%-	c #333736",
"&-	c #312D2C",
"*-	c #403A38",
"=-	c #383232",
"--	c #352724",
";-	c #434245",
">-	c #212123",
",-	c #3A3839",
"'-	c #534845",
")-	c #464040",
"!-	c #3C2F2E",
"~-	c #2A2526",
"{-	c #4C4B4C",
"]-	c #4E4E50",
"^-	c #262727",
"/-	c #2F3030",
"(-	c #4D4541",
"_-	c #272324",
":-	c #393E3D",
"<-	c #3A3F3E",
"[-	c #3B3E3E",
"}-	c #383B3B",
"|-	c #4E5352",
"1-	c #4C5151",
"2-	c #37393A",
"3-	c #393C3C",
"4-	c #383C3B",
"5-	c #312C2C",
"6-	c #413A38",
"7-	c #2A2A2B",
"8-	c #202122",
"9-	c #191A1C",
"0-	c #1A1B1D",
"a-	c #4B4B4B",
"b-	c #595556",
"c-	c #362F2F",
"d-	c #3D3432",
"e-	c #3F3C3D",
"f-	c #6E6D6E",
"g-	c #4F4E4F",
"h-	c #292425",
"i-	c #3F3E40",
"j-	c #2B2B2D",
"k-	c #1C1B1D",
"l-	c #353433",
"m-	c #4C433F",
"n-	c #292627",
"o-	c #343535",
"p-	c #333434",
"q-	c #4B4F4F",
"r-	c #494E4E",
"s-	c #3A3D3C",
"t-	c #323433",
"u-	c #303131",
"v-	c #2E2A2A",
"w-	c #423B38",
"x-	c #2A2A2C",
"y-	c #49494B",
"z-	c #383233",
"A-	c #4A4748",
"B-	c #3D3E3F",
"C-	c #1B1B1D",
"D-	c #202021",
"E-	c #443C39",
"F-	c #2B2829",
"G-	c #303030",
"H-	c #32302F",
"I-	c #393837",
"J-	c #474C4C",
"K-	c #464B4B",
"L-	c #383A39",
"M-	c #323333",
"N-	c #2F2F2F",
"O-	c #262626",
"P-	c #3A3332",
"Q-	c #373232",
"R-	c #1D1B1E",
"S-	c #1D1C20",
"T-	c #222125",
"U-	c #585859",
"V-	c #1B1C1D",
"W-	c #252627",
"X-	c #473D3B",
"Y-	c #292626",
"Z-	c #2F2F2E",
"`-	c #37302E",
" ;	c #3D302C",
".;	c #363838",
"+;	c #444948",
"@;	c #333636",
"#;	c #343130",
"$;	c #372E2D",
"%;	c #2E2E2D",
"&;	c #3B3433",
"*;	c #383333",
"=;	c #212124",
"-;	c #1C1B1F",
";;	c #4C4B4D",
">;	c #1A1B1C",
",;	c #252727",
"';	c #49403D",
");	c #313131",
"!;	c #312F30",
"~;	c #373231",
"{;	c #37312F",
"];	c #313232",
"^;	c #322F2D",
"/;	c #2E2D2E",
"(;	c #282829",
"_;	c #3D3534",
":;	c #3B3534",
"<;	c #272728",
"[;	c #272627",
"};	c #232324",
"|;	c #474849",
"1;	c #2C2E2E",
"2;	c #1C1D1D",
"3;	c #292525",
"4;	c #2E2D2D",
"5;	c #2D2C2D",
"6;	c #2E3535",
"7;	c #3C4443",
"8;	c #3C4646",
"9;	c #303A39",
"0;	c #2C2B2C",
"a;	c #282828",
"b;	c #212222",
"c;	c #232325",
"d;	c #555656",
"e;	c #1A1A1B",
"f;	c #242525",
"g;	c #3A3534",
"h;	c #3B3533",
"i;	c #2C2D2C",
"j;	c #2C2C2B",
"k;	c #2B2C2B",
"l;	c #214646",
"m;	c #104D4D",
"n;	c #13191B",
"o;	c #1A4647",
"p;	c #2D2C2C",
"q;	c #2C2C2C",
"r;	c #2A2A2A",
"s;	c #282727",
"t;	c #3D3634",
"u;	c #322F2E",
"v;	c #242625",
"w;	c #252625",
"x;	c #1E1F20",
"y;	c #535353",
"z;	c #433D39",
"A;	c #2E2A28",
"B;	c #2A2B2A",
"C;	c #2A2C2A",
"D;	c #1E4B4C",
"E;	c #085658",
"F;	c #121A1B",
"G;	c #0F4E4F",
"H;	c #1B5050",
"I;	c #2F2E2E",
"J;	c #2C2B2B",
"K;	c #262726",
"L;	c #3E3734",
"M;	c #33302E",
"N;	c #232525",
"O;	c #444445",
"P;	c #202121",
"Q;	c #292929",
"R;	c #453E3A",
"S;	c #2F2B29",
"T;	c #282928",
"U;	c #094F50",
"V;	c #121416",
"W;	c #0D4747",
"X;	c #184C4C",
"Y;	c #2B2A2A",
"Z;	c #252525",
"`;	c #3C3432",
" >	c #302E2C",
".>	c #252827",
"+>	c #191A1B",
"@>	c #212122",
"#>	c #222122",
"$>	c #403A36",
"%>	c #2B2826",
"&>	c #292A29",
"*>	c #1F494A",
"=>	c #094C4D",
"->	c #121315",
";>	c #0C4544",
">>	c #174A49",
",>	c #2A2A29",
"'>	c #282929",
")>	c #252524",
"!>	c #3D3532",
"~>	c #2E2B2A",
"{>	c #212323",
"]>	c #565657",
"^>	c #262323",
"/>	c #292524",
"(>	c #322E2C",
"_>	c #36312E",
":>	c #20201F",
"<>	c #2A292A",
"[>	c #2A2929",
"}>	c #214748",
"|>	c #0A4A4B",
"1>	c #131416",
"2>	c #0D4444",
"3>	c #184948",
"4>	c #2B2A29",
"5>	c #272829",
"6>	c #232323",
"7>	c #3B322F",
"8>	c #2F2929",
"9>	c #252222",
"0>	c #1D1C1F",
"a>	c #525252",
"b>	c #232123",
"c>	c #2C2323",
"d>	c #322523",
"e>	c #312523",
"f>	c #382D2C",
"g>	c #2E2827",
"h>	c #222121",
"i>	c #272626",
"j>	c #262424",
"k>	c #2A2525",
"l>	c #1F4547",
"m>	c #0A4C4C",
"n>	c #124545",
"o>	c #1A4746",
"p>	c #2C2928",
"q>	c #292526",
"r>	c #282525",
"s>	c #262527",
"t>	c #262425",
"u>	c #292424",
"v>	c #2F2222",
"w>	c #352421",
"x>	c #302221",
"y>	c #272122",
"z>	c #221F21",
"A>	c #4D4E4F",
"B>	c #2F696F",
"C>	c #1E2326",
"D>	c #232022",
"E>	c #262122",
"F>	c #312422",
"G>	c #322522",
"H>	c #352420",
"I>	c #2F2221",
"J>	c #282425",
"K>	c #2B2727",
"L>	c #342421",
"M>	c #352523",
"N>	c #352422",
"O>	c #2E2726",
"P>	c #312625",
"Q>	c #234548",
"R>	c #155153",
"S>	c #17181C",
"T>	c #184949",
"U>	c #1F4947",
"V>	c #312725",
"W>	c #312624",
"X>	c #322521",
"Y>	c #33231F",
"Z>	c #2D2424",
"`>	c #262525",
" ,	c #222022",
".,	c #362422",
"+,	c #392521",
"@,	c #382420",
"#,	c #322320",
"$,	c #24201F",
"%,	c #201E1E",
"&,	c #2D4547",
"*,	c #377576",
"=,	c #226467",
"-,	c #436F71",
";,	c #1D383D",
">,	c #283538",
",,	c #2C3437",
"',	c #362723",
"),	c #36241F",
"!,	c #252224",
"~,	c #292726",
"{,	c #312524",
"],	c #362421",
"^,	c #372421",
"/,	c #302423",
"(,	c #352522",
"_,	c #362521",
":,	c #264547",
"<,	c #628A8D",
"[,	c #28716F",
"},	c #204B4A",
"|,	c #332624",
"1,	c #2D2321",
"2,	c #2C2221",
"3,	c #332320",
"4,	c #2E2424",
"5,	c #382421",
"6,	c #3B2D28",
"7,	c #2D4244",
"8,	c #274341",
"9,	c #1F4D4B",
"0,	c #426C6E",
"a,	c #568081",
"b,	c #477075",
"c,	c #18494D",
"d,	c #1E4D50",
"e,	c #153B3D",
"f,	c #1A3335",
"g,	c #1A3134",
"h,	c #262F30",
"i,	c #303231",
"j,	c #293435",
"k,	c #2B3535",
"l,	c #303636",
"m,	c #303735",
"n,	c #234C4D",
"o,	c #5D8385",
"p,	c #2C6E6D",
"q,	c #1E5152",
"r,	c #2D3433",
"s,	c #293131",
"t,	c #283132",
"u,	c #243334",
"v,	c #2A3536",
"w,	c #2D3436",
"x,	c #203438",
"y,	c #1E3538",
"z,	c #1D3638",
"A,	c #153E41",
"B,	c #1A494B",
"C,	c #325758",
"D,	c #16171A",
"E,	c #183336",
"F,	c #173C3F",
"G,	c #163B3E",
"H,	c #11373A",
"I,	c #0E3032",
"J,	c #103233",
"K,	c #314747",
"L,	c #295556",
"M,	c #133336",
"N,	c #123336",
"O,	c #133437",
"P,	c #1C383A",
"Q,	c #1B3737",
"R,	c #183535",
"S,	c #172325",
"T,	c #404141",
"U,	c #1B1A1B",
"V,	c #171C1F",
"W,	c #153336",
"X,	c #163437",
"Y,	c #1A2020",
"Z,	c #191E20",
"`,	c #1A2929",
" '	c #183938",
".'	c #173231",
"+'	c #161D1F",
"@'	c #555857",
"#'	c #1F191B",
"$'	c #242120",
"%'	c #242221",
"&'	c #221E1D",
"*'	c #211919",
"='	c #211C1C",
"-'	c #221F1E",
";'	c #232120",
">'	c #22201F",
",'	c #26201E",
"''	c #514D4D",
")'	c #3B383A",
"!'	c #1B1719",
"~'	c #222020",
"{'	c #1E1E1F",
"]'	c #262324",
"^'	c #2E2E2F",
"/'	c #17191E",
"('	c #191A1E",
"_'	c #1B1C20",
":'	c #322926",
"<'	c #282323",
"['	c #171E20",
"}'	c #181E21",
"|'	c #1D1E21",
"1'	c #1A1B1E",
"2'	c #1A1E20",
"3'	c #1B1E21",
"4'	c #342A27",
"5'	c #2C2625",
"6'	c #1A1A1E",
"7'	c #19191D",
"8'	c #1C1A1C",
"9'	c #1D1B1C",
"0'	c #1F1D1F",
"a'	c #2A2422",
"b'	c #252020",
"c'	c #1B1B1E",
"d'	c #2C2B2E",
"e'	c #1E1D1F",
"f'	c #2B2222",
"g'	c #1C1A1D",
"h'	c #141416",
"i'	c #6C6C6D",
"j'	c #333233",
"k'	c #363637",
"l'	c #474747",
"m'	c #383739",
"n'	c #303032",
"o'	c #424242",
"                                                                                                                                ",
"                                                                                                                                ",
"                                                                                                                                ",
"                                                                                                                                ",
"                                                                                                                                ",
"                                                                                                                                ",
"                                                                                                                                ",
"                                                          . + @ # $ % & *                                                       ",
"                                                        = - ; > , ' ) ! ~ { ]                                                   ",
"                                                    ^ / ( _ : < [ } | 1 2 3 4 5                                                 ",
"                                                  6 7 8 9 0 a b c d e f g h i j k                                               ",
"                                                  l m n o p q r s s t u v w x y z A                                             ",
"                                                B C D E F G H I J K L M N O P Q R S                                             ",
"                                                T U V W X Y Z `  ...+.@.#.$.%.&.*.=.-.                                          ",
"                                            ;.>.,.'.).!.~.{.].^././.(._.:.<.[.}.|.1.2.3.                                        ",
"                                            4.5.6.7.8.9.0.a.b.c.d.e.f.g.h.i.j.k.l.m.n.o.p.                                      ",
"                                              q.r.s.t.u.v.w.x.y.z.z.z.x.A.B.C.D.E.F.G.H.                                        ",
"                                        I.J.K.L.M.N.O.P.Q.R.S.T.U.U.V.W.X.Y.Z.`. +.+++@+#+$+                                    ",
"                                %+&+*+=+-+;+>+,+'+)+!+~+{+]+]+^+/+/+(+_+:+~+<+[+}+|+1+2+3+4+5+6+7+                              ",
"                            8+9+0+a+b+c+d+e+f+g+h+i+j+k+l+m+n+o+p+q+r+s+>+t+u+v+w+x+y+z+A+B+C+D+E+F+G+                          ",
"                          H+I+J+K+L+M+N+O+P+Q+R+S+T+U+V+W+X+Y+Z+`+ @.@+@@@#@$@%@&@*@=@-@;@>@,@'@)@!@~@{@]@                      ",
"                          ^@/@(@_@_@:@<@[@}@|@1@2@3@4@5@6@7@8@9@0@a@b@c@d@e@f@g@h@i@j@k@l@m@n@o@p@q@r@s@t@                      ",
"                            u@v@w@w@m@x@y@z@A@B@C@D@E@F@G@H@I@J@K@L@M@N@O@P@Q@R@S@Q+T@U@V@W@X@Y@Z@`@ #.#+#                      ",
"                              @###$#%#&#*#=#-#;#>#,#'#)#!#~#{#]#^#/#(#_#:#<#[#}#|#1#2#;#3#4#5#6#7#V@8#9#                        ",
"                            0#a#b#c#d#e#f#g#h#i#j#k#l#m#n#o#p#q#r#s#t#u#v#w#x#y#[@z#A#B#C#6#D#E#F#G#H#I#J#                      ",
"                            K#v@L#$#M#N#O#P#Q#R#S#T#U#V#W#X#Y#Z#`# $.$+$@$#$T@P.C#$$%$&$*$O#=$-$T@;$>$,$'$                      ",
"                          )$!$~${$]$^$/$($_$:$<$[$}$|$1$2$3$4$5$6$7$8$8$9$0$C#a$b$c$d$e$f$($g$h$i$j$k$l$m$n$                    ",
"                        o$p$q$r$s$t$u$v$w$x$y$z$P#A$B$C$D$E$F$G$H$I$J$P#K$L$M$N$O$P$Q$R$S$K$T$U$V$W$X$Y$Z$`$                    ",
"                       %.%+%@%#%$%%%&%*%=%-%Q$;%F$;%>%,%'%)%!%~%{%]%^%/%(%_%:%<%[%}%|%1%2%3%4%5%6%7%8%9%0%a%b%                  ",
"                      c%d%e%f%g%h%i%j%k%l%m%f$G$n%o%p%q%r%s%t%;@u%v%D$w%x%y%z%A%B%C%}%G$D%E%{%F%G%H%I%J%K%L%M%                  ",
"                    N%O%P%y.Q%R%S%T%U%V%  W%X%Y%Z%`% &D$K$.&O#+&D$T$B$@&#&$&!%y$%&&&*&=&-&  ;&z$>&,&'&)&!&~&{&]&                ",
"                    ^&/&(&_&:&u$<&[&}&    |&1&2&1&3&4&5&6&7&8&9&0&8@a&a&T$d#b&c&d&4%$&P#e&    f&g&h&i&6&g#j&k&l&                ",
"                    m&n&v@o&u$p&q&r&s&t&u&/%v&w&x&y&z&A&B&C&D&E&F&G&H&I&J&,%v#K&L&M&N&w$O&P&  Q&R&S&T&q.U&V&W&X&                ",
"                  Y&Z&`& *.*+*l#@*#*$*%*T@D$&***=*-*~&;*>*,*'*)*!*~*G&{*{*]*^*/*(*_*:*.&<*[*}*  |*1*2*3*4*5*6*7*8*              ",
"                    9*$#0*a*@#b*c*d*  e*f*g*h*i*j*c@k*l*m*n*o*p*q*r*G&s*t*u*v*w*D#x*y*z*A*P$B*  C*D*E*F*G*H*I*J*K*              ",
"                    L*X$M*N*O*P*      Q*R*S*7&.#T*$#U*V*W*X*Y*p*a&Z*t*`* =.=+=@=#=$=]$%=&=*===      -=g&;=>=,='=                ",
"                    )=!=u%~={=]=^=    /=g&+&(=.#_=:=<=[=}=|=1=2=3=4=5=6=7=V 8=9=0=a=2*2*v%b=c=      d=e=f=g=h=i=                ",
"                    j=k=8${=l=m=n=  o=/%:&p=q=r=s=<=t=u=v=w=c@x=y=~*v=v=z=u=A=B=C=D=E=c#F=*=G=H=  I=J=K=;&L=M=N=                ",
"                    O=P=[&Q=  R=S=T=$&U=<%V=W=X=Y=Z=%.`= -C=.-+-@-#-u=u=.-`=$-5=%-&-*-c#c#$&1&O#  =---  ;->-,-'-                ",
"                      )-!-~-{-    ]-i#A*^-V=/-(-_-Z=:-<-[-}-Z=|-2*1-2-}-3-Z=V*4-B=5-6-7-v%8-9-0-a-    b-c-d-e-f-                ",
"                        g-h-i-    j-k-A*b&(*l-m-n-o-p-3-6=6=[-q-6&r-}=|=s-}-B=t-u-v-w-r.v%g#=%=%x-    y-z-A-                    ",
"                                B->-C-D-^-7-E-F-G-5*H-M#I-3-j@J-;&K-V*V*L-M-G-G-N-O-P-Q-u$>-R-S-T-U-                            ",
"                                o=C-V-O#W-c#X-Y-Z-3*5*`- ;v=.;+;O#Y*B=@;#;$;%;N-V=%=&;*;#=<&=;-;C-;;                            ",
"                                ;@>;==,;&=B*';Y-);!;N-~;{;C=A=m*$&t*t=C=];^;r.V=/;(;_;:;<;[;};z$h#|;                            ",
"                              1;2;};b&<;;@<;i.3;P=4;5;4;N-/-6;7;d&8;9;);]#N-!;/;0;a;P-D=O-b&<%b;V-c;d;                          ",
"                              2;e;f;b&^-;@g;h;;#G-i;j;k;k;k;l;m;n;o;l;%;p;0;q;l=l=r;s;t;u;)%v;w;8-x;y;                          ",
"                              M$h#O#w%.&z*z;A;a;B;v%C;B;v%B;D;E;F;G;H;I;J;]$l=l=.*r;K;L;M;B*N;N;8-4%O;                          ",
"                            P;V-A*w$w%-#Q;R;S;T;r;r;B;B;B;B;D;U;V;W;X;J;Y;Y;B;r;r;r;Z;`; >.>.>M$8-$&+>d;                        ",
"                            @>==D-#>};Z;Y;$>%>7$&>r;B;B;Y;.**>=>->;>>>Y;Y;Y;r;r;,>'>)>!>~>O-{>8-8-D-l@]>                        ",
"                            @>==@>w%^>/>(>_>:>Q;&=<>[>r;Y;.*}>|>1>2>3>Y;Y;4>r;.*r;5>6>7>8>9>U#w$($($0>a>                        ",
"                            W@w$b>c>d>e>f>g>h>i>j>2$k>F-5$[>l>m>R$n>o>p>5$Q;[>q>r>;#s>t>u>v>w>x>y>z>C#A>                        ",
"                          B>C>D>E>F>G>H>I>>;J>K>L>M>N>O>M>P>Q>R>S>T>U>V>W>K>X>Y>Z>`>[;=; ,.,+,@,#,$,%,&,*,                      ",
"                            =,-,;,>,,,',),}@!,~,{,],^,/,(,_,:,<,  [,},|,e>1,2,3,4,0$0=($z>5,6,7,8,9,0,a,                        ",
"                                    b,c,d,e,f,g,h,i,j,k,l,m,n,o,  p,q,r,s,t,u,v,w,x,y,z,A,B,C,                                  ",
"                                      D,E,F,G,H,I,J,K,                      L,M,N,O,P,Q,R,S,T,                                  ",
"                                      U,V,W,X,Y,3%1&D%                        z$==Z,`, '.'+'@'                                  ",
"                                      #'<$$'%'$,&'8>                            *'='-';'>','''                                  ",
"                                    )'!'1&~'d=4%{'v-                            i#0-]%]'4.U=i#};                                ",
"                                ^'8#/'('_':'<'['}'|'                          (%1'2'3'4'5'B$|@z$<&O;                            ",
"                              >-6'7'8'9'0'a'b'b$c'/=                          d'/=0>e'f'b'g'k%O&h'|$i'                          ",
"                                      z*5;o&1.j'k'                              l'm'H=n'Z@Z@o'                                  ",
"                                                                                                                                ",
"                                                                                                                                ",
"                                                                                                                                "};
