/* XPM */
static char * enemy_xpm[] = {
"64 64 1750 2",
"  	c None",
". 	c #E5E2E4",
"+ 	c #D7D9D7",
"@ 	c #E4E6E4",
"# 	c #E4E3E4",
"$ 	c #D3D5D5",
"% 	c #DFE1E2",
"& 	c #E2E2E1",
"* 	c #D7DAD8",
"= 	c #E4E7E6",
"- 	c #E0E1E0",
"; 	c #A7A6A6",
"> 	c #818284",
", 	c #8C8D8F",
"' 	c #8E8E8F",
") 	c #909192",
"! 	c #919193",
"~ 	c #8F9092",
"{ 	c #909294",
"] 	c #949798",
"^ 	c #9FA1A1",
"/ 	c #E1E2E4",
"( 	c #D8D9D8",
"_ 	c #E6E8E8",
": 	c #DFDFDF",
"< 	c #706F6F",
"[ 	c #323233",
"} 	c #373738",
"| 	c #383839",
"1 	c #39393A",
"2 	c #393839",
"3 	c #383838",
"4 	c #3A3C3B",
"5 	c #3B3C3C",
"6 	c #A8A9A8",
"7 	c #D1D2D3",
"8 	c #E2E3E5",
"9 	c #E1E0DF",
"0 	c #666564",
"a 	c #2B2B2C",
"b 	c #303030",
"c 	c #323231",
"d 	c #353433",
"e 	c #343333",
"f 	c #363635",
"g 	c #3A3A3A",
"h 	c #1B1B19",
"i 	c #8F8F8F",
"j 	c #CED0CE",
"k 	c #E1E1E2",
"l 	c #E1E0DE",
"m 	c #E0E0DF",
"n 	c #5A5958",
"o 	c #535352",
"p 	c #5B5B5A",
"q 	c #585857",
"r 	c #5C5C5C",
"s 	c #60615F",
"t 	c #5E5E5D",
"u 	c #636363",
"v 	c #292828",
"w 	c #6E6E70",
"x 	c #A3A4A4",
"y 	c #BBBABC",
"z 	c #DEDEDB",
"A 	c #E0E0E3",
"B 	c #464645",
"C 	c #414141",
"D 	c #414041",
"E 	c #444545",
"F 	c #414243",
"G 	c #404040",
"H 	c #3C3C3C",
"I 	c #343334",
"J 	c #262625",
"K 	c #4D4D4F",
"L 	c #5A5A58",
"M 	c #505051",
"N 	c #5A5A5B",
"O 	c #5C5C5B",
"P 	c #616160",
"Q 	c #5D5D5E",
"R 	c #2F2F30",
"S 	c #1F2021",
"T 	c #333332",
"U 	c #363736",
"V 	c #302F2F",
"W 	c #202020",
"X 	c #2F2F2E",
"Y 	c #292827",
"Z 	c #2D2E2D",
"` 	c #343431",
" .	c #888888",
"..	c #C5C6C4",
"+.	c #B0B0B0",
"@.	c #333334",
"#.	c #151517",
"$.	c #19191A",
"%.	c #1D1C1D",
"&.	c #222121",
"*.	c #212022",
"=.	c #242324",
"-.	c #212122",
";.	c #2B2A2C",
">.	c #494A49",
",.	c #51524F",
"'.	c #4D4D4D",
").	c #535453",
"!.	c #575756",
"~.	c #555655",
"{.	c #595A59",
"].	c #3D3D3D",
"^.	c #393939",
"/.	c #313032",
"(.	c #2E2D2E",
"_.	c #2F2E2D",
":.	c #282628",
"<.	c #2A2A2B",
"[.	c #272826",
"}.	c #8D8F90",
"|.	c #575658",
"1.	c #383837",
"2.	c #2B2C2B",
"3.	c #565654",
"4.	c #595959",
"5.	c #5F5F5F",
"6.	c #60605F",
"7.	c #656563",
"8.	c #5E5F60",
"9.	c #666666",
"0.	c #676768",
"a.	c #575758",
"b.	c #353634",
"c.	c #323331",
"d.	c #353637",
"e.	c #3F3F3E",
"f.	c #606261",
"g.	c #636362",
"h.	c #545356",
"i.	c #585858",
"j.	c #5B5A5A",
"k.	c #535254",
"l.	c #5D5F5F",
"m.	c #515251",
"n.	c #4A4C4B",
"o.	c #464946",
"p.	c #B6B8B5",
"q.	c #202121",
"r.	c #1C1D1D",
"s.	c #343436",
"t.	c #5B5A5C",
"u.	c #626160",
"v.	c #585959",
"w.	c #545456",
"x.	c #606061",
"y.	c #636264",
"z.	c #313130",
"A.	c #323332",
"B.	c #2D2D2F",
"C.	c #363636",
"D.	c #363535",
"E.	c #323133",
"F.	c #323232",
"G.	c #3C3B3C",
"H.	c #656565",
"I.	c #656464",
"J.	c #5D5C5D",
"K.	c #616361",
"L.	c #4C4B4D",
"M.	c #484749",
"N.	c #5C5D5D",
"O.	c #505252",
"P.	c #292929",
"Q.	c #171819",
"R.	c #10110F",
"S.	c #B3B3B5",
"T.	c #808081",
"U.	c #4B4C49",
"V.	c #252626",
"W.	c #424241",
"X.	c #565557",
"Y.	c #5F5D5E",
"Z.	c #4F4F4E",
"`.	c #464847",
" +	c #3D3C3E",
".+	c #50504D",
"++	c #545353",
"@+	c #393838",
"#+	c #373837",
"$+	c #3A3B3A",
"%+	c #3C3C3B",
"&+	c #3B3C3A",
"*+	c #3A3A39",
"=+	c #3F3F3F",
"-+	c #646462",
";+	c #5D5E5C",
">+	c #5B5B5B",
",+	c #5F6160",
"'+	c #5C5F5B",
")+	c #454544",
"!+	c #3E3E3E",
"~+	c #565858",
"{+	c #58585A",
"]+	c #323335",
"^+	c #282B2B",
"/+	c #171917",
"(+	c #8F8E8E",
"_+	c #BFC0BF",
":+	c #030105",
"<+	c #171619",
"[+	c #2E2E2E",
"}+	c #464544",
"|+	c #656463",
"1+	c #434143",
"2+	c #3C3B3D",
"3+	c #413F42",
"4+	c #4B4C4A",
"5+	c #4E4D4C",
"6+	c #666565",
"7+	c #61605F",
"8+	c #626261",
"9+	c #5C5D5C",
"0+	c #5F5E5E",
"a+	c #605F5F",
"b+	c #606060",
"c+	c #5A5B5C",
"d+	c #5A5B5D",
"e+	c #595B5A",
"f+	c #5A5B5A",
"g+	c #5D5C5A",
"h+	c #424240",
"i+	c #3E3F3E",
"j+	c #414341",
"k+	c #3A3B38",
"l+	c #444643",
"m+	c #5E6160",
"n+	c #5B5D5D",
"o+	c #393B3C",
"p+	c #373A39",
"q+	c #1E1D1E",
"r+	c #0C0C08",
"s+	c #383737",
"t+	c #878885",
"u+	c #131213",
"v+	c #222223",
"w+	c #41413C",
"x+	c #353537",
"y+	c #434343",
"z+	c #62625F",
"A+	c #464444",
"B+	c #4E4C4C",
"C+	c #535354",
"D+	c #656764",
"E+	c #59595A",
"F+	c #717272",
"G+	c #838382",
"H+	c #7F7E7E",
"I+	c #7C7C7C",
"J+	c #7D7C7C",
"K+	c #787879",
"L+	c #7C7D7C",
"M+	c #767576",
"N+	c #7B7A7C",
"O+	c #7E7D7E",
"P+	c #3F4140",
"Q+	c #363638",
"R+	c #444647",
"S+	c #555454",
"T+	c #6F6F6F",
"U+	c #656667",
"V+	c #3C3D40",
"W+	c #323336",
"X+	c #212226",
"Y+	c #161515",
"Z+	c #B8B9B5",
"`+	c #404140",
" @	c #363734",
".@	c #191919",
"+@	c #222224",
"@@	c #383836",
"#@	c #3A393B",
"$@	c #434240",
"%@	c #585755",
"&@	c #3C3939",
"*@	c #4D4B49",
"=@	c #515051",
"-@	c #444345",
";@	c #373737",
">@	c #424141",
",@	c #4F4D4D",
"'@	c #4A4A49",
")@	c #4C4C4B",
"!@	c #4C4B4B",
"~@	c #4B4B4B",
"{@	c #4A4B4A",
"]@	c #4B4C4B",
"^@	c #4A4B49",
"/@	c #494947",
"(@	c #494A48",
"_@	c #3B3B3B",
":@	c #3D3D3E",
"<@	c #3F3F41",
"[@	c #484948",
"}@	c #484847",
"|@	c #585B59",
"1@	c #565959",
"2@	c #36383A",
"3@	c #2C2D30",
"4@	c #232226",
"5@	c #1A1B19",
"6@	c #565859",
"7@	c #888989",
"8@	c #A4A4A2",
"9@	c #0D0B0A",
"0@	c #1E1E1D",
"a@	c #1D1D1B",
"b@	c #272728",
"c@	c #38383A",
"d@	c #41403F",
"e@	c #5E5F5D",
"f@	c #413F3F",
"g@	c #3D3B3C",
"h@	c #4F4C4E",
"i@	c #4F4E4D",
"j@	c #3B3B3A",
"k@	c #373736",
"l@	c #3A3838",
"m@	c #383738",
"n@	c #383938",
"o@	c #3B3A3C",
"p@	c #3D3C3D",
"q@	c #393A39",
"r@	c #3B3A3A",
"s@	c #3F3F3D",
"t@	c #3D3B3D",
"u@	c #403F40",
"v@	c #3E3D3D",
"w@	c #3F403D",
"x@	c #444445",
"y@	c #595C5C",
"z@	c #606365",
"A@	c #3D3F3F",
"B@	c #404341",
"C@	c #333333",
"D@	c #252323",
"E@	c #19181A",
"F@	c #171717",
"G@	c #9B9B9B",
"H@	c #151211",
"I@	c #21211F",
"J@	c #242422",
"K@	c #2E2E2D",
"L@	c #393A3A",
"M@	c #3D3D3B",
"N@	c #42403F",
"O@	c #696865",
"P@	c #434141",
"Q@	c #434142",
"R@	c #3A3939",
"S@	c #323433",
"T@	c #3C393B",
"U@	c #373836",
"V@	c #373838",
"W@	c #3B3B3C",
"X@	c #3D3E3E",
"Y@	c #3D3E3D",
"Z@	c #3E3D3C",
"`@	c #3C3C3A",
" #	c #40403E",
".#	c #3D3C3C",
"+#	c #333434",
"@#	c #3D3D3C",
"##	c #3E3C3E",
"$#	c #424043",
"%#	c #636665",
"&#	c #3E413F",
"*#	c #414342",
"=#	c #2F2E2C",
"-#	c #1B1A1D",
";#	c #1B1A1A",
">#	c #8B8C8D",
",#	c #B2B1B2",
"'#	c #393736",
")#	c #1C1B1A",
"!#	c #191618",
"~#	c #30302E",
"{#	c #353636",
"]#	c #41413E",
"^#	c #686965",
"/#	c #73736E",
"(#	c #403E3D",
"_#	c #403F3D",
":#	c #403D3E",
"<#	c #3A3938",
"[#	c #353734",
"}#	c #373637",
"|#	c #393738",
"1#	c #363737",
"2#	c #373739",
"3#	c #3A3B39",
"4#	c #3D3B3B",
"5#	c #313230",
"6#	c #333433",
"7#	c #393B3A",
"8#	c #3E3C3D",
"9#	c #5D5F60",
"0#	c #656767",
"a#	c #3E3F3F",
"b#	c #424445",
"c#	c #3E4040",
"d#	c #2E2D2C",
"e#	c #1D1C1E",
"f#	c #1D1E1D",
"g#	c #515253",
"h#	c #5D5D5C",
"i#	c #9C9B9A",
"j#	c #060003",
"k#	c #282423",
"l#	c #22211F",
"m#	c #181817",
"n#	c #141113",
"o#	c #282726",
"p#	c #343434",
"q#	c #414040",
"r#	c #74726F",
"s#	c #3A3737",
"t#	c #373636",
"u#	c #393837",
"v#	c #393937",
"w#	c #353635",
"x#	c #353535",
"y#	c #393836",
"z#	c #3A3738",
"A#	c #353434",
"B#	c #403F3F",
"C#	c #56585C",
"D#	c #5F6367",
"E#	c #3E3F42",
"F#	c #47484B",
"G#	c #3E4041",
"H#	c #1B1B1E",
"I#	c #151518",
"J#	c #181A1B",
"K#	c #1B1C1F",
"L#	c #1A181A",
"M#	c #8D8E8C",
"N#	c #0E0B08",
"O#	c #373631",
"P#	c #302F2B",
"Q#	c #121212",
"R#	c #161412",
"S#	c #222221",
"T#	c #343534",
"U#	c #636260",
"V#	c #6B6A68",
"W#	c #3F3F40",
"X#	c #323333",
"Y#	c #383335",
"Z#	c #393638",
"`#	c #3B3A39",
" $	c #343535",
".$	c #343733",
"+$	c #343532",
"@$	c #353435",
"#$	c #413E3F",
"$$	c #373634",
"%$	c #3E3F3D",
"&$	c #4B514F",
"*$	c #505756",
"=$	c #3A3F3C",
"-$	c #3F4242",
";$	c #383A3C",
">$	c #17181A",
",$	c #1A191B",
"'$	c #252325",
")$	c #262727",
"!$	c #6B6D6C",
"~$	c #0C0C0B",
"{$	c #2F2C2A",
"]$	c #2C2928",
"^$	c #0E0E10",
"/$	c #171515",
"($	c #4A4949",
"_$	c #404041",
":$	c #474545",
"<$	c #616161",
"[$	c #6C6C6A",
"}$	c #3F3E3E",
"|$	c #3A3A3B",
"1$	c #353333",
"2$	c #373537",
"3$	c #353534",
"4$	c #323131",
"5$	c #2A2B2A",
"6$	c #363534",
"7$	c #444142",
"8$	c #5D6063",
"9$	c #6A6C6F",
"0$	c #424547",
"a$	c #383A3D",
"b$	c #1C1D1E",
"c$	c #1A1A1A",
"d$	c #171718",
"e$	c #282826",
"f$	c #262525",
"g$	c #656867",
"h$	c #110F0F",
"i$	c #2E2B2A",
"j$	c #2B2727",
"k$	c #151416",
"l$	c #171517",
"m$	c #232425",
"n$	c #4E504F",
"o$	c #474748",
"p$	c #3F3D3F",
"q$	c #676766",
"r$	c #6D6E6C",
"s$	c #2F302F",
"t$	c #343332",
"u$	c #312F30",
"v$	c #343432",
"w$	c #3B3B39",
"x$	c #343433",
"y$	c #282827",
"z$	c #272727",
"A$	c #373839",
"B$	c #606465",
"C$	c #686C6D",
"D$	c #424444",
"E$	c #464A4B",
"F$	c #393D3F",
"G$	c #1C1C1D",
"H$	c #1B1B1A",
"I$	c #101011",
"J$	c #1F1E1F",
"K$	c #222122",
"L$	c #8C8D91",
"M$	c #808082",
"N$	c #7C7D7F",
"O$	c #3F3E3C",
"P$	c #1B1613",
"Q$	c #231D1D",
"R$	c #262224",
"S$	c #1A1819",
"T$	c #151315",
"U$	c #1F2023",
"V$	c #4B4E4E",
"W$	c #444347",
"X$	c #3F3E40",
"Y$	c #666867",
"Z$	c #696967",
"`$	c #363536",
" %	c #343232",
".%	c #313132",
"+%	c #2E2D2D",
"@%	c #2C2C2B",
"#%	c #3A3B3C",
"$%	c #696B6F",
"%%	c #6B6F73",
"&%	c #414446",
"*%	c #4B4E50",
"=%	c #3F4343",
"-%	c #19191B",
";%	c #161616",
">%	c #232223",
",%	c #242223",
"'%	c #191717",
")%	c #757679",
"!%	c #7F7E81",
"~%	c #909090",
"{%	c #E0E1E3",
"]%	c #1B282F",
"^%	c #2B444D",
"/%	c #26383F",
"(%	c #293B42",
"_%	c #22292E",
":%	c #1B191B",
"<%	c #131114",
"[%	c #262627",
"}%	c #4B4F51",
"|%	c #3E3F43",
"1%	c #3D3F41",
"2%	c #3B3C3D",
"3%	c #262629",
"4%	c #242426",
"5%	c #1F2020",
"6%	c #212323",
"7%	c #212321",
"8%	c #212121",
"9%	c #1F1F1E",
"0%	c #1E1F1F",
"a%	c #212020",
"b%	c #222222",
"c%	c #212021",
"d%	c #1F1E20",
"e%	c #232122",
"f%	c #272526",
"g%	c #2B2B2E",
"h%	c #4D4E55",
"i%	c #54565C",
"j%	c #434649",
"k%	c #424447",
"l%	c #3E4042",
"m%	c #1A1B1B",
"n%	c #121214",
"o%	c #161414",
"p%	c #343234",
"q%	c #3A3839",
"r%	c #302E31",
"s%	c #3D3B3E",
"t%	c #161513",
"u%	c #6C6B6B",
"v%	c #D6D7DA",
"w%	c #3F3E3F",
"x%	c #20353D",
"y%	c #2E6376",
"z%	c #225161",
"A%	c #1F4856",
"B%	c #1C2F36",
"C%	c #171617",
"D%	c #141213",
"E%	c #282729",
"F%	c #515658",
"G%	c #404445",
"H%	c #202123",
"I%	c #161619",
"J%	c #141415",
"K%	c #0F0F11",
"L%	c #0F0E10",
"M%	c #0D0E0E",
"N%	c #090A0A",
"O%	c #070A09",
"P%	c #090B0B",
"Q%	c #090B0A",
"R%	c #0B0C0B",
"S%	c #0A0A0A",
"T%	c #0B0B0B",
"U%	c #0B0A0B",
"V%	c #080908",
"W%	c #080808",
"X%	c #090807",
"Y%	c #090709",
"Z%	c #090808",
"`%	c #090908",
" &	c #0B0909",
".&	c #0E0C0D",
"+&	c #0F0C0D",
"@&	c #0D0B0B",
"#&	c #111010",
"$&	c #161517",
"%&	c #4B4D50",
"&&	c #505356",
"*&	c #202223",
"=&	c #131414",
"-&	c #121311",
";&	c #3F3D40",
">&	c #444246",
",&	c #535256",
"'&	c #1E1D1F",
")&	c #6E6F6E",
"!&	c #D0D2D4",
"~&	c #1F3338",
"{&	c #286373",
"]&	c #1F5361",
"^&	c #133E4B",
"/&	c #172C32",
"(&	c #151616",
"_&	c #191918",
":&	c #232325",
"<&	c #2C2D2F",
"[&	c #17171A",
"}&	c #181719",
"|&	c #161617",
"1&	c #181718",
"2&	c #131214",
"3&	c #111011",
"4&	c #121213",
"5&	c #111212",
"6&	c #111112",
"7&	c #080708",
"8&	c #0A0909",
"9&	c #0C0B0B",
"0&	c #09090A",
"a&	c #0A0809",
"b&	c #141111",
"c&	c #1A1418",
"d&	c #151113",
"e&	c #161113",
"f&	c #191416",
"g&	c #181415",
"h&	c #161315",
"i&	c #161213",
"j&	c #3D3D40",
"k&	c #4F5255",
"l&	c #212325",
"m&	c #131312",
"n&	c #393737",
"o&	c #474747",
"p&	c #505053",
"q&	c #1D1D1E",
"r&	c #CED1D3",
"s&	c #203236",
"t&	c #275F70",
"u&	c #1F5260",
"v&	c #143F4F",
"w&	c #192E33",
"x&	c #1A1818",
"y&	c #191917",
"z&	c #191819",
"A&	c #151414",
"B&	c #171516",
"C&	c #141413",
"D&	c #28282A",
"E&	c #312F31",
"F&	c #31302F",
"G&	c #2E2C2D",
"H&	c #2F2C2F",
"I&	c #282626",
"J&	c #2B292A",
"K&	c #2A282A",
"L&	c #282829",
"M&	c #1E1E1F",
"N&	c #060505",
"O&	c #131113",
"P&	c #1D1B1C",
"Q&	c #1B181A",
"R&	c #21181B",
"S&	c #37262A",
"T&	c #402A30",
"U&	c #332127",
"V&	c #38272E",
"W&	c #3E2C32",
"X&	c #382A30",
"Y&	c #31262D",
"Z&	c #1F1B1E",
"`&	c #120F10",
" *	c #2E2F33",
".*	c #19181B",
"+*	c #131413",
"@*	c #373639",
"#*	c #3C3B3B",
"$*	c #4D4D50",
"%*	c #1D1B1D",
"&*	c #CFD3D4",
"**	c #22343A",
"=*	c #2B6274",
"-*	c #205160",
";*	c #184453",
">*	c #1D3036",
",*	c #1D1A1A",
"'*	c #1C1A1A",
")*	c #191619",
"!*	c #161418",
"~*	c #121111",
"{*	c #323132",
"]*	c #3B393B",
"^*	c #3B3939",
"/*	c #373635",
"(*	c #323031",
"_*	c #2B2928",
":*	c #333131",
"<*	c #343133",
"[*	c #322F32",
"}*	c #343435",
"|*	c #363537",
"1*	c #060506",
"2*	c #211D1E",
"3*	c #241B1E",
"4*	c #331B21",
"5*	c #431C27",
"6*	c #4F1F28",
"7*	c #471620",
"8*	c #4A1B29",
"9*	c #48252D",
"0*	c #3D282D",
"a*	c #382A2E",
"b*	c #292527",
"c*	c #0F0F0F",
"d*	c #121313",
"e*	c #0D1112",
"f*	c #121315",
"g*	c #141416",
"h*	c #383639",
"i*	c #3F3D3C",
"j*	c #4E4E51",
"k*	c #1C1B1D",
"l*	c #6F7071",
"m*	c #D3D5D6",
"n*	c #23373F",
"o*	c #296070",
"p*	c #20515F",
"q*	c #17434D",
"r*	c #1D2F34",
"s*	c #1C1919",
"t*	c #191617",
"u*	c #151515",
"v*	c #373536",
"w*	c #3A3637",
"x*	c #363232",
"y*	c #363435",
"z*	c #313030",
"A*	c #292928",
"B*	c #272725",
"C*	c #262322",
"D*	c #302E2B",
"E*	c #373435",
"F*	c #3C3938",
"G*	c #3B3A38",
"H*	c #3C383B",
"I*	c #282728",
"J*	c #0B0A09",
"K*	c #221D1F",
"L*	c #261D20",
"M*	c #3C2328",
"N*	c #5C1D2D",
"O*	c #71132E",
"P*	c #7F1632",
"Q*	c #821A33",
"R*	c #7C1932",
"S*	c #5E212D",
"T*	c #40282B",
"U*	c #3E2E31",
"V*	c #312A2C",
"W*	c #151313",
"X*	c #1E2021",
"Y*	c #202120",
"Z*	c #131313",
"`*	c #3E3B3A",
" =	c #3C393D",
".=	c #4F4D4F",
"+=	c #1C1A1C",
"@=	c #6F6F70",
"#=	c #D5D8D8",
"$=	c #263C41",
"%=	c #2D6574",
"&=	c #1C4D5C",
"*=	c #1C4753",
"==	c #1C2D32",
"-=	c #1B1818",
";=	c #171414",
">=	c #232121",
",=	c #252423",
"'=	c #1A181B",
")=	c #373436",
"!=	c #3E3839",
"~=	c #3B3937",
"{=	c #333132",
"]=	c #31302E",
"^=	c #312F2E",
"/=	c #2C2626",
"(=	c #2B2626",
"_=	c #393634",
":=	c #2C2B2D",
"<=	c #0B090B",
"[=	c #1F191E",
"}=	c #2A1E23",
"|=	c #4C252E",
"1=	c #7C1A35",
"2=	c #A1254A",
"3=	c #A7264A",
"4=	c #B83855",
"5=	c #B22F4C",
"6=	c #7E2033",
"7=	c #462B2E",
"8=	c #463436",
"9=	c #322C2C",
"0=	c #111210",
"a=	c #2B2D2A",
"b=	c #373538",
"c=	c #393637",
"d=	c #423E41",
"e=	c #504E50",
"f=	c #1C1B1C",
"g=	c #D8DADA",
"h=	c #253C41",
"i=	c #2B6473",
"j=	c #1E5262",
"k=	c #204F5B",
"l=	c #213137",
"m=	c #1C1A19",
"n=	c #191515",
"o=	c #25221F",
"p=	c #33302F",
"q=	c #1C1A1D",
"r=	c #333031",
"s=	c #494445",
"t=	c #484645",
"u=	c #3D3737",
"v=	c #373031",
"w=	c #292423",
"x=	c #282224",
"y=	c #3E3A38",
"z=	c #373734",
"A=	c #3A3739",
"B=	c #2C2B2E",
"C=	c #070708",
"D=	c #1C181B",
"E=	c #291D23",
"F=	c #501E29",
"G=	c #921F3D",
"H=	c #B43659",
"I=	c #AB2E51",
"J=	c #BE3C5A",
"K=	c #B72C4C",
"L=	c #8A1F35",
"M=	c #4A2A2D",
"N=	c #453436",
"O=	c #2F2B2C",
"P=	c #0E0F0F",
"Q=	c #151314",
"R=	c #262829",
"S=	c #292D2E",
"T=	c #131315",
"U=	c #111012",
"V=	c #343438",
"W=	c #444146",
"X=	c #515052",
"Y=	c #1C1B1B",
"Z=	c #6D6E6E",
"`=	c #E3E4E4",
" -	c #41403E",
".-	c #172F34",
"+-	c #306572",
"@-	c #225765",
"#-	c #22515F",
"$-	c #23353B",
"%-	c #1D1B1B",
"&-	c #181514",
"*-	c #272424",
"=-	c #2E2C2A",
"--	c #131112",
";-	c #363233",
">-	c #4C4547",
",-	c #423E3D",
"'-	c #373231",
")-	c #3B3231",
"!-	c #322928",
"~-	c #241D1D",
"{-	c #2C2625",
"]-	c #403937",
"^-	c #3B3938",
"/-	c #2A292B",
"(-	c #060807",
"_-	c #181617",
":-	c #2A1C21",
"<-	c #521928",
"[-	c #9A2342",
"}-	c #BD4160",
"|-	c #BB3F5D",
"1-	c #BB3757",
"2-	c #B02547",
"3-	c #861D34",
"4-	c #4A272C",
"5-	c #423032",
"6-	c #2F2C2C",
"7-	c #101112",
"8-	c #151415",
"9-	c #303334",
"0-	c #2C3333",
"a-	c #0E0F11",
"b-	c #111213",
"c-	c #2F3134",
"d-	c #3F3E43",
"e-	c #48484B",
"f-	c #0D0C0A",
"g-	c #6F706F",
"h-	c #A9A7A6",
"i-	c #9D9CA0",
"j-	c #45575D",
"k-	c #254048",
"l-	c #22373F",
"m-	c #21262A",
"n-	c #1E1A1D",
"o-	c #181618",
"p-	c #1E1C1C",
"q-	c #201E1C",
"r-	c #161313",
"s-	c #151214",
"t-	c #383436",
"u-	c #4A4445",
"v-	c #433E3C",
"w-	c #3E3A39",
"x-	c #2F2C2B",
"y-	c #302827",
"z-	c #2C2323",
"A-	c #2D2324",
"B-	c #2D2625",
"C-	c #3C3634",
"D-	c #3E3A3C",
"E-	c #090C08",
"F-	c #1D1A18",
"G-	c #2C1E21",
"H-	c #571F2D",
"I-	c #941F3F",
"J-	c #BC3F5D",
"K-	c #BC3C59",
"L-	c #BA3253",
"M-	c #BD3454",
"N-	c #842336",
"O-	c #4B292D",
"P-	c #413132",
"Q-	c #2F2A29",
"R-	c #131211",
"S-	c #141312",
"T-	c #1B1E1E",
"U-	c #181C1B",
"V-	c #101012",
"W-	c #171817",
"X-	c #222321",
"Y-	c #292C2C",
"Z-	c #535558",
"`-	c #7E7D80",
" ;	c #9D9E9F",
".;	c #4A4B4B",
"+;	c #212729",
"@;	c #1E2628",
"#;	c #1B2124",
"$;	c #1D1A1D",
"%;	c #18171A",
"&;	c #4A4345",
"*;	c #4F4947",
"=;	c #443F3E",
"-;	c #302E2E",
";;	c #262222",
">;	c #272021",
",;	c #292021",
"';	c #292425",
");	c #34302E",
"!;	c #3A3638",
"~;	c #383637",
"{;	c #2F272A",
"];	c #322128",
"^;	c #53212E",
"/;	c #891E3B",
"(;	c #A62748",
"_;	c #AC2648",
":;	c #AE2948",
"<;	c #A72B47",
"[;	c #772335",
"};	c #4E2C30",
"|;	c #433334",
"1;	c #302C2B",
"2;	c #12100F",
"3;	c #111110",
"4;	c #0F1211",
"5;	c #151617",
"6;	c #0F1212",
"7;	c #0F3945",
"8;	c #1C3B46",
"9;	c #1C2122",
"0;	c #4B4F52",
"a;	c #555457",
"b;	c #192A30",
"c;	c #1B657C",
"d;	c #1B5868",
"e;	c #191D1D",
"f;	c #141517",
"g;	c #141617",
"h;	c #141314",
"i;	c #111111",
"j;	c #302E2F",
"k;	c #454040",
"l;	c #4F4B49",
"m;	c #3E3A37",
"n;	c #373331",
"o;	c #2F2A28",
"p;	c #2E2626",
"q;	c #2C2324",
"r;	c #2E292A",
"s;	c #302D2B",
"t;	c #3C3A3A",
"u;	c #383539",
"v;	c #2C2B2C",
"w;	c #2C2527",
"x;	c #322227",
"y;	c #431C26",
"z;	c #741E33",
"A;	c #982443",
"B;	c #A12346",
"C;	c #941D3B",
"D;	c #801932",
"E;	c #6A2636",
"F;	c #502C31",
"G;	c #402F31",
"H;	c #2F2B2B",
"I;	c #100F0E",
"J;	c #121010",
"K;	c #070D0F",
"L;	c #0F1D1F",
"M;	c #0B6581",
"N;	c #175F74",
"O;	c #20282A",
"P;	c #5E5D5F",
"Q;	c #192F36",
"R;	c #15768E",
"S;	c #155E6E",
"T;	c #191E1F",
"U;	c #181918",
"V;	c #121112",
"W;	c #322E31",
"X;	c #3D393A",
"Y;	c #3E3B3C",
"Z;	c #383534",
"`;	c #3D3936",
" >	c #37312D",
".>	c #2C2425",
"+>	c #2A2223",
"@>	c #3D3637",
"#>	c #383333",
"$>	c #35332F",
"%>	c #383633",
"&>	c #323032",
"*>	c #272627",
"=>	c #0B0E0B",
"->	c #1F1C1C",
";>	c #432129",
">>	c #5A1D2C",
",>	c #6F1E31",
"'>	c #7C1F37",
")>	c #741A2F",
"!>	c #68182D",
"~>	c #5F2533",
"{>	c #4B2730",
"]>	c #3E2F32",
"^>	c #2B2828",
"/>	c #10100E",
"(>	c #16191A",
"_>	c #091112",
":>	c #0B0F0E",
"<>	c #12262A",
"[>	c #0A6A84",
"}>	c #125D73",
"|>	c #262E31",
"1>	c #605F60",
"2>	c #152C36",
"3>	c #127187",
"4>	c #155765",
"5>	c #1A1F25",
"6>	c #201F1E",
"7>	c #191818",
"8>	c #0C0D0E",
"9>	c #2D2A2B",
"0>	c #403B3C",
"a>	c #323030",
"b>	c #383533",
"c>	c #393533",
"d>	c #352F30",
"e>	c #2C2726",
"f>	c #393334",
"g>	c #393536",
"h>	c #373533",
"i>	c #353532",
"j>	c #0B0C0C",
"k>	c #262226",
"l>	c #34252E",
"m>	c #432830",
"n>	c #48232C",
"o>	c #3D181E",
"p>	c #441921",
"q>	c #4E1A26",
"r>	c #4B1925",
"s>	c #461D27",
"t>	c #3A222A",
"u>	c #332B2E",
"v>	c #201F20",
"w>	c #0F1010",
"x>	c #141A1B",
"y>	c #131614",
"z>	c #13292E",
"A>	c #0D6B85",
"B>	c #176076",
"C>	c #232C2F",
"D>	c #616060",
"E>	c #102731",
"F>	c #0A677F",
"G>	c #0F4B59",
"H>	c #151B20",
"I>	c #121719",
"J>	c #1B1F22",
"K>	c #18181A",
"L>	c #151516",
"M>	c #0B0C0E",
"N>	c #1D1D1D",
"O>	c #2F2D2D",
"P>	c #2A2828",
"Q>	c #2A2627",
"R>	c #252122",
"S>	c #2A2B29",
"T>	c #1D1D1F",
"U>	c #201D22",
"V>	c #282126",
"W>	c #2F2228",
"X>	c #37252C",
"Y>	c #332126",
"Z>	c #362328",
"`>	c #3E272C",
" ,	c #3D272C",
".,	c #332328",
"+,	c #261F23",
"@,	c #121314",
"#,	c #151A1C",
"$,	c #263332",
"%,	c #222627",
"&,	c #182D32",
"*,	c #106C85",
"=,	c #196075",
"-,	c #20272B",
";,	c #DADCDB",
">,	c #DADBDB",
",,	c #DCDBDB",
"',	c #DBDADC",
"),	c #DADADB",
"!,	c #D7D8D5",
"~,	c #DDDDDB",
"{,	c #767677",
"],	c #17333B",
"^,	c #147082",
"/,	c #0B4451",
"(,	c #12181E",
"_,	c #192529",
":,	c #111F26",
"<,	c #0E1116",
"[,	c #141515",
"},	c #0F0F12",
"|,	c #1B1B1C",
"1,	c #1B1919",
"2,	c #181615",
"3,	c #171415",
"4,	c #171716",
"5,	c #111113",
"6,	c #1A171A",
"7,	c #1E1C1F",
"8,	c #221F20",
"9,	c #1F1A1D",
"0,	c #1B171B",
"a,	c #19171A",
"b,	c #131316",
"c,	c #161818",
"d,	c #0F1111",
"e,	c #1E2C2F",
"f,	c #2A3F42",
"g,	c #25292C",
"h,	c #14242B",
"i,	c #065B7A",
"j,	c #15546C",
"k,	c #20262C",
"l,	c #CDCBC9",
"m,	c #7D8183",
"n,	c #203B45",
"o,	c #237589",
"p,	c #104856",
"q,	c #162126",
"r,	c #1E3235",
"s,	c #10333B",
"t,	c #0F1B21",
"u,	c #171918",
"v,	c #161516",
"w,	c #151215",
"x,	c #19171B",
"y,	c #201F21",
"z,	c #1E1E20",
"A,	c #1C1C1E",
"B,	c #1E1E1E",
"C,	c #1B1B1B",
"D,	c #201E21",
"E,	c #1F1D1E",
"F,	c #181619",
"G,	c #18181B",
"H,	c #17181B",
"I,	c #151718",
"J,	c #080A0D",
"K,	c #152F37",
"L,	c #16343E",
"M,	c #111619",
"N,	c #0B5B79",
"O,	c #15556B",
"P,	c #293337",
"Q,	c #898C89",
"R,	c #394143",
"S,	c #305B68",
"T,	c #11414E",
"U,	c #1B2B2F",
"V,	c #0E2833",
"W,	c #104E5B",
"X,	c #0F3037",
"Y,	c #0F1313",
"Z,	c #15161A",
"`,	c #2D2A2E",
" '	c #2B272C",
".'	c #262325",
"+'	c #272426",
"@'	c #262626",
"#'	c #272629",
"$'	c #28252A",
"%'	c #2B272A",
"&'	c #211F22",
"*'	c #3A3B3B",
"='	c #484A4B",
"-'	c #434547",
";'	c #494B4B",
">'	c #434344",
",'	c #2C2C2C",
"''	c #1C1E1E",
")'	c #2C2A2B",
"!'	c #282627",
"~'	c #1D1F20",
"{'	c #060D11",
"]'	c #15424E",
"^'	c #23525D",
"/'	c #1D252A",
"('	c #202F34",
"_'	c #1D6C87",
":'	c #497D8D",
"<'	c #647073",
"['	c #A6A8A4",
"}'	c #666768",
"|'	c #959B9E",
"1'	c #0D2F3A",
"2'	c #1E3035",
"3'	c #09313F",
"4'	c #1C6C78",
"5'	c #10444C",
"6'	c #151B1D",
"7'	c #161A1C",
"8'	c #262326",
"9'	c #1C191E",
"0'	c #1F1D20",
"a'	c #1F1F1F",
"b'	c #1A1B1C",
"c'	c #1A191D",
"d'	c #201D21",
"e'	c #232225",
"f'	c #323234",
"g'	c #3F4044",
"h'	c #515354",
"i'	c #535554",
"j'	c #565857",
"k'	c #2A2B2C",
"l'	c #1F2022",
"m'	c #232323",
"n'	c #211F20",
"o'	c #232124",
"p'	c #262426",
"q'	c #1C1B1F",
"r'	c #262B27",
"s'	c #1C3437",
"t'	c #125767",
"u'	c #1F5D6B",
"v'	c #1B272D",
"w'	c #1D3038",
"x'	c #266075",
"y'	c #80ADB7",
"z'	c #B8C4C5",
"A'	c #CCCECF",
"B'	c #041D23",
"C'	c #1B2D31",
"D'	c #13404D",
"E'	c #247983",
"F'	c #114A56",
"G'	c #212A2B",
"H'	c #161919",
"I'	c #18191B",
"J'	c #111115",
"K'	c #141115",
"L'	c #171518",
"M'	c #101015",
"N'	c #1E1D20",
"O'	c #3B3B3D",
"P'	c #383A3B",
"Q'	c #343538",
"R'	c #434545",
"S'	c #353538",
"T'	c #2C2D2D",
"U'	c #161514",
"V'	c #1C1C1C",
"W'	c #100F12",
"X'	c #171618",
"Y'	c #1B1819",
"Z'	c #313B35",
"`'	c #2B5960",
" )	c #1F7B8B",
".)	c #1A6471",
"+)	c #172931",
"@)	c #2A4D52",
"#)	c #3D5F6C",
"$)	c #DCDFDF",
"%)	c #1E2428",
"&)	c #212B2D",
"*)	c #193C47",
"=)	c #216773",
"-)	c #113B47",
";)	c #141717",
">)	c #131615",
",)	c #1E1F20",
"')	c #1F2122",
"))	c #111216",
"!)	c #161719",
"~)	c #2B2C2D",
"{)	c #4C4B4C",
"])	c #4B4B4D",
"^)	c #3C3E40",
"/)	c #363A3B",
"()	c #34363A",
"_)	c #323237",
":)	c #333235",
"<)	c #3D3F3D",
"[)	c #353838",
"})	c #1B1A1B",
"|)	c #161316",
"1)	c #111514",
"2)	c #111315",
"3)	c #171719",
"4)	c #1A1A1B",
"5)	c #293331",
"6)	c #1C4F5B",
"7)	c #2A8B9A",
"8)	c #1C6472",
"9)	c #1A2C35",
"0)	c #809997",
"a)	c #CFD8D6",
"b)	c #B9BBBD",
"c)	c #9EA3A3",
"d)	c #364248",
"e)	c #20454E",
"f)	c #1F3339",
"g)	c #222629",
"h)	c #888F8F",
"i)	c #747D7C",
"j)	c #1B1F21",
"k)	c #1B1F1F",
"l)	c #141618",
"m)	c #111417",
"n)	c #0B0F12",
"o)	c #434443",
"p)	c #3F3F42",
"q)	c #3B3E40",
"r)	c #3E4142",
"s)	c #3D3E3F",
"t)	c #141315",
"u)	c #0E1113",
"v)	c #0C1215",
"w)	c #171A19",
"x)	c #292A27",
"y)	c #292B2A",
"z)	c #767E7B",
"A)	c #788480",
"B)	c #18434F",
"C)	c #227587",
"D)	c #244E59",
"E)	c #292F36",
"F)	c #9EA6A5",
"G)	c #4F4D53",
"H)	c #323839",
"I)	c #262C2A",
"J)	c #36373B",
"K)	c #E4EAEA",
"L)	c #C9D3D4",
"M)	c #283133",
"N)	c #141C1F",
"O)	c #121619",
"P)	c #14161B",
"Q)	c #131418",
"R)	c #141316",
"S)	c #282426",
"T)	c #535353",
"U)	c #474949",
"V)	c #434546",
"W)	c #38383D",
"X)	c #444844",
"Y)	c #414244",
"Z)	c #454849",
"`)	c #595B5B",
" !	c #30302F",
".!	c #111214",
"+!	c #121418",
"@!	c #262624",
"#!	c #575E5F",
"$!	c #DAE3E2",
"%!	c #B9C3C1",
"&!	c #233B40",
"*!	c #2A5862",
"=!	c #5A7478",
"-!	c #7D858A",
";!	c #C8C8CB",
">!	c #78777B",
",!	c #737776",
"'!	c #424644",
")!	c #8F9694",
"!!	c #7E8989",
"~!	c #425C5B",
"{!	c #1C3638",
"]!	c #1C2325",
"^!	c #141519",
"/!	c #0E0F14",
"(!	c #0F1112",
"_!	c #28272A",
":!	c #525253",
"<!	c #464545",
"[!	c #4A4A48",
"}!	c #4F514F",
"|!	c #404244",
"1!	c #37363A",
"2!	c #393A3C",
"3!	c #3A3B3E",
"4!	c #4A4D4E",
"5!	c #5A5C5E",
"6!	c #0C0E0F",
"7!	c #191A1B",
"8!	c #1A1C1E",
"9!	c #2A2D2F",
"0!	c #3B4145",
"a!	c #464D53",
"b!	c #AAB0B1",
"c!	c #7F8584",
"d!	c #4E5753",
"e!	c #465054",
"f!	c #C2C8C6",
"g!	c #666E6C",
"h!	c #657B78",
"i!	c #9FC7C2",
"j!	c #4C7977",
"k!	c #213236",
"l!	c #1D2527",
"m!	c #293637",
"n!	c #101113",
"o!	c #505152",
"p!	c #474646",
"q!	c #494948",
"r!	c #3B3C3E",
"s!	c #393B3D",
"t!	c #36363A",
"u!	c #3C3C3D",
"v!	c #3B393D",
"w!	c #4F5053",
"x!	c #5E5F62",
"y!	c #101213",
"z!	c #282D30",
"A!	c #161B21",
"B!	c #2F3B40",
"C!	c #66777A",
"D!	c #9BA9A8",
"E!	c #3B4143",
"F!	c #797F7E",
"G!	c #EEEEF0",
"H!	c #AAB3AF",
"I!	c #6B8787",
"J!	c #ABD5D5",
"K!	c #4E7D7F",
"L!	c #23383C",
"M!	c #263637",
"N!	c #536A6E",
"O!	c #595A5A",
"P!	c #504F50",
"Q!	c #464748",
"R!	c #434447",
"S!	c #444447",
"T!	c #4A494B",
"U!	c #5A5A5D",
"V!	c #616367",
"W!	c #363639",
"X!	c #16181A",
"Y!	c #383D41",
"Z!	c #26292E",
"`!	c #404B4F",
" ~	c #5E7079",
".~	c #BBCDCD",
"+~	c #454D4D",
"@~	c #989D9D",
"#~	c #F1F2F2",
"$~	c #3E5857",
"%~	c #78A1A2",
"&~	c #3A6267",
"*~	c #273939",
"=~	c #1F2D2F",
"-~	c #4D636A",
";~	c #1B1D1F",
">~	c #2B2B2F",
",~	c #424145",
"'~	c #454445",
")~	c #424244",
"!~	c #434444",
"~~	c #434346",
"{~	c #454447",
"]~	c #424245",
"^~	c #444548",
"/~	c #404147",
"(~	c #1E1E22",
"_~	c #16191D",
":~	c #373D43",
"<~	c #232529",
"[~	c #3F464B",
"}~	c #424E5A",
"|~	c #778687",
"1~	c #2D3231",
"2~	c #959799",
"3~	c #FFFFFF",
"4~	c #162626",
"5~	c #2A4248",
"6~	c #223942",
"7~	c #202B2C",
"8~	c #141D23",
"9~	c #475963",
"0~	c #060303",
"a~	c #000000",
"b~	c #070603",
"c~	c #0D0B0D",
"d~	c #120F11",
"e~	c #0C090B",
"f~	c #070506",
"g~	c #060304",
"h~	c #080504",
"i~	c #080403",
"j~	c #020200",
"k~	c #161C1F",
"l~	c #373E45",
"m~	c #202024",
"n~	c #2F3138",
"o~	c #2C2E3A",
"p~	c #2C3136",
"q~	c #232526",
"r~	c #A3A4A5",
"s~	c #FFFEFF",
"t~	c #182021",
"u~	c #233539",
"v~	c #2F4148",
"w~	c #242A2B",
"x~	c #202729",
"y~	c #516065",
"z~	c #8A8C8E",
"A~	c #8C8B8C",
"B~	c #828284",
"C~	c #7F7E7F",
"D~	c #7B7C7B",
"E~	c #7A7B7A",
"F~	c #797A7A",
"G~	c #7A797B",
"H~	c #7B7B7B",
"I~	c #7C7B7C",
"J~	c #7C7A7B",
"K~	c #808182",
"L~	c #828485",
"M~	c #262A2C",
"N~	c #3D434A",
"O~	c #242527",
"P~	c #2A2A31",
"Q~	c #3F3F44",
"R~	c #2E2F34",
"S~	c #252628",
"T~	c #B5B5B7",
"U~	c #14161A",
"V~	c #253134",
"W~	c #384748",
"X~	c #25282A",
"Y~	c #4F5C61",
"Z~	c #242728",
"`~	c #3E4349",
" {	c #1C1F21",
".{	c #222227",
"+{	c #424443",
"@{	c #2D2E30",
"#{	c #C1C0C1",
"${	c #FEFEFF",
"%{	c #111017",
"&{	c #2F383A",
"*{	c #19191E",
"={	c #222325",
"-{	c #495156",
";{	c #322F2E",
">{	c #191C1C",
",{	c #343A40",
"'{	c #12151A",
"){	c #1A1E1F",
"!{	c #313533",
"~{	c #232427",
"{{	c #C8C8C8",
"]{	c #FEFEFE",
"^{	c #282C2E",
"/{	c #15151A",
"({	c #222326",
"_{	c #393F43",
":{	c #383636",
"<{	c #1B1F1E",
"[{	c #33393D",
"}{	c #15191B",
"|{	c #171B1B",
"1{	c #202323",
"2{	c #1B1D20",
"3{	c #282B2A",
"4{	c #C1C3C4",
"5{	c #F9F7FA",
"6{	c #A9A8AA",
"7{	c #0E0D0E",
"8{	c #222529",
"9{	c #1D1F1F",
"0{	c #2B2F32",
"a{	c #151818",
"b{	c #191B1B",
"c{	c #191C1D",
"d{	c #1E211F",
"e{	c #747674",
"f{	c #525252",
"g{	c #252527",
"h{	c #343536",
"i{	c #2C2E2E",
"j{	c #262729",
"k{	c #282A2C",
"l{	c #3E4141",
"m{	c #434847",
"n{	c #353737",
"o{	c #424345",
"p{	c #686B6E",
"q{	c #545659",
"r{	c #575757",
"s{	c #56575A",
"t{	c #9E9E9F",
"u{	c #919392",
"v{	c #5A5C5C",
"w{	c #36393A",
"x{	c #535458",
"y{	c #5A5D5E",
"z{	c #595C5B",
"A{	c #494B4C",
"B{	c #7E7F7E",
"C{	c #313133",
"D{	c #272829",
"E{	c #282828",
"F{	c #979B9C",
"G{	c #A2A2A5",
"H{	c #57585A",
"I{	c #D4D6D8",
"J{	c #696A6A",
"K{	c #616262",
"L{	c #CCCFCF",
"M{	c #A1A2A2",
"N{	c #565656",
"O{	c #555555",
"P{	c #8B8C8C",
"Q{	c #E7E9EA",
"R{	c #DFE1E3",
"S{	c #DBDBDA",
"T{	c #DCDCDC",
"U{	c #DBDBD9",
"V{	c #CFCECF",
"W{	c #CECED0",
"X{	c #D2D2D4",
"Y{	c #D3D3D4",
"Z{	c #DEDFDE",
"`{	c #E6E7E6",
" ]	c #E4E4E4",
".]	c #E5E3E4",
"                              .                                               + @                                               ",
"                              #                                               $ %                                               ",
"                              &                                               * =                                               ",
"                              -                     ; > , ' ) ! ~ { ] ^ /     ( _                                               ",
"                              :                     < [ } | 1 2 3 1 4 5 6     7 8                                               ",
"                              9                     0 a b c d e e f g h i     j k                                               ",
"                              l m                   n o p q r p s t u v w     x y                                               ",
"                              z A B g C D E F G H I J K L M N O P Q Q R S T U V W X Y Z `  .                                    ",
"                              ..+.@.#.$.%.&.*.&.=.-.;.>.,.'.).!.~.!.{.C ].^.^./.(._.:.<.[.}.                                    ",
"                              |.1.2.3.4.5.6.7.8.9.0.a.b.c.@.d.3 3 3 1 e.f.g.P h.i.j.k.l.m.n.o.!.                                ",
"                            p.q.r.s.n t.u.v.t w.x.y.r z.A.B.C.D.E.F.F.G.H.I.Q J.K.L.M.N.O.P.Q.R.S.                              ",
"                          T.U.V.V W.X.Y.Z.`.B  +.+r ++@+@+#+$+%+} &+*+=+-+;+>+,+'+)+!+~+{+]+^+/+(+                              ",
"                        _+:+<+[+e }+5.|+1+2+3+4+5+a.6+7+8+9+0+a+b+c+d+e+f+g+h+i+j+k+l+m+n+o+p+q+r+s+                            ",
"                        t+u+v+w+x+y+s z+A+B+C+D+8+E+F+G+H+I+J+J+I+K+L+M+N+O+P+Q+R+5+S+T+U+V+W+X+Y+[.                            ",
"                    Z+`+ @.@+@@@#@$@q %@&@*@++=@-@;@>@,@'@)@!@~@{@{@]@^@/@(@_@:@<@[@}@|@1@2@3@4@%.5@6@7@                        ",
"                    8@9@0@a@b@c@e.d@q e@f@g@h@i@j@k@l@m@n@o@!+p@q@*+r@s@^.n@t@u@v@w@x@y@z@A@B@C@D@E@F@c                         ",
"                    G@H@I@J@K@L@M@N@5.O@P@e.Q@R@S@;@T@U@V@W@X@!+Y@Z@`@ #.#+#I @###g@$#l.%#&#*#L@=#-#;#G >#                      ",
"                ,#4.'#h )#!#~#{#*+]#^#/#(#_#:#<#[#}#|#1#1#2#4 3#*+j@Z@Z@4#5#6#7#} <#8#9#0#a#b#c#d#e#f#v+g#h#                    ",
"                i#j#k#l#m#n#o#p#3 q#O@r#g@s#I t#u#v#R@3 w##@L@^.x#D.1.y#z#A#g@B#^.@@v@C#D#E#F#G#H#I#J#K#L#=.                    ",
"                M#N#O#P#Q#R#S#1.T#A+U#V#W#g X#Y#Z#u#q@`#p#f @@;@ $T#.$+$3#@$t@#$l@$$%$&$*$=$-$;$>$#.,$b@'$)$                    ",
"                !$~${$]$^$/$=.($_$:$<$[$}$|$F.1$2$t#k@3$4$/.f @$3 u#q@@@k+5$5#s+6$t#7$8$9$b#0$a$b$c$d$e$f$o#                    ",
"                g$h$i$j$k$l$m$n$o$p$q$r$;@x#S@s$@$#+p#t$4$u$v$b.3$w$H ;@x$y$z$b D.A$].B$C$D$E$F$G$H$I$J$K$q+L$                  ",
"            M$N$O$P$Q$R$S$T$U$V$W$X$Y$Z$1#`$@$e T  $p#6$ %4$e x#.%3$t#C@@++%V.@%.%t##%$%%%&%*%=%-%;%I$>%,%'%)%!%~%              ",
"          {%C ]%^%/%(%_%:%<%[%}%|%W+1%2%3%4%+@-.5%6%7%8%9%9%K$0%0%a%&.b%f$c%d%e%*.f%g%h%i%j%k%l%m%n%o%p%q%r%s%t%u%              ",
"          v%w%x%y%z%A%B%C%D%E%F%G%H%I%J%K%L%M%N%O%P%Q%R%S%T%U%V%W%X%Y%Z%`% &.&+& &@&#&$&c$V.%&&&*&=&-&t@;&>&,&'&)&              ",
"          !&].~&{&]&^&/&(&_&:&*%<&[&I#}&|&1&(&J%2&3&4&5&u+6&3&S%7&8&9&0&a&b&c&d&e&f&g&h&h&i&j&k&l&n%m&|#n&o&p&q&<               ",
"          r&].s&t&u&v&w&x&y&z&A&B&C&D&E&V F&+%G&H&I&J&J&K&L&(.M&N&O&P&Q&R&S&T&U&V&W&X&Y&Z&`&0% *.*n%+*@*#*<@$*%*T+              ",
"          &*].**=*-*;*>*,*'*)*!*$&~*{*]*|#^*/*E&(*_*:*<*[*}*|*b@1*z&2*3*4*5*6*7*8*9*0*a*b*c*d*e*f*g*d*h*i*##j*k*l*              ",
"          m*}$n*o*p*q*r*s*t*E@g*g*u*v*w*x*y*z*A*B*C*D*E*F*G*H*I*J*K*L*M*N*O*P*Q*R*S*T*U*V*W*A&X*Y*Z*C&|#`* =.=+=@=              ",
"          #=G $=%=&=*===-=;=>=,='=;%)=!=~={=K@]=^=/=(=_='#3#T@:=<=[=}=|=1=2=3=4=5=6=7=8=9=0=W*6%a=c$m&b=c=d=e=f=l*              ",
"          g=W.h=i=j=k=l=m=n=o=p=q=A&r=s=t=M@:*u=v=w=x=y=z=e A=B=C=D=E=F=G=H=I=J=K=L=M=N=O=P=Q=R=S=T=U=|*V=W=X=Y=Z=              ",
"          `= -.-+-@-#-$-%-&-*-=-F@--;->-s=,-'-)-!-~-{-]-^-F&Z#/-(-_-:-<-[-}-|-1-2-3-4-5-6-7-8-9-0-a-b-]+c-d-e-f-g-              ",
"            h-i-j-k-l-m-n-o-p-q-r-s-t-u-v-w-x-y-z-A-B-C-D-~#y*E%E-F-G-H-I-J-K-L-M-N-O-P-Q-R-S-T-U-6&V-W-X-Y-Z-`- ;              ",
"                .;+;@;#;$;%;|&W*R-W*<*&;*;=;-;;;>;,;';);!;e ~;/-3&{;];^;/;(;_;:;<;[;};|;1;2;3;4;e*5;6;7;8;9;0;                  ",
"                a;b;c;d;e;f;g;h;i;Q#j;k;l;m;n;o;p;q;r;s;:*t;u;v;6&w;x;y;z;A;B;C;D;E;F;G;H;I;J;P=K;=&L;M;N;O;                    ",
"                P;Q;R;S;T;5;U;Z*V;I$W;X;Y;Z;`; >.>+>@>#>$>%>&>*>=>->G-;>>>,>'>)>!>~>{>]>^>/>u*(>_>:><>[>}>|>                    ",
"                1>2>3>4>5>;%6>7>8-8>9>0>a>t$b>c>d>e>f>g>h>i>}*[%j>k>l>m>n>o>p>q>r>s>t>u>v>w>W-(>x>y>z>A>B>C>                    ",
"                D>E>F>G>H>I>J>K>L>M>N>O>Y )$P.P>Q>R>'$I*v S>b@T>n%U>V>W>X>Y>Z>`> ,.,+,-%g*b-@,#,$,%,&,*,=,-,                    ",
";,>,,,',),;,!,~,{,],^,/,(,_,:,<,[,},i;Q#u*K>|,1,2,3,1&c$1&4,u+5,J%V;Q#u+L#6,7,8,9,0,a,b,[&c,d,e,f,g,h,i,j,k,                  l,",
"                m,n,o,p,q,r,s,t,u,n%h&#&i;;%z&.@v,w,)*x,y,=.z,A,W B,q+C,z&+=D,E,c$F,}&G,H,I,J,K,L,M,:,N,O,P,                    ",
"                Q,R,S,T,U,V,W,X,Y,Z,`, '.'+'@'E%#'$'%'&'*'>.='-';'b#>','''L&)'f%*>!':.a D&~'{']'^'/'('_':'<'                    ",
"                ['}'|'1'2'3'4'5'6'7')$8'9'0'a'M&b'c'd'e'f'g'h'i'j'D$:@k'|&l'm'n''&v>o'p'q'r's't'u'v'w'x'y'z'                    ",
"                    A'B'C'D'E'F'G'7'H'I'J'K'l$L'g;M'N'O'P'Q'D$R'x@S'+#T'U'I#d$V'd*W'X'Y'Y+Z'`' ).)+)@)#)                        ",
"                    $)%)&)*)=)-)@;;)>),)')f=!*))!)b-~){)])^)/)()_):)<)[)})|)l$U;1)2)3)4)W-5)6)7)8)9)0)a)                        ",
"                      b)c)d)e)f)g)h)i)j)k)l)m)n)f;;#i+o)p)l%q)r)a$X@s)q)#%%.t)u)v)w)x)y)z)A)B)C)D)E)F)                          ",
"                          G)H)I)J)K)L)M)N)O)P)Q)R)S)T):$W#U)V)W)V+X)Y)Z)`) !K%.!+!0%@!#!$!%!&!*!=!-!;!                          ",
"                          >!,+,!'!)!!!~!{!]!^!/!(!_!:!<![!}!|!1!2!j+3!4!5!2 6!7!8!9!0!a!b!c!d!e!                                ",
"                                f!g!h!i!j!k!l!m!n!/-o!p!:$q!r!s!t!u!v!w!x!| y!z!A!B!C!D!E!F!                                    ",
"                                G!H!I!J!K!L!M!N!;)s.O!P!-@E Q!R!S!T!])U!V!W!X!Y!Z!`! ~.~+~@~                                    ",
"                                #~  $~%~&~*~=~-~;~>~,~'~3+)~!~~~,~{~]~^~/~(~_~:~<~[~}~|~1~2~                                    ",
"                                3~  4~5~6~7~8~9~')0~a~b~Y%c~h$d~e~f~g~h~i~j~k~l~m~n~o~p~q~r~                                    ",
"                                s~  t~u~v~w~x~y~a'z~A~B~C~D~E~F~G~H~I~J~K~L~M~N~O~P~Q~R~S~T~                                    ",
"                                s~  U~V~W~R=X~Y~Y                           Z~`~ {.{+{@{L&#{                                    ",
"                                ${  %{O;&{*{={-{;{                          >{,{'{){!{~{2.{{                                    ",
"                                ]{  g*l&^{/{({_{:{                          <{[{}{|{1{2{3{4{                                    ",
"                                5{6{7{H$''[,7!8{f@                          9{0{a{t)b{c{d{e{                                    ",
"                                  f{g{P+h{p#i{j{<!                          a~q~k{S'l{m{n{t                                     ",
"                                  1.o{p{q{r{Y)s{t{                          u{v{w{x{y{z{A{B{                                    ",
"                                    V@C{D{E{d*F{                              G{V'*>y))$H{I{                                    ",
"                                    J{9.K{h#p L{                              M{N{O{a.r{P{                                      ",
"                                      Q{R{S{T{                                U{V{W{X{Y{Z{                                      ",
"                                                                              `{                                                ",
"                                                                               ]                                                ",
"                                                                              .]                                                "};
