/* XPM */
static char * exit_closed_xpm[] = {
"64 64 3229 2",
"  	c #2F3233",
". 	c #493C38",
"+ 	c #715E54",
"@ 	c #413935",
"# 	c #313638",
"$ 	c #32383B",
"% 	c #323B3F",
"& 	c #323C3F",
"* 	c #413F3E",
"= 	c #3C4242",
"- 	c #354246",
"; 	c #374549",
"> 	c #38474B",
", 	c #38484B",
"' 	c #3A4A4E",
") 	c #3B4D51",
"! 	c #3E4B4F",
"~ 	c #4C423D",
"{ 	c #405054",
"] 	c #405156",
"^ 	c #425459",
"/ 	c #44585E",
"( 	c #4A595F",
"_ 	c #66534D",
": 	c #7D5649",
"< 	c #4E6167",
"[ 	c #4B626A",
"} 	c #4C636C",
"| 	c #4D646E",
"1 	c #4E656E",
"2 	c #4E6670",
"3 	c #516971",
"4 	c #526D76",
"5 	c #5C7882",
"6 	c #5F7F8A",
"7 	c #61808A",
"8 	c #677C83",
"9 	c #577680",
"0 	c #566B72",
"a 	c #626465",
"b 	c #516A73",
"c 	c #4C636A",
"d 	c #4A5E64",
"e 	c #475F65",
"f 	c #41555B",
"g 	c #3C4D53",
"h 	c #3A494E",
"i 	c #524039",
"j 	c #4B4C4A",
"k 	c #3E4C50",
"l 	c #3A484C",
"m 	c #39464A",
"n 	c #374448",
"o 	c #364346",
"p 	c #354244",
"q 	c #4B4745",
"r 	c #313639",
"s 	c #343C40",
"t 	c #343C3F",
"u 	c #333B3E",
"v 	c #303638",
"w 	c #664F44",
"x 	c #644F46",
"y 	c #292A2C",
"z 	c #252627",
"A 	c #53443E",
"B 	c #3F4444",
"C 	c #675850",
"D 	c #2C2D2F",
"E 	c #323638",
"F 	c #323A3E",
"G 	c #313C3F",
"H 	c #30383B",
"I 	c #313D41",
"J 	c #334044",
"K 	c #364449",
"L 	c #37464A",
"M 	c #38484C",
"N 	c #39494D",
"O 	c #3A4A4F",
"P 	c #514845",
"Q 	c #3E494C",
"R 	c #3E4E53",
"S 	c #3E4F54",
"T 	c #405257",
"U 	c #435359",
"V 	c #4F5356",
"W 	c #664F48",
"X 	c #6C4C41",
"Y 	c #575556",
"Z 	c #4B5F67",
"` 	c #4B616B",
" .	c #4B636C",
"..	c #4C646D",
"+.	c #536C75",
"@.	c #59757F",
"#.	c #587681",
"$.	c #5B7E8A",
"%.	c #5C808C",
"&.	c #607E88",
"*.	c #587A85",
"=.	c #5C6265",
"-.	c #7D5E50",
";.	c #5A5D5F",
">.	c #615754",
",.	c #455A61",
"'.	c #535153",
").	c #434F53",
"!.	c #3D474B",
"~.	c #384549",
"{.	c #3D4042",
"].	c #494240",
"^.	c #3B494E",
"/.	c #39474C",
"(.	c #38464B",
"_.	c #364549",
":.	c #364448",
"<.	c #354044",
"[.	c #32393D",
"}.	c #333C40",
"|.	c #333B3F",
"1.	c #323A3D",
"2.	c #403533",
"3.	c #645751",
"4.	c #4E4846",
"5.	c #2E2928",
"6.	c #232223",
"7.	c #2E3233",
"8.	c #384245",
"9.	c #2C2627",
"0.	c #373232",
"a.	c #333A3D",
"b.	c #272D30",
"c.	c #262C2F",
"d.	c #262C31",
"e.	c #272D31",
"f.	c #272E32",
"g.	c #273033",
"h.	c #283235",
"i.	c #293236",
"j.	c #2A3236",
"k.	c #24282A",
"l.	c #2C3539",
"m.	c #2D373A",
"n.	c #313335",
"o.	c #433431",
"p.	c #483632",
"q.	c #43332F",
"r.	c #4B342E",
"s.	c #493530",
"t.	c #393C3F",
"u.	c #353F45",
"v.	c #334047",
"w.	c #36444C",
"x.	c #40545C",
"y.	c #3C4E55",
"z.	c #3C4F57",
"A.	c #435861",
"B.	c #3C5058",
"C.	c #3C525B",
"D.	c #3D535C",
"E.	c #3D535B",
"F.	c #3B4F57",
"G.	c #3C3F41",
"H.	c #513C35",
"I.	c #493631",
"J.	c #493630",
"K.	c #383C3E",
"L.	c #413230",
"M.	c #352F30",
"N.	c #322D2D",
"O.	c #2B3235",
"P.	c #2A2F31",
"Q.	c #282323",
"R.	c #2A3034",
"S.	c #2B3437",
"T.	c #2A3336",
"U.	c #283033",
"V.	c #272C30",
"W.	c #262D31",
"X.	c #2F393D",
"Y.	c #32363A",
"Z.	c #28292B",
"`.	c #3A4346",
" +	c #343B3E",
".+	c #252324",
"++	c #292524",
"@+	c #252020",
"#+	c #282627",
"$+	c #292323",
"%+	c #352E2C",
"&+	c #312B2A",
"*+	c #1F1E20",
"=+	c #17171A",
"-+	c #121215",
";+	c #111114",
">+	c #111214",
",+	c #121214",
"'+	c #121315",
")+	c #131316",
"!+	c #131416",
"~+	c #131317",
"{+	c #131417",
"]+	c #121317",
"^+	c #121316",
"/+	c #121216",
"(+	c #141418",
"_+	c #141417",
":+	c #141517",
"<+	c #151518",
"[+	c #151618",
"}+	c #131315",
"|+	c #121314",
"1+	c #161719",
"2+	c #1C1D1F",
"3+	c #252629",
"4+	c #353636",
"5+	c #2C2C2C",
"6+	c #262426",
"7+	c #242222",
"8+	c #252121",
"9+	c #342925",
"0+	c #322926",
"a+	c #332926",
"b+	c #382E29",
"c+	c #3B332F",
"d+	c #242525",
"e+	c #18191A",
"f+	c #181A1B",
"g+	c #17191A",
"h+	c #17181A",
"i+	c #161718",
"j+	c #161619",
"k+	c #151719",
"l+	c #151619",
"m+	c #15161A",
"n+	c #16171A",
"o+	c #161618",
"p+	c #191A1C",
"q+	c #18191B",
"r+	c #191A1B",
"s+	c #121414",
"t+	c #131415",
"u+	c #1A1A1B",
"v+	c #353535",
"w+	c #353633",
"x+	c #322D29",
"y+	c #302725",
"z+	c #302624",
"A+	c #382B27",
"B+	c #3A302C",
"C+	c #3C312B",
"D+	c #252220",
"E+	c #111213",
"F+	c #1D1E20",
"G+	c #161819",
"H+	c #121416",
"I+	c #101113",
"J+	c #1A1818",
"K+	c #251E1E",
"L+	c #1D1D1F",
"M+	c #212528",
"N+	c #222629",
"O+	c #242527",
"P+	c #222528",
"Q+	c #24292D",
"R+	c #262B30",
"S+	c #272C32",
"T+	c #272E33",
"U+	c #282F34",
"V+	c #282F36",
"W+	c #293037",
"X+	c #283037",
"Y+	c #283036",
"Z+	c #272E35",
"`+	c #252B31",
" @	c #24282D",
".@	c #23272B",
"+@	c #22252A",
"@@	c #222429",
"#@	c #202327",
"$@	c #1F2226",
"%@	c #1F2225",
"&@	c #1D2023",
"*@	c #211B1B",
"=@	c #2A201F",
"-@	c #251E1D",
";@	c #131314",
">@	c #101112",
",@	c #101213",
"'@	c #131516",
")@	c #1C1C1E",
"!@	c #1A1B1B",
"~@	c #352C28",
"{@	c #3D3732",
"]@	c #3A312D",
"^@	c #372A26",
"/@	c #3A2F2C",
"(@	c #363232",
"_@	c #33393B",
":@	c #363939",
"<@	c #1B1B1E",
"[@	c #1F2022",
"}@	c #16181A",
"|@	c #1A1E20",
"1@	c #2F3A3D",
"2@	c #303C3F",
"3@	c #2D3639",
"4@	c #1E2123",
"5@	c #221D1D",
"6@	c #212022",
"7@	c #2C3135",
"8@	c #23282B",
"9@	c #4D4949",
"0@	c #5A5152",
"a@	c #5F5053",
"b@	c #5F4F55",
"c@	c #615358",
"d@	c #615359",
"e@	c #60535A",
"f@	c #5F5459",
"g@	c #60565A",
"h@	c #60565B",
"i@	c #60555A",
"j@	c #61575A",
"k@	c #615558",
"l@	c #685556",
"m@	c #655155",
"n@	c #665457",
"o@	c #655357",
"p@	c #624F54",
"q@	c #5F4F52",
"r@	c #5C4F50",
"s@	c #564C4D",
"t@	c #343134",
"u@	c #222529",
"v@	c #2A2222",
"w@	c #2E2525",
"x@	c #261F1F",
"y@	c #171719",
"z@	c #2A3135",
"A@	c #303C41",
"B@	c #313E42",
"C@	c #31393C",
"D@	c #26292C",
"E@	c #1F1F22",
"F@	c #1E1E21",
"G@	c #292B2C",
"H@	c #3B3F40",
"I@	c #323739",
"J@	c #38322E",
"K@	c #363637",
"L@	c #303537",
"M@	c #343F43",
"N@	c #191A1D",
"O@	c #212124",
"P@	c #1F2325",
"Q@	c #141618",
"R@	c #232528",
"S@	c #746764",
"T@	c #3B3F41",
"U@	c #2A2F32",
"V@	c #1F2023",
"W@	c #292021",
"X@	c #292A2D",
"Y@	c #2C3438",
"Z@	c #292E31",
"`@	c #3B4145",
" #	c #474546",
".#	c #464749",
"+#	c #4D454B",
"@#	c #594655",
"##	c #5E495A",
"$#	c #5E485B",
"%#	c #5C4659",
"&#	c #574856",
"*#	c #524652",
"=#	c #49434C",
"-#	c #45454A",
";#	c #48444B",
">#	c #4E4451",
",#	c #4D4651",
"'#	c #594A5A",
")#	c #5F4B55",
"!#	c #66485E",
"~#	c #6B4C65",
"{#	c #6B4C66",
"]#	c #654860",
"^#	c #544652",
"/#	c #484649",
"(#	c #4A4648",
"_#	c #42474A",
":#	c #313539",
"<#	c #2C3235",
"[#	c #2E2524",
"}#	c #302827",
"|#	c #292222",
"1#	c #1C1D20",
"2#	c #212427",
"3#	c #2B2E32",
"4#	c #686260",
"5#	c #3F3B3B",
"6#	c #1A1B1E",
"7#	c #242528",
"8#	c #111113",
"9#	c #2B3133",
"0#	c #384043",
"a#	c #3C3C3D",
"b#	c #2D3437",
"c#	c #303437",
"d#	c #30373A",
"e#	c #242427",
"f#	c #202629",
"g#	c #212226",
"h#	c #2E3033",
"i#	c #2C3234",
"j#	c #272B2E",
"k#	c #202225",
"l#	c #1E1F22",
"m#	c #55332B",
"n#	c #2F3032",
"o#	c #3A3535",
"p#	c #25272A",
"q#	c #434A4E",
"r#	c #493D3C",
"s#	c #342D2F",
"t#	c #442341",
"u#	c #DF58CE",
"v#	c #E958D7",
"w#	c #EA58DA",
"x#	c #EA59D8",
"y#	c #89357E",
"z#	c #D04DBF",
"A#	c #602858",
"B#	c #2C212F",
"C#	c #572750",
"D#	c #CE4EBE",
"E#	c #672D5F",
"F#	c #DC52CD",
"G#	c #5C2855",
"H#	c #E85AD9",
"I#	c #EA56DA",
"J#	c #EB56DA",
"K#	c #EB58D9",
"L#	c #82347A",
"M#	c #211D25",
"N#	c #453838",
"O#	c #383739",
"P#	c #303337",
"Q#	c #2D3337",
"R#	c #302727",
"S#	c #372D2C",
"T#	c #322929",
"U#	c #222426",
"V#	c #2F3437",
"W#	c #232327",
"X#	c #1A1B1D",
"Y#	c #1A1D20",
"Z#	c #27292C",
"`#	c #222326",
" $	c #394346",
".$	c #363839",
"+$	c #2F3638",
"@$	c #283134",
"#$	c #313C40",
"$$	c #333E42",
"%$	c #564F4D",
"&$	c #242C2F",
"*$	c #17181B",
"=$	c #212225",
"-$	c #202224",
";$	c #232427",
">$	c #2D2223",
",$	c #5D3B30",
"'$	c #25282D",
")$	c #3D4348",
"!$	c #242326",
"~$	c #4A2445",
"{$	c #EC5CDC",
"]$	c #8E3480",
"^$	c #65295B",
"/$	c #582651",
"($	c #3E253C",
"_$	c #5B2953",
":$	c #C64ABA",
"<$	c #742E6B",
"[$	c #C84ABA",
"}$	c #5D2958",
"|$	c #6B2E62",
"1$	c #EB56DB",
"2$	c #55284F",
"3$	c #56284F",
"4$	c #AC419F",
"5$	c #D750C6",
"6$	c #5D2856",
"7$	c #382339",
"8$	c #222228",
"9$	c #222225",
"0$	c #292C2F",
"a$	c #313538",
"b$	c #30373B",
"c$	c #2F2C2D",
"d$	c #343436",
"e$	c #343132",
"f$	c #362927",
"g$	c #242628",
"h$	c #1E1E22",
"i$	c #1B1D1F",
"j$	c #2D3237",
"k$	c #252529",
"l$	c #313737",
"m$	c #3F494C",
"n$	c #323C40",
"o$	c #2E363A",
"p$	c #293235",
"q$	c #333F43",
"r$	c #6F5A53",
"s$	c #222427",
"t$	c #2B2F34",
"u$	c #283337",
"v$	c #232628",
"w$	c #202325",
"x$	c #1F1F23",
"y$	c #5D3E32",
"z$	c #3E3935",
"A$	c #2E373A",
"B$	c #343F45",
"C$	c #262C30",
"D$	c #363C3F",
"E$	c #1E2024",
"F$	c #212227",
"G$	c #4D2548",
"H$	c #EB5ADC",
"I$	c #C047AF",
"J$	c #B343A3",
"K$	c #8F3783",
"L$	c #2D2431",
"M$	c #2E2431",
"N$	c #9D3D91",
"O$	c #D34DC4",
"P$	c #A03A95",
"Q$	c #362738",
"R$	c #642D5E",
"S$	c #EC56DC",
"T$	c #4C2648",
"U$	c #2E2731",
"V$	c #A34198",
"W$	c #D44FC5",
"X$	c #3F243E",
"Y$	c #222329",
"Z$	c #202125",
"`$	c #282B2F",
" %	c #2C3337",
".%	c #323C41",
"+%	c #503D38",
"@%	c #2C2626",
"#%	c #232629",
"$%	c #212426",
"%%	c #1A1D1F",
"&%	c #242B2F",
"*%	c #323A3F",
"=%	c #282A2E",
"-%	c #483F3A",
";%	c #4B4D4E",
">%	c #293135",
",%	c #70635E",
"'%	c #232529",
")%	c #303139",
"!%	c #293438",
"~%	c #212527",
"{%	c #222527",
"]%	c #222327",
"^%	c #1D1D21",
"/%	c #4B332B",
"(%	c #53413C",
"_%	c #373A3B",
":%	c #2F393C",
"<%	c #364349",
"[%	c #373F43",
"}%	c #1E2124",
"|%	c #212327",
"1%	c #4E254A",
"2%	c #ED5BDD",
"3%	c #CE4CBD",
"4%	c #C44AB6",
"5%	c #A23F96",
"6%	c #2E2331",
"7%	c #2D2430",
"8%	c #923B86",
"9%	c #D850C8",
"0%	c #993A8D",
"a%	c #342636",
"b%	c #662D5F",
"c%	c #EC57DD",
"d%	c #4D2549",
"e%	c #2D2730",
"f%	c #A24098",
"g%	c #3E233D",
"h%	c #212228",
"i%	c #202227",
"j%	c #202226",
"k%	c #272B2F",
"l%	c #2E3236",
"m%	c #353F43",
"n%	c #2D383D",
"o%	c #324247",
"p%	c #334347",
"q%	c #3F4042",
"r%	c #5E3F36",
"s%	c #262224",
"t%	c #232729",
"u%	c #252C31",
"v%	c #353D43",
"w%	c #2B2E33",
"x%	c #4F4845",
"y%	c #4D5254",
"z%	c #313B40",
"A%	c #2D363A",
"B%	c #344146",
"C%	c #726662",
"D%	c #131217",
"E%	c #221F28",
"F%	c #313038",
"G%	c #292F35",
"H%	c #1E1F23",
"I%	c #1F1E23",
"J%	c #221E22",
"K%	c #603E33",
"L%	c #57413A",
"M%	c #383F42",
"N%	c #354145",
"O%	c #37464D",
"P%	c #283035",
"Q%	c #3C4548",
"R%	c #222227",
"S%	c #4F254A",
"T%	c #873379",
"U%	c #5C2953",
"V%	c #4E2648",
"W%	c #372538",
"X%	c #4F2749",
"Y%	c #C246B4",
"Z%	c #86327B",
"`%	c #CA4ABB",
" &	c #5B2854",
".&	c #6A2E61",
"+&	c #EB56DC",
"@&	c #4C2449",
"#&	c #2C2630",
"$&	c #A23F98",
"%&	c #3C223C",
"&&	c #212329",
"*&	c #2A2D31",
"=&	c #373A3F",
"-&	c #364046",
";&	c #2E3B40",
">&	c #34454A",
",&	c #344349",
"'&	c #493F3F",
")&	c #4B3B39",
"!&	c #72483D",
"~&	c #3B2B29",
"{&	c #19181D",
"]&	c #262A31",
"^&	c #373A43",
"/&	c #2C2B33",
"(&	c #141118",
"_&	c #554C48",
":&	c #515558",
"<&	c #313B3F",
"[&	c #2C363A",
"}&	c #323F44",
"|&	c #344247",
"1&	c #746765",
"2&	c #17121C",
"3&	c #2F1F32",
"4&	c #38293B",
"5&	c #2B2732",
"6&	c #16131A",
"7&	c #18151C",
"8&	c #2A1D1E",
"9&	c #4F352E",
"0&	c #413532",
"a&	c #3C3B3C",
"b&	c #383E43",
"c&	c #343F44",
"d&	c #38484E",
"e&	c #2A3338",
"f&	c #3B4448",
"g&	c #50403E",
"h&	c #3F3435",
"i&	c #EC58DE",
"j&	c #E856D8",
"k&	c #E655D6",
"l&	c #E556D5",
"m&	c #86377C",
"n&	c #CD51BE",
"o&	c #7A2F72",
"p&	c #322434",
"q&	c #792E70",
"r&	c #CC4FC0",
"s&	c #672B5E",
"t&	c #EA56DB",
"u&	c #472345",
"v&	c #29242E",
"w&	c #A03E95",
"x&	c #D34FC3",
"y&	c #382238",
"z&	c #212328",
"A&	c #202126",
"B&	c #4D3E3C",
"C&	c #353336",
"D&	c #3B4144",
"E&	c #38444A",
"F&	c #2F3C41",
"G&	c #35454B",
"H&	c #36444B",
"I&	c #3B4247",
"J&	c #413D3D",
"K&	c #453734",
"L&	c #4F3630",
"M&	c #2D1F1F",
"N&	c #1A161D",
"O&	c #1C1720",
"P&	c #2B2531",
"Q&	c #403447",
"R&	c #37273B",
"S&	c #1A121E",
"T&	c #594E4B",
"U&	c #53585B",
"V&	c #2E383B",
"W&	c #2E393D",
"X&	c #344348",
"Y&	c #36444A",
"Z&	c #766866",
"`&	c #201523",
" *	c #933887",
".*	c #C74DB7",
"+*	c #451A42",
"@*	c #19131E",
"#*	c #1C181F",
"$*	c #5E3C32",
"%*	c #3E2F2B",
"&*	c #403330",
"**	c #423C3B",
"=*	c #3C3F43",
"-*	c #404447",
";*	c #374348",
">*	c #3B4B51",
",*	c #2B353A",
"'*	c #3B4549",
")*	c #474243",
"!*	c #403939",
"~*	c #3F323B",
"{*	c #713B67",
"]*	c #7A3E70",
"^*	c #7A3E71",
"/*	c #753C6D",
"(*	c #55364F",
"_*	c #5E3759",
":*	c #413441",
"<*	c #38363B",
"[*	c #433741",
"}*	c #5C3857",
"|*	c #483444",
"1*	c #6C3B66",
"2*	c #413540",
"3*	c #39353A",
"4*	c #553650",
"5*	c #63365E",
"6*	c #383039",
"7*	c #313033",
"8*	c #3C393B",
"9*	c #3C4146",
"0*	c #2E3438",
"a*	c #3A494F",
"b*	c #303D42",
"c*	c #36454B",
"d*	c #37464C",
"e*	c #3B4246",
"f*	c #3C302F",
"g*	c #5F3E36",
"h*	c #221D23",
"i*	c #231D26",
"j*	c #341935",
"k*	c #B747A8",
"l*	c #AF44A1",
"m*	c #2C142D",
"n*	c #594F4C",
"o*	c #535A5D",
"p*	c #354146",
"q*	c #2E373B",
"r*	c #36464C",
"s*	c #766B6A",
"t*	c #251728",
"u*	c #B445A5",
"v*	c #F25DDF",
"w*	c #551E50",
"x*	c #1C1422",
"y*	c #1D191F",
"z*	c #684035",
"A*	c #4A3B35",
"B*	c #3E3A39",
"C*	c #423E3E",
"D*	c #484241",
"E*	c #37454A",
"F*	c #303A40",
"G*	c #4C4E50",
"H*	c #575152",
"I*	c #595457",
"J*	c #5F575C",
"K*	c #62575D",
"L*	c #63595E",
"M*	c #62585F",
"N*	c #63585D",
"O*	c #5F5A5E",
"P*	c #615C60",
"Q*	c #605C60",
"R*	c #625A5F",
"S*	c #61585C",
"T*	c #635D60",
"U*	c #615C5E",
"V*	c #605A5D",
"W*	c #5F5A5C",
"X*	c #5B5859",
"Y*	c #585657",
"Z*	c #595657",
"`*	c #4F5153",
" =	c #34393C",
".=	c #293033",
"+=	c #3B4B52",
"@=	c #303C42",
"#=	c #36464B",
"$=	c #36484D",
"%=	c #38474C",
"&=	c #423A39",
"*=	c #473835",
"==	c #5C3E36",
"-=	c #2A2426",
";=	c #28242C",
">=	c #3E1D3F",
",=	c #E056CC",
"'=	c #D450C3",
")=	c #331635",
"!=	c #59504D",
"~=	c #545C5E",
"{=	c #354348",
"]=	c #2E363B",
"^=	c #35444A",
"/=	c #38484D",
"(=	c #746967",
"_=	c #251729",
":=	c #B545A6",
"<=	c #F35DE1",
"[=	c #592053",
"}=	c #221927",
"|=	c #211E24",
"1=	c #664036",
"2=	c #453B39",
"3=	c #423E3C",
"4=	c #463E3C",
"5=	c #37484C",
"6=	c #39474E",
"7=	c #3A464B",
"8=	c #2F383D",
"9=	c #262B2F",
"0=	c #272B30",
"a=	c #282C31",
"b=	c #282D32",
"c=	c #2A353B",
"d=	c #2A3339",
"e=	c #293036",
"f=	c #2A3037",
"g=	c #293137",
"h=	c #293237",
"i=	c #2B3339",
"j=	c #283136",
"k=	c #283135",
"l=	c #283034",
"m=	c #272E34",
"n=	c #272D32",
"o=	c #282D30",
"p=	c #33383B",
"q=	c #394A51",
"r=	c #313E44",
"s=	c #37484D",
"t=	c #36494E",
"u=	c #3A4245",
"v=	c #453E3D",
"w=	c #503B36",
"x=	c #523D36",
"y=	c #2D272A",
"z=	c #2E2B33",
"A=	c #411D42",
"B=	c #DF55CD",
"C=	c #D450C4",
"D=	c #351737",
"E=	c #545D60",
"F=	c #31383C",
"G=	c #394A4E",
"H=	c #836F6A",
"I=	c #27172A",
"J=	c #B544A6",
"K=	c #F45CE1",
"L=	c #5A2053",
"M=	c #241C29",
"N=	c #242128",
"O=	c #694037",
"P=	c #473D3B",
"Q=	c #3C4345",
"R=	c #37494E",
"S=	c #534643",
"T=	c #65544D",
"U=	c #3A4A50",
"V=	c #38474D",
"W=	c #38484F",
"X=	c #39484F",
"Y=	c #394950",
"Z=	c #394951",
"`=	c #3B4F56",
" -	c #3E5862",
".-	c #3D515A",
"+-	c #3A5059",
"@-	c #3E5661",
"#-	c #415F6A",
"$-	c #42616C",
"%-	c #425D68",
"&-	c #45626D",
"*-	c #45636E",
"=-	c #3E5962",
"--	c #3C5159",
";-	c #3C4E56",
">-	c #3A4C54",
",-	c #394A50",
"'-	c #494441",
")-	c #66534A",
"!-	c #3B464C",
"~-	c #313F44",
"{-	c #3E3C3E",
"]-	c #483C39",
"^-	c #593B31",
"/-	c #4C3732",
"(-	c #31282A",
"_-	c #312C35",
":-	c #421D42",
"<-	c #E054CD",
"[-	c #D54FC4",
"}-	c #371838",
"|-	c #5D514F",
"1-	c #575F63",
"2-	c #3C4B51",
"3-	c #30393D",
"4-	c #7B6D6A",
"5-	c #B644A6",
"6-	c #F55CE2",
"7-	c #251C2B",
"8-	c #26212A",
"9-	c #6A4139",
"0-	c #374146",
"a-	c #3E3F40",
"b-	c #384449",
"c-	c #38494F",
"d-	c #384A50",
"e-	c #3C4144",
"f-	c #3C3B3B",
"g-	c #3B4E55",
"h-	c #3E4E55",
"i-	c #3B4C53",
"j-	c #3A4B52",
"k-	c #3D525A",
"l-	c #405A65",
"m-	c #415761",
"n-	c #415862",
"o-	c #405761",
"p-	c #476874",
"q-	c #4C6F7C",
"r-	c #496976",
"s-	c #445F6A",
"t-	c #44616B",
"u-	c #425F6A",
"v-	c #415963",
"w-	c #41555E",
"x-	c #40535C",
"y-	c #414D53",
"z-	c #3D5057",
"A-	c #3E545C",
"B-	c #40555C",
"C-	c #374248",
"D-	c #3B3536",
"E-	c #3F4F55",
"F-	c #303D43",
"G-	c #36474D",
"H-	c #36464D",
"I-	c #505153",
"J-	c #6A5C57",
"K-	c #68554E",
"L-	c #66514A",
"M-	c #5E4C48",
"N-	c #3C2C2E",
"O-	c #322B36",
"P-	c #421D43",
"Q-	c #E155CE",
"R-	c #D64FC4",
"S-	c #38183A",
"T-	c #5F504E",
"U-	c #5A6064",
"V-	c #3D4D52",
"W-	c #39484D",
"X-	c #30393C",
"Y-	c #39484E",
"Z-	c #424B50",
"`-	c #837270",
" ;	c #271729",
".;	c #26222A",
"+;	c #69423B",
"@;	c #414042",
"#;	c #444041",
"$;	c #39464B",
"%;	c #3A4C52",
"&;	c #394B51",
"*;	c #40535A",
"=;	c #414F55",
"-;	c #565B5F",
";;	c #665F5F",
">;	c #565D62",
",;	c #555E63",
"';	c #565F64",
");	c #586268",
"!;	c #5C646A",
"~;	c #5A656C",
"{;	c #5B666C",
"];	c #5D696F",
"^;	c #5C696F",
"/;	c #5B6A71",
"(;	c #5F6D75",
"_;	c #5F6D74",
":;	c #5A696F",
"<;	c #5A676D",
"[;	c #5A666B",
"};	c #576167",
"|;	c #586165",
"1;	c #5A6163",
"2;	c #6D5F5D",
"3;	c #645C5B",
"4;	c #535255",
"5;	c #40535B",
"6;	c #2F3E43",
"7;	c #384349",
"8;	c #5C6062",
"9;	c #50585D",
"0;	c #4D5559",
"a;	c #4C555A",
"b;	c #606266",
"c;	c #3F4247",
"d;	c #342B36",
"e;	c #411C42",
"f;	c #D550C4",
"g;	c #371739",
"h;	c #553D3B",
"i;	c #745E59",
"j;	c #405055",
"k;	c #323D40",
"l;	c #514C4D",
"m;	c #464F54",
"n;	c #827371",
"o;	c #261729",
"p;	c #592154",
"q;	c #251D2B",
"r;	c #26232A",
"s;	c #6A443C",
"t;	c #38454B",
"u;	c #3A484E",
"v;	c #3A4E54",
"w;	c #3A4D53",
"x;	c #37494D",
"y;	c #3B4D54",
"z;	c #5A6065",
"A;	c #2C3238",
"B;	c #24262C",
"C;	c #263539",
"D;	c #253339",
"E;	c #234548",
"F;	c #234245",
"G;	c #262D34",
"H;	c #252C32",
"I;	c #252C33",
"J;	c #272F36",
"K;	c #285255",
"L;	c #255254",
"M;	c #266B6B",
"N;	c #28353E",
"O;	c #27484C",
"P;	c #255154",
"Q;	c #255053",
"R;	c #252B32",
"S;	c #225455",
"T;	c #262A2F",
"U;	c #27292E",
"V;	c #26282D",
"W;	c #24262A",
"X;	c #494B4D",
"Y;	c #595A5B",
"Z;	c #40545B",
"`;	c #3E4A4E",
" >	c #455256",
".>	c #464648",
"+>	c #4F4848",
"@>	c #4D494B",
"#>	c #46484B",
"$>	c #3E474D",
"%>	c #342B37",
"&>	c #E255CE",
"*>	c #D650C5",
"=>	c #381839",
"->	c #5C4642",
";>	c #816B63",
">>	c #404C50",
",>	c #3A474C",
"'>	c #3C4F55",
")>	c #3E5259",
"!>	c #847471",
"~>	c #261829",
"{>	c #F65CE2",
"]>	c #582053",
"^>	c #251E2B",
"/>	c #252329",
"(>	c #69453D",
"_>	c #3B4F55",
":>	c #3A4E53",
"<>	c #394A4F",
"[>	c #42545A",
"}>	c #2C3136",
"|>	c #323235",
"1>	c #353538",
"2>	c #2E5F62",
"3>	c #31575F",
"4>	c #1FC7C1",
"5>	c #297B7A",
"6>	c #278E8E",
"7>	c #26A09F",
"8>	c #2E424E",
"9>	c #31404E",
"0>	c #2F9897",
"a>	c #2B9C9B",
"b>	c #26CEC9",
"c>	c #354654",
"d>	c #327A7D",
"e>	c #2A9D9D",
"f>	c #299193",
"g>	c #313C46",
"h>	c #2E8786",
"i>	c #31383F",
"j>	c #2C3139",
"k>	c #292D31",
"l>	c #414A4F",
"m>	c #3F535B",
"n>	c #3C474A",
"o>	c #4B4C4D",
"p>	c #B68453",
"q>	c #D79857",
"r>	c #B67A44",
"s>	c #4B4343",
"t>	c #494A4A",
"u>	c #342C38",
"v>	c #E155CF",
"w>	c #38193A",
"x>	c #61453F",
"y>	c #80665E",
"z>	c #404F55",
"A>	c #3E4142",
"B>	c #3E535A",
"C>	c #857571",
"D>	c #582153",
"E>	c #261F2C",
"F>	c #28262C",
"G>	c #69453E",
"H>	c #3A4A51",
"I>	c #3B5056",
"J>	c #3A4E55",
"K>	c #43545C",
"L>	c #32393F",
"M>	c #2B3035",
"N>	c #47484B",
"O>	c #4F4F51",
"P>	c #303B46",
"Q>	c #354753",
"R>	c #1FC7C3",
"S>	c #314E5A",
"T>	c #2C8C8C",
"U>	c #335C66",
"V>	c #2FA5A3",
"W>	c #325360",
"X>	c #2E9595",
"Y>	c #2C9D9D",
"Z>	c #26CECA",
"`>	c #374856",
" ,	c #364552",
".,	c #2DA0A0",
"+,	c #2A9497",
"@,	c #36434E",
"#,	c #353F4B",
"$,	c #373E47",
"%,	c #6B5F5A",
"&,	c #3A393B",
"*,	c #434C51",
"=,	c #41545C",
"-,	c #354449",
";,	c #444242",
">,	c #504240",
",,	c #E48147",
"',	c #EE7D42",
"),	c #E79E4E",
"!,	c #4E3D3B",
"~,	c #494D50",
"{,	c #352C39",
"],	c #411B41",
"^,	c #E154CE",
"/,	c #371839",
"(,	c #503F3C",
"_,	c #836960",
":,	c #504E4F",
"<,	c #3D4144",
"[,	c #334045",
"},	c #3D5158",
"|,	c #3F535A",
"1,	c #857472",
"2,	c #B543A6",
"3,	c #5A2154",
"4,	c #261E2C",
"5,	c #28252D",
"6,	c #6F4740",
"7,	c #3A4951",
"8,	c #43545B",
"9,	c #31393F",
"0,	c #286F69",
"a,	c #2E3239",
"b,	c #33363E",
"c,	c #333D49",
"d,	c #344651",
"e,	c #20C8C3",
"f,	c #31535E",
"g,	c #2F898B",
"h,	c #31777C",
"i,	c #2B9695",
"j,	c #308586",
"k,	c #2E9495",
"l,	c #2E9D9E",
"m,	c #28CDCB",
"n,	c #384957",
"o,	c #384754",
"p,	c #2F9FA1",
"q,	c #2B9397",
"r,	c #374350",
"s,	c #353E4A",
"t,	c #323943",
"u,	c #2B2F36",
"v,	c #303235",
"w,	c #292D32",
"x,	c #272B31",
"y,	c #524E50",
"z,	c #41555D",
"A,	c #2E3A3F",
"B,	c #334046",
"C,	c #42494E",
"D,	c #4E4141",
"E,	c #D0924D",
"F,	c #ECA455",
"G,	c #D6974F",
"H,	c #4B3D3C",
"I,	c #464F56",
"J,	c #411B42",
"K,	c #D651C5",
"L,	c #685550",
"M,	c #777575",
"N,	c #6E6462",
"O,	c #443835",
"P,	c #333F44",
"Q,	c #6C5959",
"R,	c #28172A",
"S,	c #F65CE3",
"T,	c #592055",
"U,	c #271D2C",
"V,	c #26222B",
"W,	c #6D453E",
"X,	c #3C4A50",
"Y,	c #3C5158",
"Z,	c #3D5159",
"`,	c #394C52",
" '	c #43535B",
".'	c #323B40",
"+'	c #2E7370",
"@'	c #303943",
"#'	c #323B46",
"$'	c #343F4A",
"%'	c #334651",
"&'	c #21C9C4",
"*'	c #2F525F",
"='	c #2F898C",
"-'	c #344554",
";'	c #2D9494",
">'	c #2E989A",
",'	c #2E9798",
"''	c #2E9F9E",
")'	c #27CDCB",
"!'	c #384A58",
"~'	c #384855",
"{'	c #2E9FA0",
"]'	c #2C9398",
"^'	c #343E4A",
"/'	c #313842",
"('	c #303740",
"_'	c #31363F",
":'	c #30363E",
"<'	c #292D33",
"['	c #515155",
"}'	c #425760",
"|'	c #2D363C",
"1'	c #313B42",
"2'	c #414B52",
"3'	c #756059",
"4'	c #6F382C",
"5'	c #82412E",
"6'	c #733D2E",
"7'	c #565050",
"8'	c #465057",
"9'	c #332937",
"0'	c #675551",
"a'	c #787474",
"b'	c #4A5B61",
"c'	c #5B5756",
"d'	c #47565D",
"e'	c #866B66",
"f'	c #592054",
"g'	c #27232B",
"h'	c #6B453C",
"i'	c #3C4C52",
"j'	c #3C5057",
"k'	c #3D535A",
"l'	c #44545D",
"m'	c #323B41",
"n'	c #323A44",
"o'	c #333C47",
"p'	c #313B46",
"q'	c #34404B",
"r'	c #344A56",
"s'	c #23CAC5",
"t'	c #31515E",
"u'	c #2E8789",
"v'	c #30404D",
"w'	c #2C9696",
"x'	c #2EA5A4",
"y'	c #2D9898",
"z'	c #2DA09E",
"A'	c #27C5C3",
"B'	c #34747A",
"C'	c #384956",
"D'	c #2F9F9E",
"E'	c #2D9196",
"F'	c #374451",
"G'	c #323D48",
"H'	c #313A44",
"I'	c #303842",
"J'	c #303741",
"K'	c #303640",
"L'	c #292E34",
"M'	c #43555B",
"N'	c #445962",
"O'	c #2E373D",
"P'	c #313A40",
"Q'	c #414B50",
"R'	c #5E4843",
"S'	c #C1864A",
"T'	c #D8A053",
"U'	c #BE7E44",
"V'	c #5E4644",
"W'	c #401C41",
"X'	c #38173A",
"Y'	c #655653",
"Z'	c #646E72",
"`'	c #465A61",
" )	c #445258",
".)	c #303539",
"+)	c #37454B",
"@)	c #425359",
"#)	c #7E6B68",
"$)	c #B444A5",
"%)	c #5A2055",
"&)	c #271E2D",
"*)	c #28252C",
"=)	c #6D463B",
"-)	c #4D4A4B",
";)	c #3E5057",
">)	c #3E545B",
",)	c #3E555D",
"')	c #3C545A",
"))	c #44565E",
"!)	c #333C42",
"~)	c #313C45",
"{)	c #33414B",
"])	c #33414C",
"^)	c #34444F",
"/)	c #31666A",
"()	c #25CBC4",
"_)	c #31515C",
":)	c #2E8788",
"<)	c #334653",
"[)	c #2D9997",
"})	c #2D9796",
"|)	c #2CA7A3",
"1)	c #2DA5A6",
"2)	c #2EAEAE",
"3)	c #354B5A",
"4)	c #2FA2A1",
"5)	c #2F9297",
"6)	c #354652",
"7)	c #33414D",
"8)	c #323E49",
"9)	c #2A8B86",
"0)	c #42545B",
"a)	c #455A63",
"b)	c #2E363C",
"c)	c #404B4F",
"d)	c #7D4533",
"e)	c #E9AA5A",
"f)	c #EC8145",
"g)	c #E09B51",
"h)	c #774538",
"i)	c #454F56",
"j)	c #352D39",
"k)	c #E055CD",
"l)	c #D651C4",
"m)	c #616D72",
"n)	c #445860",
"o)	c #3E4F56",
"p)	c #303538",
"q)	c #394449",
"r)	c #434245",
"s)	c #6C524F",
"t)	c #261929",
"u)	c #B443A5",
"v)	c #5C2157",
"w)	c #271E2C",
"x)	c #79483B",
"y)	c #524A4A",
"z)	c #3F5157",
"A)	c #44555E",
"B)	c #2E797A",
"C)	c #29A2A0",
"D)	c #29A5A2",
"E)	c #2A9A99",
"F)	c #2AA7A2",
"G)	c #28A9A3",
"H)	c #33515C",
"I)	c #2E8A8A",
"J)	c #334552",
"K)	c #2A9795",
"L)	c #2DA6A5",
"M)	c #2C9293",
"N)	c #317B7E",
"O)	c #309798",
"P)	c #2B8688",
"Q)	c #2AAEA9",
"R)	c #2F9699",
"S)	c #28999B",
"T)	c #2BA2A1",
"U)	c #314450",
"V)	c #323F4A",
"W)	c #313A45",
"X)	c #2C7678",
"Y)	c #2C8F8B",
"Z)	c #42545D",
"`)	c #455963",
" !	c #2D353A",
".!	c #32383E",
"+!	c #414C50",
"@!	c #794533",
"#!	c #E5A959",
"$!	c #ECA252",
"%!	c #DF9A4F",
"&!	c #7A493B",
"*!	c #444F56",
"=!	c #401B41",
"-!	c #371738",
";!	c #655755",
">!	c #606C72",
",!	c #43565F",
"'!	c #3D4E55",
")!	c #2D3338",
"!!	c #403D3F",
"~!	c #625A5B",
"{!	c #846F69",
"]!	c #26182A",
"^!	c #F75CE3",
"/!	c #5B2157",
"(!	c #29252D",
"_!	c #7B4A3D",
":!	c #5B4846",
"<!	c #405057",
"[!	c #333D42",
"}!	c #31444E",
"|!	c #334853",
"1!	c #324B56",
"2!	c #2E9E9E",
"3!	c #2AB8B3",
"4!	c #324A53",
"5!	c #35505A",
"6!	c #2F8B8B",
"7!	c #324552",
"8!	c #2A9B98",
"9!	c #2CA4A2",
"0!	c #2B9C9D",
"a!	c #307B81",
"b!	c #308286",
"c!	c #2B8D90",
"d!	c #2CA5A5",
"e!	c #2C888A",
"f!	c #2A8C89",
"g!	c #26999A",
"h!	c #31424E",
"i!	c #2E8B8C",
"j!	c #2C8789",
"k!	c #303942",
"l!	c #292E35",
"m!	c #44555F",
"n!	c #445761",
"o!	c #33393C",
"p!	c #434E51",
"q!	c #534947",
"r!	c #7F3C2D",
"s!	c #9A4A31",
"t!	c #7F402E",
"u!	c #57504F",
"v!	c #342A38",
"w!	c #3F1A40",
"x!	c #D551C4",
"y!	c #5E5352",
"z!	c #5D6970",
"A!	c #42555E",
"B!	c #3C4E54",
"C!	c #455B63",
"D!	c #8E7C79",
"E!	c #F75DE3",
"F!	c #5B2057",
"G!	c #281E2D",
"H!	c #29242D",
"I!	c #7D4B3D",
"J!	c #66463C",
"K!	c #5A4D4B",
"L!	c #40555E",
"M!	c #44565F",
"N!	c #2B787A",
"O!	c #2B999A",
"P!	c #299F9F",
"Q!	c #2B9597",
"R!	c #30696D",
"S!	c #344550",
"T!	c #2C9A99",
"U!	c #307276",
"V!	c #324450",
"W!	c #2A9897",
"X!	c #2CA2A0",
"Y!	c #334B59",
"Z!	c #2BA8AA",
"`!	c #2D646B",
" ~	c #2B9191",
".~	c #289293",
"+~	c #28B0AF",
"@~	c #2F757B",
"#~	c #2D5B66",
"$~	c #2A9E9F",
"%~	c #2B9A99",
"&~	c #303F4A",
"*~	c #2A2E36",
"=~	c #45565F",
"-~	c #57575A",
";~	c #2D3135",
">~	c #343638",
",~	c #464C51",
"'~	c #584341",
")~	c #AB6A3D",
"!~	c #A2653D",
"~~	c #50403F",
"{~	c #444D55",
"]~	c #DF54CD",
"^~	c #5F5252",
"/~	c #5D676E",
"(~	c #3C4D54",
"_~	c #343739",
":~	c #3D4F55",
"<~	c #3F555E",
"[~	c #817170",
"}~	c #F65DE3",
"|~	c #5B2056",
"1~	c #291D2D",
"2~	c #29232B",
"3~	c #7A4A3C",
"4~	c #604239",
"5~	c #4E4F4F",
"6~	c #595253",
"7~	c #555458",
"8~	c #3C525A",
"9~	c #354046",
"0~	c #30434E",
"a~	c #2E7377",
"b~	c #2D8C8C",
"c~	c #31424D",
"d~	c #2B9E9D",
"e~	c #307D81",
"f~	c #32414B",
"g~	c #33535C",
"h~	c #2DA1A0",
"i~	c #2CA7A6",
"j~	c #334451",
"k~	c #31414D",
"l~	c #2F9595",
"m~	c #2A646D",
"n~	c #28A3A3",
"o~	c #279C9D",
"p~	c #2AA1A5",
"q~	c #2DA5A4",
"r~	c #314C5C",
"s~	c #2AA3A3",
"t~	c #2A9898",
"u~	c #313640",
"v~	c #2A2F36",
"w~	c #625D5E",
"x~	c #333236",
"y~	c #444C51",
"z~	c #834634",
"A~	c #EEB261",
"B~	c #F0984E",
"C~	c #DF984B",
"D~	c #7D4639",
"E~	c #454F57",
"F~	c #332B39",
"G~	c #3E1A40",
"H~	c #DF54CC",
"I~	c #635452",
"J~	c #5E696E",
"K~	c #443936",
"L~	c #43494C",
"M~	c #836F6D",
"N~	c #2A1D2C",
"O~	c #2F262A",
"P~	c #6F453A",
"Q~	c #604138",
"R~	c #544D4B",
"S~	c #4F4E4E",
"T~	c #333D43",
"U~	c #2D6D70",
"V~	c #2E6367",
"W~	c #25A6A4",
"X~	c #32444F",
"Y~	c #32424C",
"Z~	c #2D6467",
"`~	c #32404B",
" {	c #32404A",
".{	c #32525B",
"+{	c #2F8386",
"@{	c #2CA8A7",
"#{	c #34434F",
"${	c #34424D",
"%{	c #31414B",
"&{	c #299292",
"*{	c #27ADAA",
"={	c #289295",
"-{	c #29A4A5",
";{	c #2DA6A4",
">{	c #324D5B",
",{	c #2BA5A5",
"'{	c #292F36",
"){	c #46575E",
"!{	c #606164",
"~{	c #2C2F34",
"{{	c #303238",
"]{	c #424D51",
"^{	c #804633",
"/{	c #ECAF5C",
"({	c #EF9D4D",
"_{	c #E39D4F",
":{	c #7D473A",
"<{	c #332C39",
"[{	c #3E1C40",
"}{	c #635654",
"|{	c #5C686D",
"1{	c #3B474D",
"2{	c #312C2B",
"3{	c #43555C",
"4{	c #8C7067",
"5{	c #2F212C",
"6{	c #30262A",
"7{	c #72453A",
"8{	c #58413A",
"9{	c #62443B",
"0{	c #524947",
"a{	c #3F545A",
"b{	c #405359",
"c{	c #3E4D52",
"d{	c #42545C",
"e{	c #313B41",
"f{	c #2E7D7D",
"g{	c #2A9B96",
"h{	c #303F47",
"i{	c #323D47",
"j{	c #323E47",
"k{	c #334149",
"l{	c #34434C",
"m{	c #34434D",
"n{	c #314048",
"o{	c #324651",
"p{	c #299696",
"q{	c #289396",
"r{	c #2AA7A4",
"s{	c #2CA6A2",
"t{	c #304D5B",
"u{	c #2BA4A4",
"v{	c #2A9796",
"w{	c #303B43",
"x{	c #2A3238",
"y{	c #43555E",
"z{	c #455B64",
"A{	c #2B2F35",
"B{	c #303339",
"C{	c #5C433C",
"D{	c #904E31",
"E{	c #AE633C",
"F{	c #9A5739",
"G{	c #5E4A47",
"H{	c #434F55",
"I{	c #3E1B40",
"J{	c #361838",
"K{	c #635653",
"L{	c #3F5259",
"M{	c #3A4B51",
"N{	c #3E2C28",
"O{	c #424548",
"P{	c #3F545B",
"Q{	c #7C6E6C",
"R{	c #5B2156",
"S{	c #291F2C",
"T{	c #2A242A",
"U{	c #73453C",
"V{	c #414649",
"W{	c #41484A",
"X{	c #42585D",
"Y{	c #40565D",
"Z{	c #42525C",
"`{	c #313841",
" ]	c #323C45",
".]	c #323D45",
"+]	c #313D45",
"@]	c #34414B",
"#]	c #334049",
"$]	c #33414A",
"%]	c #33424D",
"&]	c #2A9798",
"*]	c #299496",
"=]	c #29A8A4",
"-]	c #2CA5A2",
";]	c #2E5561",
">]	c #299FA0",
",]	c #2A9695",
"']	c #303F49",
")]	c #303B44",
"!]	c #2B343A",
"~]	c #445A64",
"{]	c #2B2E34",
"]]	c #2F3339",
"^]	c #434F54",
"/]	c #4A4341",
"(]	c #945236",
"_]	c #AC603B",
":]	c #8C4E36",
"<]	c #424D54",
"[]	c #3F1A41",
"}]	c #361737",
"|]	c #5C5150",
"1]	c #586469",
"2]	c #3F5158",
"3]	c #5C3B30",
"4]	c #684F47",
"5]	c #7E706E",
"6]	c #26172A",
"7]	c #5C2156",
"8]	c #281D2C",
"9]	c #28232B",
"0]	c #71453B",
"a]	c #39464C",
"b]	c #3D4E53",
"c]	c #3F4F54",
"d]	c #2F363F",
"e]	c #2F3740",
"f]	c #313943",
"g]	c #303941",
"h]	c #303841",
"i]	c #313B44",
"j]	c #333F49",
"k]	c #34404A",
"l]	c #334048",
"m]	c #333E48",
"n]	c #32414C",
"o]	c #299394",
"p]	c #29A7A4",
"q]	c #2DA3A2",
"r]	c #2B606A",
"s]	c #2C5861",
"t]	c #2F434E",
"u]	c #2E5659",
"v]	c #29333B",
"w]	c #445560",
"x]	c #455964",
"y]	c #2B2E35",
"z]	c #2F3239",
"A]	c #434D53",
"B]	c #864634",
"C]	c #EEB160",
"D]	c #EF9F51",
"E]	c #7D4739",
"F]	c #434D54",
"G]	c #322A37",
"H]	c #401A41",
"I]	c #615352",
"J]	c #5A646A",
"K]	c #39494F",
"L]	c #413B3A",
"M]	c #415056",
"N]	c #3C4A4F",
"O]	c #846E6D",
"P]	c #B543A5",
"Q]	c #271C2B",
"R]	c #28222B",
"S]	c #6B433B",
"T]	c #38454A",
"U]	c #3C4F56",
"V]	c #41525C",
"W]	c #298885",
"X]	c #2F3943",
"Y]	c #30424B",
"Z]	c #298887",
"`]	c #313D46",
" ^	c #323C46",
".^	c #323D46",
"+^	c #34414A",
"@^	c #33404A",
"#^	c #323E48",
"$^	c #333E49",
"%^	c #2AA6A5",
"&^	c #2D5661",
"*^	c #299596",
"=^	c #2D4F5B",
"-^	c #288F90",
";^	c #28A39D",
">^	c #283B43",
",^	c #455A64",
"'^	c #2A2E35",
")^	c #444E54",
"!^	c #844532",
"~^	c #EBAC5A",
"{^	c #EE9147",
"]^	c #E6A052",
"^^	c #804738",
"/^	c #362D38",
"(^	c #401B40",
"_^	c #D750C5",
":^	c #361738",
"<^	c #615351",
"[^	c #596368",
"}^	c #3D4F56",
"|^	c #37474C",
"1^	c #324146",
"2^	c #686363",
"3^	c #634B48",
"4^	c #27182A",
"5^	c #B544A5",
"6^	c #271C2C",
"7^	c #27232A",
"8^	c #684239",
"9^	c #39454A",
"0^	c #454849",
"a^	c #594E4F",
"b^	c #3C5056",
"c^	c #41515A",
"d^	c #2D7473",
"e^	c #278F8A",
"f^	c #2E4348",
"g^	c #2F3840",
"h^	c #313C44",
"i^	c #333F48",
"j^	c #34424B",
"k^	c #34424C",
"l^	c #313D47",
"m^	c #2A9899",
"n^	c #2B888B",
"o^	c #289599",
"p^	c #27999A",
"q^	c #279F9E",
"r^	c #259E9C",
"s^	c #269C9A",
"t^	c #269A99",
"u^	c #299C98",
"v^	c #284148",
"w^	c #425861",
"x^	c #2A2D34",
"y^	c #444F55",
"z^	c #62423A",
"A^	c #A36538",
"B^	c #C17C43",
"C^	c #AD6A40",
"D^	c #60433E",
"E^	c #3D2F37",
"F^	c #3F1B3F",
"G^	c #361638",
"H^	c #605351",
"I^	c #5D6669",
"J^	c #3C4E53",
"K^	c #393B3E",
"L^	c #3E535B",
"M^	c #5A595C",
"N^	c #916F64",
"O^	c #271B2B",
"P^	c #5B2055",
"Q^	c #261D2C",
"R^	c #25222A",
"S^	c #6A443A",
"T^	c #3B4C52",
"U^	c #3A4C51",
"V^	c #405059",
"W^	c #2A7272",
"X^	c #2E464D",
"Y^	c #2F3F45",
"Z^	c #2E353E",
"`^	c #313E47",
" /	c #32414A",
"./	c #34444E",
"+/	c #33434D",
"@/	c #33424C",
"#/	c #32424B",
"$/	c #2C9C9E",
"%/	c #28A5A2",
"&/	c #294E5A",
"*/	c #2AACAE",
"=/	c #2A9295",
"-/	c #2A9191",
";/	c #274046",
">/	c #42565E",
",/	c #40545E",
"'/	c #2E3238",
")/	c #494443",
"!/	c #914F35",
"~/	c #A75A39",
"{/	c #7E412E",
"]/	c #4C4748",
"^/	c #465258",
"//	c #362C36",
"(/	c #5C6467",
"_/	c #3C4447",
":/	c #373333",
"</	c #314146",
"[/	c #47565C",
"}/	c #8C736D",
"|/	c #27192A",
"1/	c #261D2B",
"2/	c #6D453A",
"3/	c #384A4F",
"4/	c #37494F",
"5/	c #334147",
"6/	c #323A40",
"7/	c #2E3F47",
"8/	c #2F3F47",
"9/	c #2F3F48",
"0/	c #2F3C45",
"a/	c #2F3B44",
"b/	c #303C45",
"c/	c #303E47",
"d/	c #32434C",
"e/	c #324650",
"f/	c #2D858A",
"g/	c #2AA3A5",
"h/	c #2AA4A4",
"i/	c #2AA6A6",
"j/	c #28A6A5",
"k/	c #297C81",
"l/	c #2C888C",
"m/	c #28ABAD",
"n/	c #2B8387",
"o/	c #27A7A7",
"p/	c #2B9B9F",
"q/	c #2A9A9E",
"r/	c #29999C",
"s/	c #2A9A9B",
"t/	c #299B9A",
"u/	c #26383E",
"v/	c #41535C",
"w/	c #40525C",
"x/	c #2D3137",
"y/	c #424E54",
"z/	c #7E4635",
"A/	c #EDB060",
"B/	c #F0A354",
"C/	c #DF9B4F",
"D/	c #70443A",
"E/	c #414C53",
"F/	c #453239",
"G/	c #D751C6",
"H/	c #381838",
"I/	c #61524F",
"J/	c #3D494D",
"K/	c #303E43",
"L/	c #3A4D54",
"M/	c #3F5359",
"N/	c #7F6D6A",
"O/	c #5A2155",
"P/	c #26232B",
"Q/	c #624039",
"R/	c #374349",
"S/	c #36474E",
"T/	c #323F45",
"U/	c #3F4E57",
"V/	c #258180",
"W/	c #2A6C6F",
"X/	c #2B6E71",
"Y/	c #2C6D71",
"Z/	c #2C6D70",
"`/	c #2C6E72",
" (	c #2E7376",
".(	c #299E9F",
"+(	c #25999D",
"@(	c #22AAAB",
"#(	c #21ABAB",
"$(	c #20A8A9",
"%(	c #21A4A5",
"&(	c #279597",
"*(	c #29A2A4",
"=(	c #269598",
"-(	c #24A6A6",
";(	c #24A1A2",
">(	c #219B9F",
",(	c #20999D",
"'(	c #21999C",
")(	c #259697",
"!(	c #273940",
"~(	c #415159",
"{(	c #3F5059",
"](	c #434E53",
"^(	c #834532",
"/(	c #ECAC59",
"((	c #EF9149",
"_(	c #E29E52",
":(	c #744336",
"<(	c #454E55",
"[(	c #4C353B",
"}(	c #3F1B40",
"|(	c #614741",
"1(	c #7E6058",
"2(	c #41484C",
"3(	c #7A6765",
"4(	c #271629",
"5(	c #F75CE2",
"6(	c #27222B",
"7(	c #6B4137",
"8(	c #3B4043",
"9(	c #374044",
"0(	c #36454C",
"a(	c #323E44",
"b(	c #3E4C54",
"c(	c #2A7D7F",
"d(	c #2A9FA0",
"e(	c #2AA1A2",
"f(	c #2AA3A4",
"g(	c #29A4A3",
"h(	c #29A5A3",
"i(	c #299A9B",
"j(	c #29AAAB",
"k(	c #2E868B",
"l(	c #2F8689",
"m(	c #2D8588",
"n(	c #2A9294",
"o(	c #2C8286",
"p(	c #279FA1",
"q(	c #278E92",
"r(	c #26AAAC",
"s(	c #26BEBF",
"t(	c #2C8C90",
"u(	c #2C8A8D",
"v(	c #2C8A8C",
"w(	c #2D8988",
"x(	c #27333B",
"y(	c #415058",
"z(	c #3E4F57",
"A(	c #3A3538",
"B(	c #474F55",
"C(	c #654037",
"D(	c #A7693C",
"E(	c #BF7D45",
"F(	c #9F6138",
"G(	c #674640",
"H(	c #464E55",
"I(	c #332B36",
"J(	c #3F1A3F",
"K(	c #381738",
"L(	c #654C47",
"M(	c #756460",
"N(	c #39474B",
"O(	c #3A3D3F",
"P(	c #2E3C40",
"Q(	c #384A51",
"R(	c #7A6766",
"S(	c #271D2B",
"T(	c #5F3A32",
"U(	c #443937",
"V(	c #4C3835",
"W(	c #3A4348",
"X(	c #334146",
"Y(	c #2F363B",
"Z(	c #2A918E",
"`(	c #2B8385",
" _	c #2B8384",
"._	c #2B8485",
"+_	c #2AB0AC",
"@_	c #2C9997",
"#_	c #2F8584",
"$_	c #33505A",
"%_	c #334652",
"&_	c #334752",
"*_	c #314853",
"=_	c #269B9D",
"-_	c #288E92",
";_	c #28AAAA",
">_	c #25BFBE",
",_	c #2F4651",
"'_	c #2F3D47",
")_	c #2E3842",
"!_	c #2E3741",
"~_	c #282E35",
"{_	c #404F57",
"]_	c #2B2D33",
"^_	c #333338",
"/_	c #454D53",
"(_	c #4B4240",
"__	c #874430",
":_	c #9D5237",
"<_	c #854533",
"[_	c #4D4344",
"}_	c #414A51",
"|_	c #322935",
"1_	c #371638",
"2_	c #604640",
"3_	c #5F5250",
"4_	c #3B4245",
"5_	c #3A3738",
"6_	c #384950",
"7_	c #756463",
"8_	c #261728",
"9_	c #282229",
"0_	c #5C3A32",
"a_	c #644136",
"b_	c #523933",
"c_	c #503E3A",
"d_	c #373E41",
"e_	c #343A3D",
"f_	c #2E393E",
"g_	c #3C484F",
"h_	c #2E3A44",
"i_	c #2E4D56",
"j_	c #29C8C3",
"k_	c #24CFC9",
"l_	c #21CBC5",
"m_	c #21CDC6",
"n_	c #25AEAB",
"o_	c #2F797C",
"p_	c #324751",
"q_	c #334550",
"r_	c #334650",
"s_	c #33454F",
"t_	c #334751",
"u_	c #269A9B",
"v_	c #298F93",
"w_	c #28AAA9",
"x_	c #24BEBD",
"y_	c #2C404A",
"z_	c #2E3943",
"A_	c #2D353E",
"B_	c #272D33",
"C_	c #404F56",
"D_	c #3D4C53",
"E_	c #2A2C32",
"F_	c #2E3036",
"G_	c #7A402F",
"H_	c #EBB05B",
"I_	c #F0A853",
"J_	c #E3A152",
"K_	c #704135",
"L_	c #3F474E",
"M_	c #312A35",
"N_	c #D74FC5",
"O_	c #371737",
"P_	c #5E4840",
"Q_	c #5D534F",
"R_	c #413937",
"S_	c #3B312E",
"T_	c #2D393D",
"U_	c #37474D",
"V_	c #736260",
"W_	c #5A2054",
"X_	c #292429",
"Y_	c #784A3D",
"Z_	c #46302B",
"`_	c #533831",
" :	c #503B35",
".:	c #373939",
"+:	c #333434",
"@:	c #2D373C",
"#:	c #3A444B",
"$:	c #2E3439",
"%:	c #2E3740",
"&:	c #2E4C55",
"*:	c #2AABA6",
"=:	c #2D4751",
"-:	c #2D414C",
";:	c #2E434E",
">:	c #2D6166",
",:	c #314550",
"':	c #304853",
"):	c #324F58",
"!:	c #30656B",
"~:	c #2F646A",
"{:	c #2E6268",
"]:	c #2E6167",
"^:	c #2E646A",
"/:	c #25A1A0",
"(:	c #299295",
"_:	c #28A8A6",
"::	c #25BEBE",
"<:	c #2D404A",
"[:	c #2E3942",
"}:	c #2D3740",
"|:	c #2E363E",
"1:	c #273035",
"2:	c #404E55",
"3:	c #3C4A51",
"4:	c #323135",
"5:	c #383536",
"6:	c #414A4E",
"7:	c #6F3D2E",
"8:	c #E9AC5C",
"9:	c #EE9349",
"0:	c #DE9B4C",
"a:	c #6F4133",
"b:	c #3D464C",
"c:	c #302934",
"d:	c #3E1A3F",
"e:	c #DE54CC",
"f:	c #3E393A",
"g:	c #4D4C4C",
"h:	c #3A3230",
"i:	c #2C363B",
"j:	c #6F605E",
"k:	c #251D29",
"l:	c #252128",
"m:	c #573E39",
"n:	c #7A4E40",
"o:	c #4A302B",
"p:	c #503730",
"q:	c #3A3837",
"r:	c #33393A",
"s:	c #2D363B",
"t:	c #394349",
"u:	c #2B6F6D",
"v:	c #2E4B54",
"w:	c #25B4B1",
"x:	c #2F424C",
"y:	c #2F3B45",
"z:	c #2F3A44",
"A:	c #304049",
"B:	c #2F414B",
"C:	c #2E4650",
"D:	c #2BA9AB",
"E:	c #2AA5A5",
"F:	c #27A2A2",
"G:	c #26B9B8",
"H:	c #26B8B8",
"I:	c #24B6B5",
"J:	c #26B8B6",
"K:	c #26B6B4",
"L:	c #23B2B1",
"M:	c #258285",
"N:	c #25A9AA",
"O:	c #2D414D",
"P:	c #2D3B45",
"Q:	c #2D3A43",
"R:	c #2A7978",
"S:	c #3F4B52",
"T:	c #3A464D",
"U:	c #424C51",
"V:	c #513631",
"W:	c #A06339",
"X:	c #BD7C45",
"Y:	c #995D37",
"Z:	c #503C37",
"`:	c #40474C",
" <	c #2F2834",
".<	c #3E193F",
"+<	c #35373C",
"@<	c #40484D",
"#<	c #353232",
"$<	c #2D3236",
"%<	c #353D41",
"&<	c #434447",
"*<	c #241B29",
"=<	c #241F26",
"-<	c #493938",
";<	c #563D38",
"><	c #482F29",
",<	c #57372E",
"'<	c #3F3735",
")<	c #363638",
"!<	c #384147",
"~<	c #2C3236",
"{<	c #2E3940",
"]<	c #2C4750",
"^<	c #24B5B4",
"/<	c #2E424D",
"(<	c #2D3841",
"_<	c #2F3D46",
":<	c #2A8286",
"<<	c #27898C",
"[<	c #2B9E9F",
"}<	c #27A5A6",
"|<	c #24A7A6",
"1<	c #299A9C",
"2<	c #29A8A8",
"3<	c #279C9C",
"4<	c #2A8B8E",
"5<	c #249B9C",
"6<	c #268E8F",
"7<	c #289797",
"8<	c #299898",
"9<	c #299897",
"0<	c #26A6A4",
"a<	c #29333A",
"b<	c #3E4A50",
"c<	c #39444A",
"d<	c #292C32",
"e<	c #2C2F35",
"f<	c #393C41",
"g<	c #433332",
"h<	c #803F2D",
"i<	c #974A30",
"j<	c #82412F",
"k<	c #453634",
"l<	c #3C4046",
"m<	c #302733",
"n<	c #DE54CB",
"o<	c #371637",
"p<	c #34353B",
"q<	c #3D484E",
"r<	c #393B3D",
"s<	c #313435",
"t<	c #26282B",
"u<	c #363A3E",
"v<	c #534849",
"w<	c #251B29",
"x<	c #463534",
"y<	c #3A3637",
"z<	c #5B3D35",
"A<	c #613C32",
"B<	c #42312E",
"C<	c #3C312F",
"D<	c #373F44",
"E<	c #2D343C",
"F<	c #2C464F",
"G<	c #25B7B5",
"H<	c #2F434D",
"I<	c #2D3640",
"J<	c #2A9696",
"K<	c #2C636B",
"L<	c #259997",
"M<	c #26ACAC",
"N<	c #2A989B",
"O<	c #2AA09C",
"P<	c #2D6A72",
"Q<	c #2E4A55",
"R<	c #2E4854",
"S<	c #269697",
"T<	c #26A0A2",
"U<	c #259397",
"V<	c #249F9F",
"W<	c #25A3A3",
"X<	c #27A3A4",
"Y<	c #29A0A1",
"Z<	c #27333A",
"`<	c #3E494F",
" [	c #282A30",
".[	c #2C2D33",
"+[	c #483331",
"@[	c #E3A657",
"#[	c #F1A34D",
"$[	c #E1A655",
"%[	c #4B3533",
"&[	c #383D43",
"*[	c #2F2632",
"=[	c #3F193F",
"-[	c #DF53CC",
";[	c #D74FC6",
">[	c #373237",
",[	c #484547",
"'[	c #363F42",
")[	c #424747",
"![	c #474849",
"~[	c #33393D",
"{[	c #6D5856",
"][	c #582052",
"^[	c #241B28",
"/[	c #423432",
"([	c #4D3B38",
"_[	c #623F36",
":[	c #3E2E2B",
"<[	c #3C2E2B",
"[[	c #2D333C",
"}[	c #2C454E",
"|[	c #24B7B5",
"1[	c #2C3C45",
"2[	c #2D353F",
"3[	c #2A8D8B",
"4[	c #2E4651",
"5[	c #269E9C",
"6[	c #25BBBA",
"7[	c #24ABAB",
"8[	c #2F4B57",
"9[	c #29B2B1",
"0[	c #2F4F5B",
"a[	c #21A6A6",
"b[	c #259C9F",
"c[	c #27A8A8",
"d[	c #269398",
"e[	c #269499",
"f[	c #279599",
"g[	c #2A9697",
"h[	c #27363D",
"i[	c #3D494E",
"j[	c #343D42",
"k[	c #27292F",
"l[	c #2B2C32",
"m[	c #323336",
"n[	c #48322F",
"o[	c #E6A855",
"p[	c #EF9850",
"q[	c #E9AA54",
"r[	c #483230",
"s[	c #36393E",
"t[	c #2D2530",
"u[	c #3E193E",
"v[	c #DE53CB",
"w[	c #303035",
"x[	c #394245",
"y[	c #323D41",
"z[	c #52585A",
"A[	c #554F4E",
"B[	c #3D3335",
"C[	c #261628",
"D[	c #B643A6",
"E[	c #551F4E",
"F[	c #211A25",
"G[	c #1F1D21",
"H[	c #3D3331",
"I[	c #393433",
"J[	c #3B3331",
"K[	c #42332F",
"L[	c #4E3F3B",
"M[	c #2E2A2A",
"N[	c #363D43",
"O[	c #2D333B",
"P[	c #2B444D",
"Q[	c #24BAB8",
"R[	c #2B414B",
"S[	c #2C3943",
"T[	c #2E363F",
"U[	c #298A89",
"V[	c #2D4752",
"W[	c #29A19F",
"X[	c #25B8B7",
"Y[	c #228589",
"Z[	c #288A8C",
"`[	c #2B9697",
" }	c #2F4D5A",
".}	c #26989B",
"+}	c #1FBCBB",
"@}	c #229090",
"#}	c #229496",
"$}	c #239397",
"%}	c #229195",
"&}	c #228E91",
"*}	c #269191",
"=}	c #27353C",
"-}	c #3B484D",
";}	c #2A2C31",
">}	c #53413B",
",}	c #A4663B",
"'}	c #C17D46",
")}	c #A6653B",
"!}	c #443836",
"~}	c #34383B",
"{}	c #2B242E",
"]}	c #3C193D",
"^}	c #DD52CA",
"/}	c #341734",
"(}	c #2C2D32",
"_}	c #383D41",
":}	c #333234",
"<}	c #594843",
"[}	c #364044",
"}}	c #6C5E5A",
"|}	c #856B62",
"1}	c #211623",
"2}	c #793270",
"3}	c #A14496",
"4}	c #422742",
"5}	c #1E1922",
"6}	c #1C1B1F",
"7}	c #3B312F",
"8}	c #383232",
"9}	c #392F2E",
"0}	c #3B2E2C",
"a}	c #373737",
"b}	c #353B41",
"c}	c #2B3034",
"d}	c #2C343B",
"e}	c #2A434C",
"f}	c #26BAB6",
"g}	c #259F9D",
"h}	c #2A7373",
"i}	c #2C3A42",
"j}	c #2A8B8A",
"k}	c #2F4A55",
"l}	c #2AA2A0",
"m}	c #25B3B2",
"n}	c #22A7A7",
"o}	c #287679",
"p}	c #279396",
"q}	c #2A9093",
"r}	c #25999C",
"s}	c #27BFBC",
"t}	c #24787E",
"u}	c #22A2A3",
"v}	c #24A1A4",
"w}	c #25A1A5",
"x}	c #26A3A5",
"y}	c #25A39F",
"z}	c #253035",
"A}	c #30383D",
"B}	c #2D3134",
"C}	c #4C4A48",
"D}	c #443D3D",
"E}	c #453937",
"F}	c #453C3B",
"G}	c #474240",
"H}	c #2E3235",
"I}	c #231E27",
"J}	c #362139",
"K}	c #924389",
"L}	c #8D3F85",
"M}	c #241327",
"N}	c #413838",
"O}	c #584C4A",
"P}	c #595351",
"Q}	c #353B3D",
"R}	c #2A3033",
"S}	c #343A3E",
"T}	c #4A4747",
"U}	c #7B635B",
"V}	c #19131C",
"W}	c #2A212D",
"X}	c #403546",
"Y}	c #322F39",
"Z}	c #18151D",
"`}	c #1A181D",
" |	c #3B2D2C",
".|	c #3A2D2B",
"+|	c #333437",
"@|	c #282A2F",
"#|	c #34393F",
"$|	c #2B3033",
"%|	c #2B353D",
"&|	c #2B464F",
"*|	c #27BBB8",
"=|	c #269695",
"-|	c #2D3942",
";|	c #2C3A43",
">|	c #2B8C8D",
",|	c #2B989B",
"'|	c #249595",
")|	c #27A2A1",
"!|	c #2A8789",
"~|	c #279094",
"{|	c #298E91",
"]|	c #2C4B58",
"^|	c #259699",
"/|	c #26BBBA",
"(|	c #27ADAD",
"_|	c #25A2A4",
":|	c #27A2A3",
"<|	c #29A1A2",
"[|	c #29A3A2",
"}|	c #29A4A0",
"||	c #262D33",
"1|	c #3C454C",
"2|	c #2F353A",
"3|	c #2A3134",
"4|	c #313439",
"5|	c #34373B",
"6|	c #36373B",
"7|	c #35383C",
"8|	c #323537",
"9|	c #232025",
"0|	c #2F2C36",
"a|	c #494150",
"b|	c #372E3D",
"c|	c #17111C",
"d|	c #5E4F4A",
"e|	c #716561",
"f|	c #373130",
"g|	c #2A2D30",
"h|	c #32393C",
"i|	c #615654",
"j|	c #141217",
"k|	c #221F24",
"l|	c #2E2C32",
"m|	c #282B31",
"n|	c #1A191E",
"o|	c #343539",
"p|	c #2A2528",
"q|	c #352725",
"r|	c #432D28",
"s|	c #323133",
"t|	c #313135",
"u|	c #3A3232",
"v|	c #27292D",
"w|	c #31373C",
"x|	c #2A2F33",
"y|	c #2B8584",
"z|	c #26B8B5",
"A|	c #2B6A6D",
"B|	c #2C9794",
"C|	c #2C4D54",
"D|	c #2D3A44",
"E|	c #2C8D90",
"F|	c #25B5B6",
"G|	c #269596",
"H|	c #25A9A9",
"I|	c #2A8689",
"J|	c #278E93",
"K|	c #299092",
"L|	c #2B8C8F",
"M|	c #259598",
"N|	c #25B9B9",
"O|	c #279698",
"P|	c #25B3B4",
"Q|	c #22AEB0",
"R|	c #2A777B",
"S|	c #2B414C",
"T|	c #28A09D",
"U|	c #272B32",
"V|	c #3B444A",
"W|	c #2B3134",
"X|	c #201E22",
"Y|	c #1A191C",
"Z|	c #19191C",
"`|	c #19191B",
" 1	c #2C2E32",
".1	c #1F2025",
"+1	c #26282E",
"@1	c #35363C",
"#1	c #29272E",
"$1	c #131017",
"%1	c #514441",
"&1	c #554E4C",
"*1	c #303132",
"=1	c #292C2D",
"-1	c #31373A",
";1	c #5A4F4E",
">1	c #2C2F33",
",1	c #252B2F",
"'1	c #414548",
")1	c #485054",
"!1	c #222023",
"~1	c #322726",
"{1	c #332C2C",
"]1	c #352B2B",
"^1	c #302E30",
"/1	c #30353A",
"(1	c #2B2F33",
"_1	c #2C323A",
":1	c #2B424A",
"<1	c #27B6B3",
"[1	c #2D3F49",
"}1	c #2B5057",
"|1	c #2CA3A1",
"11	c #2E444E",
"21	c #2D8D8E",
"31	c #23A4A3",
"41	c #28BFBC",
"51	c #2BA6A6",
"61	c #23A3A2",
"71	c #268886",
"81	c #268D90",
"91	c #2A9292",
"01	c #269597",
"a1	c #25B7B7",
"b1	c #299799",
"c1	c #2AA8AA",
"d1	c #22B8B6",
"e1	c #297C7D",
"f1	c #2C3C47",
"g1	c #289F9D",
"h1	c #25292E",
"i1	c #3A4248",
"j1	c #2D3336",
"k1	c #2F2F32",
"l1	c #282B2E",
"m1	c #26292B",
"n1	c #1F1E22",
"o1	c #3E4447",
"p1	c #272A2E",
"q1	c #22262A",
"r1	c #31353A",
"s1	c #2B2C31",
"t1	c #121115",
"u1	c #3E3736",
"v1	c #534E4C",
"w1	c #292A2B",
"x1	c #313436",
"y1	c #41484B",
"z1	c #232A2E",
"A1	c #292B2D",
"B1	c #2E3335",
"C1	c #40484B",
"D1	c #232123",
"E1	c #2F2626",
"F1	c #332A28",
"G1	c #2E2C2D",
"H1	c #2A3D44",
"I1	c #26B1AC",
"J1	c #2B373F",
"K1	c #2C4047",
"L1	c #299793",
"M1	c #2A8A88",
"N1	c #29A9A7",
"O1	c #2BC5BF",
"P1	c #2A7176",
"Q1	c #24A9A4",
"R1	c #277573",
"S1	c #268F90",
"T1	c #2B9392",
"U1	c #298588",
"V1	c #289594",
"W1	c #2BBAB8",
"X1	c #288183",
"Y1	c #27A19F",
"Z1	c #26BEBA",
"`1	c #2A7B7B",
" 2	c #2C3740",
".2	c #279C97",
"+2	c #384044",
"@2	c #26272A",
"#2	c #2B2D2F",
"$2	c #332F2F",
"%2	c #2A3133",
"&2	c #282D2F",
"*2	c #212023",
"=2	c #34393D",
"-2	c #2A2F30",
";2	c #1F2326",
">2	c #2E3338",
",2	c #333636",
"'2	c #3F494B",
")2	c #30393B",
"!2	c #2A2D2F",
"~2	c #2E3437",
"{2	c #344044",
"]2	c #111314",
"^2	c #1D1E21",
"/2	c #25272B",
"(2	c #22282B",
"_2	c #282B2D",
":2	c #4F5455",
"<2	c #3A3E41",
"[2	c #231E1F",
"}2	c #2D2A2A",
"|2	c #242729",
"12	c #27282D",
"22	c #3B4044",
"32	c #22282C",
"42	c #20282E",
"52	c #21272D",
"62	c #232A32",
"72	c #212E34",
"82	c #1E2F34",
"92	c #222F36",
"02	c #23343C",
"a2	c #22323A",
"b2	c #1F2F37",
"c2	c #20323A",
"d2	c #1E2E34",
"e2	c #1D2F35",
"f2	c #1F3038",
"g2	c #22313A",
"h2	c #213138",
"i2	c #212F35",
"j2	c #1F2E33",
"k2	c #233036",
"l2	c #242B32",
"m2	c #22272D",
"n2	c #20252A",
"o2	c #252528",
"p2	c #29292C",
"q2	c #272A2B",
"r2	c #252326",
"s2	c #292E32",
"t2	c #373F41",
"u2	c #42484C",
"v2	c #2C3133",
"w2	c #1D2124",
"x2	c #292F31",
"y2	c #364246",
"z2	c #292F32",
"A2	c #2D2F32",
"B2	c #2C2E30",
"C2	c #323131",
"D2	c #333637",
"E2	c #333F42",
"F2	c #242428",
"G2	c #212629",
"H2	c #151718",
"I2	c #202124",
"J2	c #2A2C2E",
"K2	c #242629",
"L2	c #211D1E",
"M2	c #2D2727",
"N2	c #2F2929",
"O2	c #292B2E",
"P2	c #242529",
"Q2	c #535B60",
"R2	c #51595E",
"S2	c #525A5F",
"T2	c #545C62",
"U2	c #545E63",
"V2	c #566065",
"W2	c #545E64",
"X2	c #545F65",
"Y2	c #556066",
"Z2	c #556167",
"`2	c #546066",
" 3	c #535F65",
".3	c #536066",
"+3	c #535F66",
"@3	c #545F64",
"#3	c #555F64",
"$3	c #545D63",
"%3	c #545C61",
"&3	c #545B60",
"*3	c #4E5459",
"=3	c #2C3033",
"-3	c #2A2E32",
";3	c #28282B",
">3	c #272A2D",
",3	c #231F22",
"'3	c #212325",
")3	c #1C1E21",
"!3	c #292B2F",
"~3	c #353E42",
"{3	c #2B2D30",
"]3	c #2E3234",
"^3	c #121114",
"/3	c #18181A",
"(3	c #212125",
"_3	c #24272A",
":3	c #1D1D20",
"<3	c #1B1A1B",
"[3	c #252022",
"}3	c #262124",
"|3	c #19181B",
"13	c #232428",
"23	c #23252A",
"33	c #24272B",
"43	c #23282C",
"53	c #24282C",
"63	c #23262A",
"73	c #222428",
"83	c #24282B",
"93	c #1B1D20",
"03	c #262629",
"a3	c #262428",
"b3	c #232125",
"c3	c #1D1A1D",
"d3	c #212224",
"e3	c #1C1C20",
"f3	c #1C1C1F",
"g3	c #131215",
"h3	c #35393D",
"i3	c #383F44",
"j3	c #303234",
"k3	c #2D2F31",
"l3	c #2F3336",
"m3	c #413E3E",
"n3	c #5A5451",
"o3	c #312C29",
"p3	c #101012",
"q3	c #141315",
"r3	c #131216",
"s3	c #141316",
"t3	c #151416",
"u3	c #121113",
"v3	c #101013",
"w3	c #1A1A1D",
"x3	c #545153",
"y3	c #5C5759",
"z3	c #2F3235",
"A3	c #2B2E30",
"B3	c #2E3134",
"C3	c #2F3337",
"D3	c #313739",
"E3	c #4F4A48",
"F3	c #65544B",
"G3	c #141617",
"H3	c #212223",
"I3	c #2F3031",
"J3	c #393A3B",
"K3	c #3D3E3F",
"L3	c #414243",
"M3	c #3A3A3C",
"N3	c #494A4C",
"O3	c #514C4A",
"P3	c #494A4B",
"Q3	c #48484A",
"R3	c #484949",
"S3	c #494B4B",
"T3	c #4A4B4C",
"U3	c #4C4D4E",
"V3	c #4C4E4E",
"W3	c #4D4E4F",
"X3	c #4D4F4F",
"Y3	c #4E4F50",
"Z3	c #4E5050",
"`3	c #4D4F50",
" 4	c #4B4E4E",
".4	c #454647",
"+4	c #454646",
"@4	c #474848",
"#4	c #4B4B4C",
"$4	c #4F4F4F",
"%4	c #545352",
"&4	c #565554",
"*4	c #564D4A",
"=4	c #58524F",
"-4	c #343537",
";4	c #3A3B3C",
">4	c #37383A",
",4	c #141518",
"'4	c #413836",
")4	c #78645E",
"!4	c #343A3C",
"~4	c #313336",
"{4	c #2F3134",
"]4	c #473C38",
"^4	c #78645A",
"/4	c #453C38",
"(4	c #62564F",
"_4	c #8F776B",
":4	c #625B59",
"<4	c #5D5452",
"[4	c #67493E",
"}4	c #6C5045",
"|4	c #625753",
"14	c #675C58",
"24	c #645F5D",
"34	c #484340",
"44	c #595554",
"54	c #696462",
"64	c #776760",
"74	c #7B6861",
"84	c #7B685F",
"94	c #79665C",
"04	c #75665E",
"a4	c #7E6C65",
"b4	c #806C65",
"c4	c #7F6B63",
"d4	c #7E6D65",
"e4	c #837068",
"f4	c #827169",
"g4	c #7E706A",
"h4	c #7E726D",
"i4	c #837A75",
"j4	c #827B77",
"k4	c #827C78",
"l4	c #837D79",
"m4	c #847D7A",
"n4	c #847C78",
"o4	c #7F756F",
"p4	c #80756D",
"q4	c #84756E",
"r4	c #7F6C64",
"s4	c #806B64",
"t4	c #816E66",
"u4	c #816C64",
"v4	c #7B665D",
"w4	c #7D675E",
"x4	c #786A65",
"y4	c #6D6A68",
"z4	c #585756",
"A4	c #646160",
"B4	c #606061",
"C4	c #5F5F61",
"D4	c #615958",
"E4	c #6D5248",
"F4	c #6A4C41",
"G4	c #5C5451",
"H4	c #545556",
"I4	c #827572",
"J4	c #8F7367",
"K4	c #3F3F3E",
"L4	c #2A3132",
"M4	c #705B51",
"N4	c #64534C",
"O4	c #534440",
"P4	c #3E4141",
"Q4	c #5C4D47",
"R4	c #2B2F30",
"S4	c #4D403C",
"T4	c #4D4845",
"U4	c #5E5350",
"V4	c #3A4447",
"W4	c #5D443B",
"X4	c #514340",
"Y4	c #3E4246",
"Z4	c #384145",
"`4	c #434344",
" 5	c #696A6A",
".5	c #3F4244",
"+5	c #4E4341",
"@5	c #4E4443",
"#5	c #554540",
"$5	c #514947",
"%5	c #765447",
"&5	c #905A46",
"*5	c #7E5748",
"=5	c #6F5A54",
"-5	c #795950",
";5	c #6A5954",
">5	c #575658",
",5	c #525A5E",
"'5	c #646F74",
")5	c #646F73",
"!5	c #667176",
"~5	c #677378",
"{5	c #616A6D",
"]5	c #59585A",
"^5	c #6F5750",
"/5	c #815D53",
"(5	c #8C5B48",
"_5	c #8A5440",
":5	c #664D45",
"<5	c #5E4E4B",
"[5	c #4F4341",
"}5	c #554440",
"|5	c #444243",
"15	c #485052",
"25	c #55595B",
"35	c #4D4D4E",
"45	c #444A4D",
"55	c #384347",
"65	c #3A4649",
"75	c #444949",
"85	c #5C443C",
"95	c #4B423F",
"05	c #3D4345",
"a5	c #675955",
"b5	c #464544",
"c5	c #3B3A39",
"d5	c #3B3533",
"e5	c #544B48",
"f5	c #4E4746",
"g5	c #302C2D",
"h5	c #242426",
"i5	c #303336",
"j5	c #302929",
"k5	c #38302F",
"l5	c #353333",
"m5	c #5B4B44",
"n5	c #554B49",
"o5	c #3C4246",
"p5	c #393F44",
"q5	c #363F44",
"r5	c #333D41",
"s5	c #474F52",
"t5	c #363D42",
"u5	c #353B3F",
"v5	c #34393E",
"w5	c #35393C",
"x5	c #353C40",
"y5	c #363C40",
"z5	c #443C3B",
"A5	c #62463D",
"B5	c #524C4A",
"C5	c #3E5159",
"D5	c #3E515A",
"E5	c #3F525C",
"F5	c #3E5058",
"G5	c #3D4C54",
"H5	c #3F4F58",
"I5	c #40565F",
"J5	c #425057",
"K5	c #454A4F",
"L5	c #41494E",
"M5	c #684A41",
"N5	c #684337",
"O5	c #453F3E",
"P5	c #3C3C3F",
"Q5	c #373C41",
"R5	c #353A3E",
"S5	c #353D40",
"T5	c #353B3E",
"U5	c #464A4C",
"V5	c #374347",
"W5	c #3B4347",
"X5	c #3D4245",
"Y5	c #634D45",
"Z5	c #3C3C3C",
"`5	c #363434",
" 6	c #2A2A2B",
".6	c #262627",
"+6	c #222224",
"@6	c #1E1D1F",
"#6	c #211D1F",
"$6	c #262021",
"%6	c #3A2927",
"&6	c #352A29",
"*6	c #372E2C",
"=6	c #393432",
"-6	c #584139",
";6	c #422E2A",
">6	c #412F2A",
",6	c #402F2B",
"'6	c #332E2F",
")6	c #30363A",
"!6	c #33383C",
"~6	c #32373B",
"{6	c #31373B",
"]6	c #35373A",
"^6	c #34373A",
"/6	c #42322E",
"(6	c #423431",
"_6	c #573F37",
":6	c #584541",
"<6	c #3D4B51",
"[6	c #3D4D56",
"}6	c #3D4E57",
"|6	c #3D4F57",
"16	c #3C4B53",
"26	c #3B4A52",
"36	c #3B4951",
"46	c #3D4B53",
"56	c #3E525B",
"66	c #3C4D55",
"76	c #3C4A52",
"86	c #3C4950",
"96	c #423F3F",
"06	c #513730",
"a6	c #49332E",
"b6	c #3F3534",
"c6	c #333A3F",
"d6	c #31393D",
"e6	c #31363A",
"f6	c #36302F",
"g6	c #46332D",
"h6	c #45322C",
"i6	c #48332D",
"j6	c #5B4037",
"k6	c #3A3736",
"l6	c #352F2E",
"m6	c #3A2E2B",
"n6	c #312827",
"o6	c #242021",
"p6	c #211E1F",
"q6	c #1C1D1E",
"r6	c #222123",
"s6	c #232124",
"t6	c #2C2121",
"u6	c #2F2120",
"v6	c #2C2120",
"w6	c #2E2423",
"x6	c #382F2D",
"y6	c #523E36",
"z6	c #453834",
"A6	c #2A2C2F",
"B6	c #352A27",
"C6	c #2E2828",
"D6	c #2D2829",
"E6	c #332523",
"F6	c #342623",
"G6	c #383130",
"H6	c #31383B",
"I6	c #334247",
"J6	c #324046",
"K6	c #313D43",
"L6	c #313C41",
"M6	c #313D42",
"N6	c #34444A",
"O6	c #313C42",
"P6	c #303940",
"Q6	c #303A3F",
"R6	c #362A28",
"S6	c #382724",
"T6	c #312423",
"U6	c #332927",
"V6	c #2C2C2E",
"W6	c #2B2E31",
"X6	c #292D30",
"Y6	c #262A2C",
"Z6	c #242627",
"`6	c #413633",
" 7	c #503B34",
".7	c #4F3B35",
"+7	c #433632",
"@7	c #2D2827",
"#7	c #2B2222",
"$7	c #2F2322",
"%7	c #2F2321",
"&7	c #252325",
"*7	c #232325",
"  . + @ # $ % & * = - ; > , ' ) ! ~ { ] ^ / ( _ : < [ } | 1 2 3 4 5 6 7 8 9 0 a b c d e f g h i j k l m n o p q r s t u v w x y ",
"z A B C D E F G H I J K L M N O P Q R S T U V W X Y Z ` `  ...+.@.#.$.%.&.*.=.-.;.>.,.'.).!.~.{.].^./.(._.:.<.F [.}.|.1.2.3.4.5.",
"6.7.8.t 9.0.a.b.c.d.e.f.g.h.i.j.k.l.m.n.o.p.q.r.s.t.u.v.w.x.y.z.A.B.C.D.E.F.G.H.I.J.K.L.M.N.O.P.Q.R.S.T.U.U.e.V.W.X.|.Y.Z.`. +.+",
"++@+#+$+%+&+*+=+-+;+;+>+>+,+-+'+'+)+!+~+{+{+{+{+{+~+~+~+]+]+^+/+/+^+^+~+~+~+(+_+{+_+_+_+:+<+[+<+_+}+'+|+,+'+}+}+1+2+3+4+5+6+7+8+",
"9+0+a+b+c+d+}+'+[+e+f+e+g+h+e+i+i+i+j+j+j+k+k+l+l+j+1+k+k+l+m+l+k+1+k+n+n+1+1+1+1+1+o+i+1+1+j+o+[+h+p+f+q+e+r+h+s+t+u+v+w+x+y+z+",
"A+B+c+C+D+E+>+p+F+G+H+I+I+I+!+J+K+L+M+N+O+P+Q+R+S+T+U+V+W+W+X+Y+X+W+V+Z+`+ @.@+@@@#@$@%@&@:+*@=@-@;@E+I+>@,@'@F+)@}+E+!@~@{@]@^@",
"/@(@_@:@;+>+<@[@}@|@j.1@2@3@4@5@6@R.7@8@9@0@a@b@c@d@d@e@e@f@g@h@i@j@k@l@m@n@o@p@q@r@s@t@b.u@v@w@x@y@z@A@B@C@D@l+E@F@t+E+G@H@I@J@",
"v+K@L@M@;+N@O@P@Q@R@S@T@U@k.V@W@X@Y@Z@`@ #.#+#@###$#%#&#*#=#-#;#>#,#'#)#!#~#{#]#^#/#(#_#:#<#[#}#|#1#2#3#j.4#5#N@6#7#E@8#9#0#a#E ",
"b#c#d#M@8#2+e#f#1+g#h#i#j#k#l#m#n#o#p#q#r#s#t#u#v#w#x#y#z#A#B#C#D#E#F#G#H#I#J#K#L#M#N#O#P#Q#R#S#T#E@U#j#j#V#W#X#Y#Z#`#;+i# $.$+$",
"@$#$$$%$>+[@Z#&$*$=$F@k#-$;$>$,$c#F '$)$!$g#~${$]$^$/$($_$:$<$[$}$|$1$2$3$4$5$6$7$8$9$0$a$b$c$d$e$f$g$;$=$h$V@i$f#j$k$;+l$m$n$o$",
"p$#$q$r$>+s$t$u$*$P+v$w$`#x$y$z$A$B$C$D$E$F$G$H$I$J$K$L$M$N$O$P$Q$R$S$T$U$V$W$X$Y$F$Z$`$V#}. %.% ++%@%#%s$$%$%%%&%*%=%;+-%;%#$o$",
">%I J ,%-+'%)%!%}@~%{%]%^%/%(%_%:%<%U+[%}%|%1%2%3%4%5%6%7%8%9%0%a%b%c%d%e%f%W$g%h%i%j%k%l%m%n%o%p%q%r%s%v$t%U#6#u%v%w%-+x%y%z%A%",
"i.B@B%C%D%E%F%G%(+H%I%J%K%L%M%N%.%O%P%Q%E$R%S%2%T%U%V%W%X%Y%Z%`% &.&+&@&#&$&W$%&&&#@j%*&=&-&;&>&,&'&)&!&~&V@x${&]&^&/&(&_&:&<&A%",
"[&}&|&1&2&3&4&5&6&7&8&9&0&a&b&<%c&d&e&f&g&h&~$i&j&k&l&m&n&o&p&q&r&s&t&u&v&w&x&y&z&A&B&C&D&E&F&G&H&I&J&K&L&M&N&O&P&Q&R&S&T&U&$$V&",
"W&X&Y&Z&`& *.*+*@*#*$*%*&***=*-*;*>*,*'*)*!*~*{*]*^*/*(*_*:*<*[*}*|*1*2*3*4*5*6*7*7*8*9*0*a*b*c*d*d*e*2.f*g*h*i*j*k*l*m*n*o*p*.%",
"q*r*d*s*t*u*v*w*x*y*z*A*B*C*D*L E*y.F*3#G*H*I*J*K*L*M*N*O*P*Q*P*R*S*N*T*U*V*W*X*Y*Z*`* =.=+=@=#=$=%=`.&=*===-=;=>=,='=)=!=~=> {=",
"]=^=/=(=_=:=<=[=}=|=1=2=3=4=M 5=K 6=7=8=9=0=a=b=b=e&c=d=e=f=g=Y+h=i=d=g=j=k=l=m=n=d.9=o=p=q=r=s=t=$=u=v=w=x=y=z=A=B=C=D=n*E=O E*",
"F=G&G=H=I=J=K=L=M=N=O=a&P=Q=s=R=<%S=T=U=V=W=X=Y=Z=`= -.-+-@-#-$-%-&-*-=-D.--z.;->-a*,-'-)-!-~-s=R=d*{-]-^-/-(-_-:-<-[-}-|-1-2-%=",
"3-r*,-4-I=5-6-[=7-8-9-0-a-b-c-d-d*e-f-g-h-i-j-g-B.k-l-m-n-o-p-q-r-s-t-u-v-w-x-y-z-A-B-C-D-E-F-G-H-I-J-K-L-M-N-O-P-Q-R-S-T-U-V-W-",
"X-Y-Z-`- ;5-6-[=7-.;+;@;#;$;%;&;d**;=;-;;;>;,;';);!;~;{;];^;/;(;_;/;:;<;[;);};|;1;2;3;4;2-5;6;r*7;8;9;0;a;b;c;d;e;Q-f;g;h;i;j;O ",
"k;l;m;n;o;J=6-p;q;r;s;t;/.u;v;w;x;y;z;A;B;'$C;D;E;F;G;H;I;J;K;L;M;N;O;P;Q;R;S;T;U;V;W;X;Y;Z;F-^=`; >.>+>@>#>$>%>e;&>*>=>->;>>>,>",
"B@'>)>!>~>:={>]>^>/>(>d&X=+=_>:><>[>v%}>|>1>2>3>4>5>6>7>8>9>0>a>b>c>d>e>f>g>h>i>j>V;w%k>l>m>F-^=n>o>p>q>r>s>t>u>e;v>*>w>x>y>z>A>",
"}&`=B>C>o;J={>D>E>F>G>Y=H>y;I>J>,-K>L>M>N>O>P>Q>R>S>T>U>V>W>X>Y>Z>`> ,.,+,@,#,$,Y.%,&,0=*,=,F--,;,>,,,',),!,~,{,],^,*>/,(,_,:,<,",
"[,},|,1,I=2,{>3,4,5,6,7,i-`=B.z.&;8,9,0,a,b,c,d,e,f,g,h,i,j,k,l,m,n,o,p,q,r,s,t,u,v,w,x,y,z,A,B,C,D,E,F,G,H,I,{,J,Q-K,g;L,M,N,O,",
"P,)>|,Q,R,J=S,T,U,V,W,X,g-Y,k-Z,`, '.'+'@'#'$'%'&'*'='-';'>',''')'!'~'{']'r,^'/'('_':'<'['}'|'1'2'3'4'5'6'7'8'9'J,Q-*>g;0'a'b'c'",
" =z-d'e'o;:=S,f'U,g'h'i'j'k-D.k'w;l'm'n'o'p'q'r's't'u'v'w'x'y'z'A'B'C'D'E'F'G'H'I'J'K'L'M'N'O'P'Q'R'S'T'U'V'8'u>W'Q-*>X'Y'Z'`' )",
".)+)@)#)~>$)S,%)&)*)=)-);)>),)')v;))!)~){)])^)/)()_):)<)[)x'})|)1)2)3)4)5)6)7)8)@'@'9)h=0)a)b).'c)d)e)f)g)h)i)j)W'k)l)g;Y'm)n)o)",
"p)q)r)s)t)u)S,v)w)*)x)y)z)A-,)E.w;A)!)B)C)D)E)F)G)H)I)J)K)L)M)N)O)P)Q)R)S)T)U)V)W)X)Y)G%Z)`) !.!+!@!#!$!%!&!*!{,=!k)l)-!;!>!,!'!",
")!!!~!{!]!$)^!/!&)(!_!:!<!A-,)E.%;A)[!}!|!1!2!3!4!5!6!7!8!9!0!a!b!c!d!e!f!S)g!h!i!j!k!l!m!n!j$o!p!q!r!s!t!u!*!v!w!<-x!/,y!z!A!B!",
"9=V-C!D!o;$)E!F!G!H!I!J!K!x.L!E.H>M!c&N!O!P!Q!R!S!T!U!V!W!X!Y!Z!`! ~.~+~@~T)#~$~%~&~('*~=~-~;~>~,~'~)~U'!~~~{~v!w!]~*>-!^~/~z,(~",
"_~:~<~[~o;u)}~|~1~2~3~4~5~6~7~8~U=M!9~2>0~a~b~c~d~e~f~g~h~i~j~k~l~m~n~o~p~q~r~s~t~&~u~v~))w~l%x~y~z~A~B~C~D~E~F~G~H~*>g;I~J~Z;i-",
"K~L~=,M~o;u*}~|~N~O~P~Q~R~S~)>--i'M!T~U~V~W~X~Y~Z~`~ {.{+{@{#{${%{&{*{={-{;{>{,{W!&~k!'{){!{~{{{]{^{/{({_{:{*!<{[{]~*>-!}{|{*;1{",
"2{m$3{4{_=$)E!|~5{6{7{8{9{0{a{b{c{d{e{f{g{h{g>i{j{j{k{l{m{{){){)n{o{p{q{r{s{t{u{v{&~w{x{y{z{A{B{).C{D{E{F{G{H{<{I{k)*>J{K{[;L{M{",
"N{O{P{Q{o;u)}~R{S{T{U{V{W{t>X{Y{V=Z{m'k!k!`{ ] ].]+]+]@]@]#]#]$]$]%]&]*]=]-];]>],]'])]!],!~]{]]]^]/](]_]:] #<]<{[]<-K,}]|]1]2]U=",
"3]4]h 5]6]u)S,7]8]9]0]a]<>b]c]<!d*Z{m'd]e]f]f]g]h]k!i]j]k]#]l]#]m]n]t~o]p]q]r]s]t~t]u]v]w]x]y]z]A]B]C]D]_{E]F]G]H]<-*>-!I]J]o)K]",
"L]M]N]O] ;P]^!|~Q]R]S]T]h (~U]'!+)V]P'W]X]Y]Z]i]`]i] ^.^+^$]@^#^$^%]&]f>%^&^*^t~=^-^;^>^y{,^'^z])^!^~^{^]^^^F]/^(^<-_^:^<^[^}^|^",
"1^B-2^3^4^5^^!|~6^7^8^9^0^+!a^b^Y&c^z%d^Y)e^f^g^h^h^i^#^j^k^{)l^#^X~m^n^o^p^q^r^s^t^u^v^,!w^x^a,y^z^A^B^C^D^i)E^F^k)_^G^H^I^J^K^",
"o%L^M^N^O^5^^!P^Q^R^S^+);*K]T^U^X&V^e{W^X^Y^d]Z^)]~)`^ /$]./+/@/#/o{$/%/&/*/q{*]*]=/-/;/>/,/<''/H{)/!/~/{/]/^///F^<-_^-!K{(/_/:/",
"</k-[/}/|/J=E!R{1/r;2/H&Y&E*3/4/5/V^6/7/8/9/0/a/b/c/d/e/f/g/h/i/j/k/l/m/n/o/p/q/r/s/t/u/v/w/x^x/y/z/A/B/C/D/E/F/(^<-G/H/I/8;J/}.",
"K/L/M/N/o;5-}~O/1/P/Q/R/Y&+)s=S/T/U/8=V/W/X/Y/Z/Z/`/ (.(+(@(#($(%(&(`/*(=(-(;(>(,('()(!(~({({]O#](^(/(((_(:(<([(}(<-G/=>|(1(2($$",
"F&%;}^3(4(J=5(O/U,6(7(8(9(E*0(H&a(b(]=c(d(P!>]e(f(g(h(i(j(k(l(l(m(n(o(p(q(r(s(t(u(v(w(x(y(z(~{A(B(C(D(E(F(G(H(I(J(k)5$K(L(M(N(O(",
"P(Q(y;R(o;J={>%)S(8-T(U(V(W(<%X(A@X,Y(Z(`( _._j!e!+_@_#_$_%_%'%_%'&_*_=_-_;_>_,_'_)_!_~_{_h-]_^_/_(___:_<_[_}_|_J(B=_^1_2_3_4_5_",
";&6_j-7_8_J=}~%)1/9_0_a_b_c_d_e_f_g_Y(h_i_j_k_l_m_n_o_p_e/q_%'r_s_t_p_u_v_w_x_y_z_A_A_B_C_D_E_F_*,G_H_I_J_K_L_M_F^H~N_O_P_Q_R_S_",
"T_U_K]V_t*:=}~W_1/X_Y_Z_`_ :.:+:@:#:$:%:&:*:=:-:;:._>:,:':):!:~:{:]:^:/:(:_:::<:[:}:|:1:2:3:4:5:6:7:8:9:0:a:b:c:d:e:_^}]f:g:a#h:",
"i:Y&%=j:o;P]S,W_k:l:m:n:o:p:q:r:s:t:j$u:v:w:x:y:z:A:B:C:D:E:F:G:H:I:J:K:L:M:N:O:P:Q:R:X+S:T:w,x/U:V:W:X:Y:Z:`: <.<H~*>O_+<@<D$#<",
"$<%<<.&< ;2,S,[=*<=<-<;<><,<'<)<A;!<~<{<]<^</<a/(<_<:<<<[<}<|<1<2<d(3<j/4<5<6<7<8<9<0<a<b<c<d<e<f<g<h<i<j<k<l<m<.<n<_^o<p<q<r<s<",
"t<:#u<v<R,2,S,[=w<=<x<y<z<A<B<C<M>D<j$E<F<G<H<I<A_z:J<K<L<x_M<N<O<P<Q<R<S<T<U<V<W<X<Y<Z<`<-& [.[^_+[@[#[$[%[&[*[=[-[;[1_>[,['[X-",
")[![~[{[4(5-S,][^[=</[K@([_[:[<[t$v%~<[[}[|[1[2[2[y:3[4[5[6[7[o^8[9[0[.~a[b[c[d[e[f[g[h[i[j[k[l[m[n[o[p[q[r[s[t[u[v[;[}]w[x[y[}>",
"p)z[A[B[C[D[5(E[F[G[H[I[J[K[L[M[U@N[M>O[P[Q[R[S[T[(<U[V[W[X[%(Y[Z[`[ }.}+}@}#}$}%}&}*}=}-}.'U;;}n.>},}'})}!}~}{}]}^}_^/}(}_}:}<}",
"$<[}}}|}1}2}3}4}5}6}7}8}9}0}a}_~a=b}c}d}e}f}g}h}}:i}j}k}l}m}n}o}p}q}T<r}s}t}u}v}w}x}y}z}1{A}V..=B}C}D}E}F}G}H}I}J}K}L}M}N}O}P}Q}",
"R}S}T}U}V}W}X}Y}Z}`} |0}.|M.m[+|@|#|$|%|&|*|=|]<-|;|>|,|'|)|7[!|~|{|]|^|/|(|_|:|<|[|}|||1|2|V.3|k$4|5|6|7|8|9|V}0|a|b|c|d|e|<,f|",
"g|h|j[i|j|k|l|m|n|o|p|q|r|s|t|u|v|w|x|y|V[z|A|B|C|D|E|u}F|G|H|I|J|K|L|M|N|O|P|Q|R|S|T|U|V|0*k%W|`$X|Y|Z|`|Y| 1.1+1@1#1$1%1&1 =*1",
"=1-1F ;1-+s$>1,1l#'1)1!1~1{1]1^1D@/1(1_1:1<1[1}1|1112131415161718191Q!01a1b1c1d1e1f1g1h1i1j1v|k1W|l1m17#n1x|o1p1q1r1s1t1u1v1C@h#",
"w1x1C@y1'+w$Z@z1q+A1B1C1D1E1F1G1D@l%(1x,H1I1J1K1d^L1M1N1O1P1Q1R1S1T1U1V1W1X1Y1Z1`1 2.22#+2W|@2#2$2%2&2*2=2h|-24@;2>2`$;+,2'2)2h#",
"Z.!2~2{2]2^2/2(2}@_2:2<2r [2@%}2|212224_3242526272829202a2b2c2d2e2f2g2h2h2i2j2k2l2m2n2I&$|(1o2y p2q2r2s2t2u2v2i$w23#p#8#x2y2z2A2",
"B2C2D2E2,+L+F2G2H2I2J2K2s$L2M2N2|%O2P2,~Q2R2S2T2U2V2W2X2Y2Z2`2 3.3+3 3 3@3#3$3%3Q2&3*3=3K2-3e#;3>3@2,3P+v$!2'3p+)3!37#>+z2~3d$J2",
"{3]3a$~3^3/3(3_3'+<@:3g#'3<3[3}3|3D@D@s$]%1313P+u@'%233333.@4353 @ @5353536363P273]%]%P283939$03a3b3c3k#d3e3)@t1|%W#f3g3h3i3j3k3",
"O2l3V#m3n3o3h+9$p#o+p3>@|+,+g3q3,+>+}+g3-+g3}+)+)+r3s3)+)+)+)+)+)+)+!+)+)+r3-+-+-+-+^3-+,+>+:+o+o+t3u3'+8#v3)+P+'3w3_+x3y3r z3B2",
"A3B3C3D3E3F3G3X#H3I3J3K3L3M3N3A[O3P3Q3![R3t>S3T3o>U3V3W3X3Y3Y3Y3Y3Z3`35~Y3Y3X3 4P3![.4+4@4#4$4%4&4*4=4-4;4J3>4'3X#,4'4)4!4~4{4A3",
"!2]4^4/4+$(4_4:4<4[4}4|414243444546474849404a4b4c4d4e4f4g4h4i4j4k4l4m4n4o4p4q4f4r4s4t4u4v4w4x4y4z4A4B4C4D4E4F4G4H4I4J4K4L4M4N4X@",
"@2O4P4Q4R4S4T4U4V4W4X4Y4Z4_#`4 5.5+5@5#5A $5%5&5*5=5-5;5>5,5'5)5'5!5~5~5{5]5^5/5(5_5:5<5[5}5|515253545556575859505a5b5c5d5e5f5g5",
"h5g|}.i5j5k5l5m5n5o5p5q5r5h|s5t5u5v5w5x5y5z5e-A5B5L{C5D5E5m>F5G5H5E5I5I5L!J5K5L5M5N5O5P5Q5R5~[S5T5U5w5q5V555W5X5Y5Z54+`5 6h3-1.6",
"+6@6#6$6%6&6*6=6-6;6>6,6'6d_)6!6~6{6~}]6^6/6(6_6:6<6[6}6|616263646D5<~56667686T:9606a6b6c6d6{6[.~[e6 =f6g6h6i6j6k60.l6m6n6o6p6O@",
"q6r6s6t6u6v6w6N2x6H.H.y6z6_2O2A6#2#2B6C6D6E6F6N{G6H6~-1^I6J6K6L6M6J6N6v.O6P6Q6p)R6S6T6U6V6W6Z@g|X6Y6Z6`6H. 7.7+7}2@7#7$7%7&7*7E@"};
