/* XPM */
static char * face_finale_xpm[] = {
"64 64 1554 2",
"  	c None",
". 	c #3EC5C3",
"+ 	c #3DC7C2",
"@ 	c #3DC8C1",
"# 	c #3BC8C1",
"$ 	c #39CAC1",
"% 	c #5DA09B",
"& 	c #2E9C95",
"* 	c #2B9892",
"= 	c #2A9992",
"- 	c #2A9993",
"; 	c #2B9891",
"> 	c #2C9791",
", 	c #309690",
"' 	c #47A099",
") 	c #5D9691",
"! 	c #57615E",
"~ 	c #455C5A",
"{ 	c #496A66",
"] 	c #427672",
"^ 	c #319791",
"/ 	c #27A8A1",
"( 	c #26A69F",
"_ 	c #26A5A0",
": 	c #29A5A0",
"< 	c #378985",
"[ 	c #476D6B",
"} 	c #496464",
"| 	c #4E5758",
"1 	c #4A4E4B",
"2 	c #454A45",
"3 	c #464F4A",
"4 	c #3F5E5C",
"5 	c #33807B",
"6 	c #289594",
"7 	c #259D9C",
"8 	c #239B9A",
"9 	c #239A99",
"0 	c #219B99",
"a 	c #299592",
"b 	c #397E7B",
"c 	c #425F5E",
"d 	c #454A4A",
"e 	c #424445",
"f 	c #404040",
"g 	c #3C3C3A",
"h 	c #3E413E",
"i 	c #3A5B56",
"j 	c #296D66",
"k 	c #19746E",
"l 	c #165A58",
"m 	c #1C1B1C",
"n 	c #212323",
"o 	c #202224",
"p 	c #212224",
"q 	c #211F20",
"r 	c #1A2629",
"s 	c #196564",
"t 	c #226C6C",
"u 	c #326767",
"v 	c #3D4A4C",
"w 	c #3A383A",
"x 	c #444242",
"y 	c #3B4746",
"z 	c #276F68",
"A 	c #197069",
"B 	c #163837",
"C 	c #1C2322",
"D 	c #262C2B",
"E 	c #1F4C47",
"F 	c #1B6F68",
"G 	c #19786F",
"H 	c #18776F",
"I 	c #205D59",
"J 	c #263B3C",
"K 	c #202324",
"L 	c #172024",
"M 	c #154B4E",
"N 	c #1D6F70",
"O 	c #2B5D5E",
"P 	c #37383A",
"Q 	c #394648",
"R 	c #2A6767",
"S 	c #0A8C89",
"T 	c #172829",
"U 	c #1B1F23",
"V 	c #19938A",
"W 	c #1A8982",
"X 	c #13A7A2",
"Y 	c #0DECDC",
"Z 	c #09F6E4",
"` 	c #08F6E5",
" .	c #0DE2D2",
"..	c #217774",
"+.	c #1A9D9A",
"@.	c #1A7576",
"#.	c #1E1F22",
"$.	c #145C5E",
"%.	c #187D7D",
"&.	c #2E474B",
"*.	c #303439",
"=.	c #666565",
"-.	c #385A59",
";.	c #0B958E",
">.	c #135252",
",.	c #1C2224",
"'.	c #23282B",
").	c #1E9A92",
"!.	c #199C95",
"~.	c #187A79",
"{.	c #15A098",
"].	c #0DC2B7",
"^.	c #11C1B5",
"/.	c #1D8D87",
"(.	c #1A9590",
"_.	c #24AAA5",
":.	c #237E7B",
"<.	c #262629",
"[.	c #183B3F",
"}.	c #16686A",
"|.	c #237777",
"1.	c #35383D",
"2.	c #315050",
"3.	c #23726E",
"4.	c #1B5F5B",
"5.	c #14191C",
"6.	c #201E20",
"7.	c #1B1C1E",
"8.	c #272D32",
"9.	c #2F3636",
"0.	c #2A3433",
"a.	c #1C4443",
"b.	c #117F7C",
"c.	c #167373",
"d.	c #2B3030",
"e.	c #2F3B3A",
"f.	c #2C3B3A",
"g.	c #232C2D",
"h.	c #232123",
"i.	c #1C1C1D",
"j.	c #123D40",
"k.	c #196163",
"l.	c #256F6E",
"m.	c #4B4F53",
"n.	c #296061",
"o.	c #1A706B",
"p.	c #1B4243",
"q.	c #111416",
"r.	c #101215",
"s.	c #181719",
"t.	c #2E2828",
"u.	c #2C2726",
"v.	c #2D2A2A",
"w.	c #2D2D2E",
"x.	c #222525",
"y.	c #59524F",
"z.	c #403C3A",
"A.	c #302E2F",
"B.	c #2A2A2A",
"C.	c #242223",
"D.	c #322C2C",
"E.	c #252122",
"F.	c #111415",
"G.	c #0F1314",
"H.	c #152C2F",
"I.	c #1B575A",
"J.	c #1E7A7B",
"K.	c #3A5558",
"L.	c #357979",
"M.	c #2D7774",
"N.	c #1B3434",
"O.	c #121416",
"P.	c #0F1012",
"Q.	c #0F1113",
"R.	c #101114",
"S.	c #121316",
"T.	c #1A191B",
"U.	c #2A2525",
"V.	c #272323",
"W.	c #282727",
"X.	c #423E3D",
"Y.	c #373432",
"Z.	c #282525",
"`.	c #252221",
" +	c #1F1C1C",
".+	c #151416",
"++	c #0E1214",
"@+	c #0F1215",
"#+	c #0F1214",
"$+	c #101416",
"%+	c #182023",
"&+	c #254F52",
"*+	c #228185",
"=+	c #3B5155",
"-+	c #92563C",
";+	c #77432E",
">+	c #272426",
",+	c #1B1C20",
"'+	c #141618",
")+	c #111214",
"!+	c #17171A",
"~+	c #111315",
"{+	c #181A1C",
"]+	c #18191A",
"^+	c #17191B",
"/+	c #1A1D1E",
"(+	c #1A1D1D",
"_+	c #151718",
":+	c #171819",
"<+	c #161818",
"[+	c #0E1012",
"}+	c #141619",
"|+	c #131518",
"1+	c #17191C",
"2+	c #6B3C25",
"3+	c #904D2A",
"4+	c #8C5D49",
"5+	c #62B5B5",
"6+	c #5DA9A5",
"7+	c #71989B",
"8+	c #4E676C",
"9+	c #815341",
"0+	c #6C3C2A",
"a+	c #362623",
"b+	c #1A1C1D",
"c+	c #191B1D",
"d+	c #151719",
"e+	c #161A1A",
"f+	c #181B1C",
"g+	c #181C1D",
"h+	c #141718",
"i+	c #131517",
"j+	c #16181A",
"k+	c #121417",
"l+	c #1B1D20",
"m+	c #1E1E22",
"n+	c #714027",
"o+	c #8F4F29",
"p+	c #50433B",
"q+	c #5F7875",
"r+	c #459494",
"s+	c #5AAEAD",
"t+	c #31A5AB",
"u+	c #3D9FA1",
"v+	c #318788",
"w+	c #3B6061",
"x+	c #386564",
"y+	c #425756",
"z+	c #414C4E",
"A+	c #38383B",
"B+	c #41312E",
"C+	c #83492B",
"D+	c #6C3C27",
"E+	c #362A28",
"F+	c #17181B",
"G+	c #1E1F21",
"H+	c #141617",
"I+	c #191A1B",
"J+	c #1B1E1E",
"K+	c #1D1F20",
"L+	c #1D2021",
"M+	c #191C1E",
"N+	c #1D1F22",
"O+	c #1C1E22",
"P+	c #201C1D",
"Q+	c #703C28",
"R+	c #8B4928",
"S+	c #593528",
"T+	c #332E2D",
"U+	c #363A3A",
"V+	c #345253",
"W+	c #375A5D",
"X+	c #386A67",
"Y+	c #2F8D8C",
"Z+	c #3BA0A0",
"`+	c #62BFBF",
" @	c #42B0B1",
".@	c #427B7B",
"+@	c #396E6E",
"@@	c #366C6C",
"#@	c #3F5050",
"$@	c #2B6767",
"%@	c #255A56",
"&@	c #293737",
"*@	c #394042",
"=@	c #3C3E40",
"-@	c #353333",
";@	c #362722",
">@	c #6D3E2C",
",@	c #4A322C",
"'@	c #202427",
")@	c #2D3031",
"!@	c #2F3232",
"~@	c #282C2D",
"{@	c #2A2D2F",
"]@	c #2C2F30",
"^@	c #292C2E",
"/@	c #242628",
"(@	c #303133",
"_@	c #303233",
":@	c #272A2C",
"<@	c #282121",
"[@	c #784028",
"}@	c #3A2D29",
"|@	c #312D2D",
"1@	c #383A39",
"2@	c #383E3D",
"3@	c #2A3A3C",
"4@	c #2B6260",
"5@	c #2F7270",
"6@	c #3E5A58",
"7@	c #3B716D",
"8@	c #3C6B6B",
"9@	c #307F7D",
"0@	c #51AAAE",
"a@	c #3A9F9F",
"b@	c #23A9A9",
"c@	c #426262",
"d@	c #386569",
"e@	c #424141",
"f@	c #3D4648",
"g@	c #455353",
"h@	c #4E3D37",
"i@	c #2E7069",
"j@	c #1C4440",
"k@	c #353939",
"l@	c #434343",
"m@	c #49413E",
"n@	c #A0542B",
"o@	c #B86334",
"p@	c #834B32",
"q@	c #414240",
"r@	c #485254",
"s@	c #2D3234",
"t@	c #202124",
"u@	c #282B2C",
"v@	c #2B2E30",
"w@	c #2B2D2F",
"x@	c #2E2F31",
"y@	c #2D2E30",
"z@	c #252528",
"A@	c #1E1F23",
"B@	c #424243",
"C@	c #3E4041",
"D@	c #463C39",
"E@	c #B66032",
"F@	c #AE6037",
"G@	c #764630",
"H@	c #444642",
"I@	c #3D4240",
"J@	c #1E373B",
"K@	c #3E6F71",
"L@	c #4A3C35",
"M@	c #434E4E",
"N@	c #3E4241",
"O@	c #404141",
"P@	c #376564",
"Q@	c #367675",
"R@	c #2CACAE",
"S@	c #43AAAF",
"T@	c #3A6769",
"U@	c #316465",
"V@	c #3F4648",
"W@	c #3F3F40",
"X@	c #3B3B3C",
"Y@	c #3A3A3B",
"Z@	c #4D3C37",
"`@	c #4F3932",
" #	c #3B5C57",
".#	c #1B3635",
"+#	c #333535",
"@#	c #4B4641",
"##	c #744636",
"$#	c #8D4C2E",
"%#	c #BE6337",
"&#	c #854A32",
"*#	c #3B3C3C",
"=#	c #435357",
"-#	c #394847",
";#	c #5E665F",
">#	c #467877",
",#	c #3B9A9E",
"'#	c #738486",
")#	c #6B8685",
"!#	c #20999B",
"~#	c #437173",
"{#	c #3F5457",
"]#	c #494F52",
"^#	c #463B37",
"/#	c #C4632F",
"(#	c #AB582B",
"_#	c #8B482A",
":#	c #5E4942",
"<#	c #3D4643",
"[#	c #202D32",
"}#	c #3C5C62",
"|#	c #49342C",
"1#	c #4A3A34",
"2#	c #393C3F",
"3#	c #3D3E3F",
"4#	c #404042",
"5#	c #3B6460",
"6#	c #2F6C6B",
"7#	c #427B7D",
"8#	c #454849",
"9#	c #363639",
"0#	c #363638",
"a#	c #353537",
"b#	c #343436",
"c#	c #323334",
"d#	c #343637",
"e#	c #1C2122",
"f#	c #161B1F",
"g#	c #244846",
"h#	c #325F5C",
"i#	c #655042",
"j#	c #915236",
"k#	c #BC6135",
"l#	c #7E432B",
"m#	c #2A2B2B",
"n#	c #262D31",
"o#	c #46635F",
"p#	c #4C6A66",
"q#	c #397271",
"r#	c #59A69D",
"s#	c #B55F41",
"t#	c #AA614D",
"u#	c #1DA5A7",
"v#	c #415056",
"w#	c #425459",
"x#	c #3A4A50",
"y#	c #252426",
"z#	c #352B29",
"A#	c #C1612D",
"B#	c #B65F31",
"C#	c #845038",
"D#	c #4E5F59",
"E#	c #326561",
"F#	c #191F23",
"G#	c #2D2F31",
"H#	c #343536",
"I#	c #363738",
"J#	c #393A3B",
"K#	c #373839",
"L#	c #373739",
"M#	c #3F444A",
"N#	c #626B73",
"O#	c #474748",
"P#	c #2F3133",
"Q#	c #313234",
"R#	c #323435",
"S#	c #262829",
"T#	c #373838",
"U#	c #1F2023",
"V#	c #242728",
"W#	c #2B4646",
"X#	c #404A46",
"Y#	c #694535",
"Z#	c #B45D32",
"`#	c #84472F",
" $	c #3E3431",
".$	c #282729",
"+$	c #343838",
"@$	c #353C3C",
"#$	c #203639",
"$$	c #168589",
"%$	c #1D9193",
"&$	c #1A9094",
"*$	c #15797E",
"=$	c #232A2E",
"-$	c #333536",
";$	c #2B2C2C",
">$	c #3E332E",
",$	c #C05F2A",
"'$	c #854F36",
")$	c #544239",
"!$	c #2D4747",
"~$	c #2A3233",
"{$	c #1D1C1E",
"]$	c #363637",
"^$	c #2F3031",
"/$	c #27272A",
"($	c #454B51",
"_$	c #494C4D",
":$	c #25292A",
"<$	c #232425",
"[$	c #212223",
"}$	c #1E1E21",
"|$	c #202021",
"1$	c #242527",
"2$	c #1B1C1D",
"3$	c #252527",
"4$	c #2D3D3C",
"5$	c #303937",
"6$	c #3B3734",
"7$	c #AC5A32",
"8$	c #82462E",
"9$	c #282321",
"0$	c #462B21",
"a$	c #231B1A",
"b$	c #232223",
"c$	c #272627",
"d$	c #262627",
"e$	c #252526",
"f$	c #242525",
"g$	c #242425",
"h$	c #202122",
"i$	c #1E1E1E",
"j$	c #3A221C",
"k$	c #3A261F",
"l$	c #362D2B",
"m$	c #BC5C29",
"n$	c #704533",
"o$	c #324341",
"p$	c #293232",
"q$	c #252629",
"r$	c #212123",
"s$	c #252628",
"t$	c #232326",
"u$	c #272729",
"v$	c #2F2E30",
"w$	c #599996",
"x$	c #3F4F4F",
"y$	c #374445",
"z$	c #303A3B",
"A$	c #313130",
"B$	c #252627",
"C$	c #323233",
"D$	c #262727",
"E$	c #1C1D1F",
"F$	c #131417",
"G$	c #262424",
"H$	c #222424",
"I$	c #213A3B",
"J$	c #2A4A4B",
"K$	c #A25631",
"L$	c #7D3F23",
"M$	c #121213",
"N$	c #523327",
"O$	c #322522",
"P$	c #2E2D2E",
"Q$	c #2C2B2C",
"R$	c #2D2D2D",
"S$	c #2C2C2C",
"T$	c #2E2F2E",
"U$	c #442F28",
"V$	c #39241E",
"W$	c #281C19",
"X$	c #B9612E",
"Y$	c #4E5551",
"Z$	c #244143",
"`$	c #242324",
" %	c #212122",
".%	c #131315",
"+%	c #1F2022",
"@%	c #323235",
"#%	c #282627",
"$%	c #323132",
"%%	c #364243",
"&%	c #414546",
"*%	c #2A787A",
"=%	c #5A5D5C",
"-%	c #313D3E",
";%	c #353D3D",
">%	c #383534",
",%	c #443733",
"'%	c #303334",
")%	c #2B2D2C",
"!%	c #202022",
"~%	c #141518",
"{%	c #1F2325",
"]%	c #178784",
"^%	c #1A9496",
"/%	c #A25732",
"(%	c #844427",
"_%	c #2C2D2E",
":%	c #19191B",
"<%	c #1D1D1E",
"[%	c #252525",
"}%	c #262625",
"|%	c #262626",
"1%	c #1C1D1D",
"2%	c #222323",
"3%	c #212121",
"4%	c #2D3133",
"5%	c #372B28",
"6%	c #BF682E",
"7%	c #479995",
"8%	c #159795",
"9%	c #201D1E",
"0%	c #282B2D",
"a%	c #303134",
"b%	c #2C2624",
"c%	c #443430",
"d%	c #313434",
"e%	c #313739",
"f%	c #4A4C4D",
"g%	c #526E6D",
"h%	c #364242",
"i%	c #3C3837",
"j%	c #383736",
"k%	c #2E3031",
"l%	c #292B2C",
"m%	c #272829",
"n%	c #151619",
"o%	c #242829",
"p%	c #178383",
"q%	c #1A9192",
"r%	c #9A5230",
"s%	c #824126",
"t%	c #2E2F30",
"u%	c #313133",
"v%	c #222223",
"w%	c #29292A",
"x%	c #292A2A",
"y%	c #2C2D2D",
"z%	c #282929",
"A%	c #282A2A",
"B%	c #262728",
"C%	c #333839",
"D%	c #372A26",
"E%	c #B7632F",
"F%	c #479290",
"G%	c #169794",
"H%	c #1F1B1C",
"I%	c #111113",
"J%	c #101113",
"K%	c #151517",
"L%	c #242426",
"M%	c #282A2C",
"N%	c #313232",
"O%	c #3D3736",
"P%	c #3D3B39",
"Q%	c #4C5A5D",
"R%	c #355A59",
"S%	c #293031",
"T%	c #252427",
"U%	c #2A2C2D",
"V%	c #292A2C",
"W%	c #1A1B1E",
"X%	c #18191B",
"Y%	c #17181A",
"Z%	c #232324",
"`%	c #1F5A5A",
" &	c #266A6C",
".&	c #955333",
"+&	c #7B3E23",
"@&	c #222426",
"#&	c #232424",
"$&	c #1D1E1E",
"%&	c #272929",
"&&	c #292B2B",
"*&	c #2A2B2C",
"=&	c #272728",
"-&	c #2E221F",
";&	c #AC5D31",
">&	c #456564",
",&	c #256569",
"'&	c #211F1F",
")&	c #1A2022",
"!&	c #1C1C1E",
"~&	c #292A2B",
"{&	c #2A282A",
"]&	c #34494F",
"^&	c #5B7074",
"/&	c #5A7B7F",
"(&	c #344E50",
"_&	c #2E4041",
":&	c #373535",
"<&	c #363130",
"[&	c #2E2B2D",
"}&	c #252529",
"|&	c #1C1E20",
"1&	c #494B4C",
"2&	c #8F8F8F",
"3&	c #1B1C1F",
"4&	c #292727",
"5&	c #292728",
"6&	c #3A4245",
"7&	c #9A5737",
"8&	c #783F23",
"9&	c #252424",
"0&	c #242325",
"a&	c #2B2C2D",
"b&	c #333435",
"c&	c #323333",
"d&	c #303132",
"e&	c #272828",
"f&	c #1D1E1F",
"g&	c #2F231F",
"h&	c #AC5E31",
"i&	c #4A3C36",
"j&	c #222121",
"k&	c #676969",
"l&	c #8B8B8B",
"m&	c #222222",
"n&	c #2B2A2A",
"o&	c #373533",
"p&	c #3D3937",
"q&	c #343433",
"r&	c #343738",
"s&	c #354343",
"t&	c #526063",
"u&	c #2E8D8D",
"v&	c #325D5F",
"w&	c #2A7C7E",
"x&	c #2F5E60",
"y&	c #3A4040",
"z&	c #363E3F",
"A&	c #30383A",
"B&	c #25292C",
"C&	c #222326",
"D&	c #181B1E",
"E&	c #6E7071",
"F&	c #C4C4C4",
"G&	c #212226",
"H&	c #232B2C",
"I&	c #2B2E2F",
"J&	c #2F2E2F",
"K&	c #3F484C",
"L&	c #9E5838",
"M&	c #7A4024",
"N&	c #2E2E2F",
"O&	c #383838",
"P&	c #333334",
"Q&	c #202121",
"R&	c #2A2A2C",
"S&	c #1D1C1D",
"T&	c #302E30",
"U&	c #2F2D2F",
"V&	c #342926",
"W&	c #AE5F2F",
"X&	c #4E3E38",
"Y&	c #2E3030",
"Z&	c #727371",
"`&	c #B2B2B2",
" *	c #252524",
".*	c #272A2A",
"+*	c #353938",
"@*	c #393C3C",
"#*	c #38383A",
"$*	c #1B9A90",
"%*	c #2C4343",
"&*	c #217574",
"**	c #325B5D",
"=*	c #343839",
"-*	c #38595B",
";*	c #316B6D",
">*	c #1C676B",
",*	c #1C5C61",
"'*	c #214B50",
")*	c #262D2F",
"!*	c #2C2B2E",
"~*	c #4F4F51",
"{*	c #6E6D6F",
"]*	c #242A2B",
"^*	c #303030",
"/*	c #3E494C",
"(*	c #9B5639",
"_*	c #773A23",
":*	c #1E1E1F",
"<*	c #2B2A2B",
"[*	c #2D2C2D",
"}*	c #29292B",
"|*	c #323133",
"1*	c #2B2A2C",
"2*	c #302F31",
"3*	c #2A2B2D",
"4*	c #212020",
"5*	c #31231F",
"6*	c #AF5F30",
"7*	c #503E39",
"8*	c #2C2D2F",
"9*	c #696A6A",
"0*	c #B1B2B2",
"a*	c #373738",
"b*	c #272C2B",
"c*	c #2A3C3F",
"d*	c #1D535A",
"e*	c #185A60",
"f*	c #28585C",
"g*	c #2F5255",
"h*	c #333538",
"i*	c #313638",
"j*	c #59959A",
"k*	c #2D5354",
"l*	c #343334",
"m*	c #474945",
"n*	c #454747",
"o*	c #245154",
"p*	c #25474B",
"q*	c #203337",
"r*	c #212227",
"s*	c #626262",
"t*	c #171617",
"u*	c #212021",
"v*	c #2A3132",
"w*	c #2D3A3B",
"x*	c #32302F",
"y*	c #3F4C50",
"z*	c #97573D",
"A*	c #793E26",
"B*	c #282323",
"C*	c #302A2B",
"D*	c #2A2425",
"E*	c #2E2C2D",
"F*	c #28282B",
"G*	c #2B2829",
"H*	c #312F30",
"I*	c #372825",
"J*	c #AD5F30",
"K*	c #513F39",
"L*	c #35383A",
"M*	c #606262",
"N*	c #575758",
"O*	c #19181C",
"P*	c #1B1B1C",
"Q*	c #1C292B",
"R*	c #1C3B3E",
"S*	c #1D4448",
"T*	c #3E3D3E",
"U*	c #484748",
"V*	c #363436",
"W*	c #353F3F",
"X*	c #218C89",
"Y*	c #459497",
"Z*	c #2B575A",
"`*	c #2C3335",
" =	c #3F3A38",
".=	c #3A3232",
"+=	c #284E4F",
"@=	c #264F51",
"#=	c #1C393D",
"$=	c #1C1C1F",
"%=	c #535353",
"&=	c #444344",
"*=	c #2D2E2E",
"==	c #2D3132",
"-=	c #31302E",
";=	c #3F4C4F",
">=	c #955539",
",=	c #7E432A",
"'=	c #352C2A",
")=	c #393130",
"!=	c #342D2C",
"~=	c #382F2C",
"{=	c #4E5153",
"]=	c #545A5D",
"^=	c #53595E",
"/=	c #535A5E",
"(=	c #50575B",
"_=	c #44494C",
":=	c #372C2A",
"<=	c #322D2C",
"[=	c #393432",
"}=	c #44342E",
"|=	c #AE6031",
"1=	c #54423B",
"2=	c #323234",
"3=	c #3A3B3C",
"4=	c #111112",
"5=	c #1E373C",
"6=	c #214044",
"7=	c #343234",
"8=	c #434141",
"9=	c #394A4D",
"0=	c #2F8E90",
"a=	c #41C6D0",
"b=	c #34686E",
"c=	c #383735",
"d=	c #312E2C",
"e=	c #423D39",
"f=	c #343635",
"g=	c #13676D",
"h=	c #1B353A",
"i=	c #114750",
"j=	c #28292A",
"k=	c #191A1C",
"l=	c #272827",
"m=	c #2C2E2E",
"n=	c #2D2D2C",
"o=	c #3B494E",
"p=	c #915136",
"q=	c #7B4027",
"r=	c #322927",
"s=	c #342B2B",
"t=	c #2B2525",
"u=	c #3F2A23",
"v=	c #3C2B27",
"w=	c #212225",
"x=	c #202023",
"y=	c #1F1F21",
"z=	c #412F2A",
"A=	c #3D2924",
"B=	c #292321",
"C=	c #38302E",
"D=	c #3E2E28",
"E=	c #AC6230",
"F=	c #52403A",
"G=	c #303131",
"H=	c #2C2D2C",
"I=	c #2A2C2C",
"J=	c #5B5C5D",
"K=	c #313031",
"L=	c #0F3840",
"M=	c #106264",
"N=	c #3A484A",
"O=	c #504847",
"P=	c #3B3838",
"Q=	c #3B3B3B",
"R=	c #374848",
"S=	c #42C7C8",
"T=	c #375659",
"U=	c #384544",
"V=	c #2B4649",
"W=	c #2D4C4D",
"X=	c #204A4C",
"Y=	c #0F6166",
"Z=	c #14373B",
"`=	c #152126",
" -	c #4D5354",
".-	c #1A1A1B",
"+-	c #272727",
"@-	c #3A3C3C",
"#-	c #292C2D",
"$-	c #262E30",
"%-	c #2C4C50",
"&-	c #904F31",
"*-	c #743A20",
"=-	c #121317",
"--	c #121216",
";-	c #251E1D",
">-	c #372D29",
",-	c #403937",
"'-	c #403A38",
")-	c #413A37",
"!-	c #403835",
"~-	c #372A28",
"{-	c #1B191B",
"]-	c #131416",
"^-	c #101315",
"/-	c #2B1E18",
"(-	c #AA6330",
"_-	c #524641",
":-	c #2C3435",
"<-	c #32393B",
"[-	c #1E1E20",
"}-	c #202325",
"|-	c #28282A",
"1-	c #2C393D",
"2-	c #222628",
"3-	c #13676C",
"4-	c #285B5E",
"5-	c #354A4C",
"6-	c #324648",
"7-	c #394646",
"8-	c #3A3B3D",
"9-	c #3BA0A1",
"0-	c #393737",
"a-	c #394A49",
"b-	c #2F4B4D",
"c-	c #264C4D",
"d-	c #204648",
"e-	c #1F2225",
"f-	c #181B1D",
"g-	c #2C2F2F",
"h-	c #191A1A",
"i-	c #1E201F",
"j-	c #3B3F3E",
"k-	c #2A2E31",
"l-	c #223C3E",
"m-	c #175D5F",
"n-	c #8F4C2E",
"o-	c #6D3820",
"p-	c #151519",
"q-	c #1A1B1D",
"r-	c #191A1D",
"s-	c #19191C",
"t-	c #2B1F1A",
"u-	c #A36030",
"v-	c #4C5450",
"w-	c #234649",
"x-	c #2B2B2C",
"y-	c #303737",
"z-	c #1A1B1C",
"A-	c #1D1F21",
"B-	c #3E4143",
"C-	c #29292D",
"D-	c #232628",
"E-	c #204044",
"F-	c #22474A",
"G-	c #244244",
"H-	c #2B4042",
"I-	c #353636",
"J-	c #363D3F",
"K-	c #595B5B",
"L-	c #3A3A39",
"M-	c #383737",
"N-	c #2E2D2D",
"O-	c #252626",
"P-	c #515254",
"Q-	c #1B1D1C",
"R-	c #1C1E1D",
"S-	c #373A3A",
"T-	c #2C3032",
"U-	c #233C3E",
"V-	c #195F62",
"W-	c #914F30",
"X-	c #6E3A22",
"Y-	c #17181C",
"Z-	c #272626",
"`-	c #2F2E2D",
" ;	c #302F2F",
".;	c #2F2F2E",
"+;	c #2F2F2D",
"@;	c #2F2E2E",
"#;	c #292828",
"$;	c #222527",
"%;	c #2D221C",
"&;	c #A8622F",
"*;	c #4B5A56",
"=;	c #1F4749",
"-;	c #343737",
";;	c #262828",
">;	c #6B6C6D",
",;	c #424344",
"';	c #2D2C2C",
");	c #333332",
"!;	c #565858",
"~;	c #6F7070",
"{;	c #79422B",
"];	c #2C2A28",
"^;	c #343534",
"/;	c #383A3B",
"(;	c #1E1F1F",
"_;	c #37393A",
":;	c #2F3234",
"<;	c #212E30",
"[;	c #1F555A",
"};	c #975333",
"|;	c #723C24",
"1;	c #16171A",
"2;	c #1E1C1C",
"3;	c #2A2726",
"4;	c #2E2C2B",
"5;	c #2E2C2A",
"6;	c #2D2C2A",
"7;	c #272524",
"8;	c #2D211B",
"9;	c #AC632E",
"0;	c #515B58",
"a;	c #22464B",
"b;	c #232323",
"c;	c #646566",
"d;	c #292B2E",
"e;	c #643A28",
"f;	c #756A66",
"g;	c #545152",
"h;	c #543C35",
"i;	c #33302E",
"j;	c #282728",
"k;	c #2E292A",
"l;	c #2E2524",
"m;	c #383839",
"n;	c #7D7E7E",
"o;	c #2B2E31",
"p;	c #233436",
"q;	c #225F63",
"r;	c #9B5635",
"s;	c #743E26",
"t;	c #1D1D1F",
"u;	c #111517",
"v;	c #141517",
"w;	c #181818",
"x;	c #191819",
"y;	c #19191A",
"z;	c #15171A",
"A;	c #242123",
"B;	c #312420",
"C;	c #524E4B",
"D;	c #293B40",
"E;	c #2D2C2E",
"F;	c #3D3F40",
"G;	c #222324",
"H;	c #676869",
"I;	c #261F1D",
"J;	c #2B2321",
"K;	c #282524",
"L;	c #4B372E",
"M;	c #584B48",
"N;	c #5D5552",
"O;	c #714230",
"P;	c #413F3E",
"Q;	c #2E2B2A",
"R;	c #222022",
"S;	c #373737",
"T;	c #52433E",
"U;	c #4F3125",
"V;	c #372F2C",
"W;	c #707274",
"X;	c #151617",
"Y;	c #353637",
"Z;	c #2B2D2E",
"`;	c #243537",
" >	c #256268",
".>	c #A15734",
"+>	c #763D24",
"@>	c #232021",
"#>	c #2A2626",
"$>	c #101214",
"%>	c #101115",
"&>	c #0F1115",
"*>	c #18181B",
"=>	c #252223",
"->	c #292426",
";>	c #332622",
">>	c #AA6230",
",>	c #535652",
"'>	c #29484C",
")>	c #323335",
"!>	c #323436",
"~>	c #666767",
"{>	c #5D3A29",
"]>	c #60483A",
"^>	c #191C1F",
"/>	c #483D3A",
"(>	c #6D4536",
"_>	c #876C62",
":>	c #757675",
"<>	c #3D3B3A",
"[>	c #352D2B",
"}>	c #262325",
"|>	c #2A2323",
"1>	c #5F6061",
"2>	c #2A2A2B",
"3>	c #26383B",
"4>	c #206066",
"5>	c #9E5431",
"6>	c #774B3B",
"7>	c #2A3435",
"8>	c #282423",
"9>	c #262221",
"0>	c #1D1B1C",
"a>	c #111115",
"b>	c #111216",
"c>	c #1F1C1D",
"d>	c #272222",
"e>	c #262223",
"f>	c #272A2D",
"g>	c #343535",
"h>	c #A86030",
"i>	c #515954",
"j>	c #28494C",
"k>	c #323232",
"l>	c #313334",
"m>	c #343636",
"n>	c #201F21",
"o>	c #19181A",
"p>	c #656767",
"q>	c #1C1F21",
"r>	c #585A5C",
"s>	c #1C1E24",
"t>	c #312A2B",
"u>	c #3B3436",
"v>	c #524F50",
"w>	c #5B5957",
"x>	c #463F3E",
"y>	c #302A28",
"z>	c #252325",
"A>	c #4F4D4D",
"B>	c #262527",
"C>	c #1A1A1C",
"D>	c #25393B",
"E>	c #1D5A61",
"F>	c #9B502F",
"G>	c #733E29",
"H>	c #304244",
"I>	c #34474A",
"J>	c #292323",
"K>	c #211E1E",
"L>	c #111116",
"M>	c #221E1F",
"N>	c #313D41",
"O>	c #2E3C40",
"P>	c #312F2E",
"Q>	c #A45D2E",
"R>	c #4D524E",
"S>	c #2B494D",
"T>	c #302F30",
"U>	c #2D2F30",
"V>	c #2F2A2A",
"W>	c #3D3D3F",
"X>	c #2D292C",
"Y>	c #372D2C",
"Z>	c #3C3334",
"`>	c #514E4F",
" ,	c #353536",
".,	c #333434",
"+,	c #253739",
"@,	c #1D585F",
"#,	c #9A502D",
"$,	c #6E3921",
"%,	c #272B2D",
"&,	c #323D3F",
"*,	c #2D2524",
"=,	c #261E1E",
"-,	c #121115",
";,	c #281F1F",
">,	c #31363A",
",,	c #2B2F31",
"',	c #242121",
"),	c #2D231F",
"!,	c #9C582C",
"~,	c #4D4D48",
"{,	c #2B494C",
"],	c #352D2A",
"^,	c #362E2B",
"/,	c #2C2C2D",
"(,	c #1B1B1D",
"_,	c #243638",
":,	c #1B585F",
"<,	c #9B512D",
"[,	c #6F3A22",
"},	c #1E1C1E",
"|,	c #201C1E",
"1,	c #211C1D",
"2,	c #2F2120",
"3,	c #291D1C",
"4,	c #131316",
"5,	c #121215",
"6,	c #2D2020",
"7,	c #282020",
"8,	c #221F1F",
"9,	c #211E1F",
"0,	c #2E231F",
"a,	c #9F5829",
"b,	c #4D4A45",
"c,	c #2B484A",
"d,	c #312C2A",
"e,	c #1B1A1B",
"f,	c #434445",
"g,	c #382C29",
"h,	c #392E2B",
"i,	c #253437",
"j,	c #1A5762",
"k,	c #99502D",
"l,	c #6E3B23",
"m,	c #1C1B1D",
"n,	c #161619",
"o,	c #141417",
"p,	c #111215",
"q,	c #30231F",
"r,	c #A4582B",
"s,	c #50443C",
"t,	c #324040",
"u,	c #392F2B",
"v,	c #171618",
"w,	c #575757",
"x,	c #535453",
"y,	c #1F1F20",
"z,	c #282828",
"A,	c #313231",
"B,	c #2C2F2E",
"C,	c #3D2D29",
"D,	c #3B2F2A",
"E,	c #2A2C2B",
"F,	c #333D41",
"G,	c #964F2D",
"H,	c #6E3C25",
"I,	c #1E1D1E",
"J,	c #1C1A1C",
"K,	c #111114",
"L,	c #2F231E",
"M,	c #A4592E",
"N,	c #613B2B",
"O,	c #362E29",
"P,	c #2C2C2E",
"Q,	c #262526",
"R,	c #1A191A",
"S,	c #555455",
"T,	c #454645",
"U,	c #171818",
"V,	c #202020",
"W,	c #282928",
"X,	c #2D2E2D",
"Y,	c #322E2B",
"Z,	c #332C29",
"`,	c #2B2E2E",
" '	c #2E2926",
".'	c #533425",
"+'	c #96512D",
"@'	c #703E26",
"#'	c #201E1E",
"$'	c #161518",
"%'	c #1E1A19",
"&'	c #1C1A19",
"*'	c #161618",
"='	c #2A211E",
"-'	c #9D562D",
";'	c #794026",
">'	c #2C2723",
",'	c #2F3839",
"''	c #242424",
")'	c #484948",
"!'	c #212222",
"~'	c #412B25",
"{'	c #3C2D29",
"]'	c #392D28",
"^'	c #473028",
"/'	c #382B27",
"('	c #5E3726",
"_'	c #97512D",
":'	c #6C3B25",
"<'	c #1A1818",
"['	c #101314",
"}'	c #191919",
"|'	c #171718",
"1'	c #29201D",
"2'	c #96532D",
"3'	c #723D24",
"4'	c #282523",
"5'	c #3B3531",
"6'	c #2E2D2C",
"7'	c #1C1D1E",
"8'	c #181919",
"9'	c #2A2B2A",
"0'	c #1C1E1E",
"a'	c #312926",
"b'	c #382C28",
"c'	c #322C2B",
"d'	c #3E2D28",
"e'	c #382925",
"f'	c #663825",
"g'	c #99512C",
"h'	c #693922",
"i'	c #111316",
"j'	c #111314",
"k'	c #261C19",
"l'	c #94512B",
"m'	c #783F25",
"n'	c #2C2725",
"o'	c #46362D",
"p'	c #392C29",
"q'	c #2B2A29",
"r'	c #242524",
"s'	c #393A3A",
"t'	c #2B2625",
"u'	c #2D2928",
"v'	c #302927",
"w'	c #372824",
"x'	c #6A3925",
"y'	c #9C512B",
"z'	c #6B3922",
"A'	c #131415",
"B'	c #181718",
"C'	c #161517",
"D'	c #171517",
"E'	c #15181B",
"F'	c #2B2221",
"G'	c #904F2A",
"H'	c #7D4226",
"I'	c #302827",
"J'	c #45352F",
"K'	c #282829",
"L'	c #242627",
"M'	c #1A1B1B",
"N'	c #3C3D3D",
"O'	c #191B1C",
"P'	c #222224",
"Q'	c #1D1E21",
"R'	c #222122",
"S'	c #292627",
"T'	c #29282A",
"U'	c #1F3034",
"V'	c #733D25",
"W'	c #9D502A",
"X'	c #6A3822",
"Y'	c #1A1817",
"Z'	c #181617",
"`'	c #1D1819",
" )	c #16181B",
".)	c #2B1F1C",
"+)	c #934E29",
"@)	c #864426",
"#)	c #2D2625",
"$)	c #2C3638",
"%)	c #153B40",
"&)	c #1F2020",
"*)	c #1E1F20",
"=)	c #3D3E3E",
"-)	c #1B1A1D",
";)	c #1E1D1F",
">)	c #26282A",
",)	c #1F3639",
"')	c #133B3D",
"))	c #713E25",
"!)	c #834628",
"~)	c #683821",
"{)	c #101014",
"])	c #131215",
"^)	c #281D1B",
"/)	c #814729",
"()	c #7D4327",
"_)	c #162D30",
":)	c #0D474B",
"<)	c #1F2021",
"[)	c #2F3030",
"})	c #1A1A1D",
"|)	c #1B1B1E",
"1)	c #242A2C",
"2)	c #154549",
"3)	c #0A4749",
"4)	c #3D261C",
"5)	c #4F2D1F",
"6)	c #34211B",
"7)	c #101015",
"8)	c #1B191A",
"9)	c #44271D",
"0)	c #43271C",
"a)	c #12282C",
"b)	c #094B4F",
"c)	c #222D2E",
"d)	c #212527",
"e)	c #18181A",
"f)	c #171719",
"g)	c #1A191C",
"h)	c #1C1B1E",
"i)	c #1E2628",
"j)	c #1D2022",
"k)	c #1E2124",
"l)	c #0C4648",
"m)	c #0D3F41",
"n)	c #142426",
"o)	c #161719",
"p)	c #161717",
"q)	c #151D1F",
"r)	c #112F32",
"s)	c #064A4D",
"t)	c #183B3E",
"u)	c #193337",
"v)	c #2B5B56",
"w)	c #0B5855",
"x)	c #0D5556",
"y)	c #105054",
"z)	c #0E484B",
"A)	c #0E4B4C",
"B)	c #0D494A",
"C)	c #0C4949",
"D)	c #132223",
"E)	c #161819",
"F)	c #0F1114",
"G)	c #0F1014",
"H)	c #152022",
"I)	c #123034",
"J)	c #0D454B",
"K)	c #0E454E",
"L)	c #104C55",
"M)	c #104E54",
"N)	c #094F54",
"O)	c #161617",
"P)	c #1B1B1B",
"Q)	c #141516",
"R)	c #3B3B3D",
"S)	c #131618",
"T)	c #181A1B",
"U)	c #1C1E1F",
"V)	c #131314",
"W)	c #373736",
"X)	c #191B1B",
"Y)	c #1A1C1C",
"Z)	c #141416",
"`)	c #121314",
" !	c #1F2122",
".!	c #404140",
"+!	c #444444",
"@!	c #2B2B2A",
"#!	c #1B1C1C",
"$!	c #2D2C2B",
"%!	c #292928",
"&!	c #202123",
"*!	c #616060",
"=!	c #151618",
"-!	c #3D3E40",
";!	c #6A6B6B",
">!	c #454342",
",!	c #302724",
"'!	c #222423",
")!	c #2C2423",
"!!	c #4C4D4E",
"~!	c #28201F",
"{!	c #2E2927",
"]!	c #382D28",
"^!	c #484440",
"/!	c #1B1D1E",
"(!	c #424444",
"_!	c #131317",
":!	c #19191D",
"<!	c #151518",
"[!	c #1F1D1F",
"}!	c #232122",
"|!	c #242224",
"1!	c #1F1E1F",
"2!	c #5A6568",
"3!	c #394346",
"4!	c #414B4F",
"5!	c #434647",
"6!	c #424545",
"7!	c #414444",
"8!	c #363A3D",
"9!	c #282E30",
"0!	c #222325",
"a!	c #545353",
"b!	c #34373B",
"c!	c #424348",
"d!	c #464449",
"e!	c #454446",
"f!	c #475354",
"g!	c #3B4546",
"h!	c #556463",
"i!	c #5F5E5D",
"j!	c #393637",
"k!	c #444345",
"l!	c #3F3736",
"m!	c #3C3230",
"n!	c #3B3330",
"o!	c #363333",
"p!	c #131418",
"q!	c #757677",
"r!	c #454647",
"s!	c #282427",
"t!	c #3A3639",
"u!	c #3E3834",
"v!	c #403735",
"w!	c #3E3533",
"x!	c #3F3C38",
"y!	c #343432",
"z!	c #3E3F3B",
"A!	c #5F6362",
"B!	c #464749",
"C!	c #231D1E",
"D!	c #422F28",
"E!	c #443129",
"F!	c #453129",
"G!	c #2D2523",
"H!	c #201F20",
"I!	c #404244",
"J!	c #2A2628",
"K!	c #41302A",
"L!	c #453029",
"M!	c #412D25",
"N!	c #3D2B24",
"O!	c #261F20",
"P!	c #221D1F",
"Q!	c #474749",
"                                                                                                                                ",
"                                                            . + @ # $                                                           ",
"                                                        % & * = - ; > , ' )                                                     ",
"                                                    ! ~ { ] ^ / ( _ : < [ } |                                                   ",
"                                                  1 2 3 4 5 6 7 8 9 0 a b c d e f                                               ",
"                                                g h i j k l m n o p q r s t u v w x                                             ",
"                                                y z A B C D E F G H I J K L M N O P                                             ",
"                                              Q R S T U V W X Y Z `  ...+.@.#.$.%.&.*.                                          ",
"                                            =.-.;.>.,.'.).!.~.{.].^./.(._.:.<.[.}.|.1.                                          ",
"                                            2.3.4.5.6.7.8.9.0.a.b.c.d.e.f.g.h.i.j.k.l.m.                                        ",
"                                          n.o.p.q.r.s.t.u.v.w.x.y.z.A.B.C.D.E.F.G.H.I.J.K.                                      ",
"                                        L.M.N.O.P.Q.R.S.T.U.V.W.X.Y.Z.`. +.+++@+#+$+%+&+*+=+                                    ",
"                                        -+;+>+,+'+)+)+!+~+{+]+^+/+(+_+:+<+[+}+#+|+1+#.2+3+4+                                    ",
"                                  5+6+7+8+9+0+a+b+c+S.d+_+~+~+e+f+g+h+q.i+j+'+k+l+m+n+o+p+q+r+s+                                ",
"                            t+u+v+w+x+y+z+A+B+C+D+E+F+p G+H+I+J+K+L+K+M+7.N+O+P+Q+R+S+T+U+V+W+X+Y+Z+`+                          ",
"                         @.@+@@@#@$@%@&@*@=@-@;@>@,@'@)@!@~@o {@{@]@^@/@(@_@:@<@[@}@|@1@2@3@4@5@6@7@8@9@0@                      ",
"                    a@b@c@d@e@f@g@h@i@j@k@l@m@n@o@p@q@r@s@t@u@v@w@x@y@z@A@B@C@D@E@F@G@H@I@J@K@L@M@N@O@P@Q@R@S@                  ",
"                    T@U@V@W@X@Y@Z@`@ #.#+#@###$#%#&#*#=#-#;#>#,#'#)#!#~#{#]#C@^#/#(#_#:#<#[#}#|#1#2#3#4#5#6#7#                  ",
"                    8#9#0#a#b#c#d#x@e#f#g#h#i#j#k#l#m#n#o#p#q#r#s#t#u#v#w#x#y#z#A#B#C#D#E#7.F#G#H#I#J#K#L#M#N#                  ",
"                      O#(@P#Q#R#S#w.T#U#V#W#X#Y#Z#`# $.$+$@$#$$$%$&$*$=$-$w@;$>$,$'$)$!$~${$]$^$/$L#]$d#a#($                    ",
"                      _$:$<$[$}$S#|$1$2$3$4$5$6$7$8$9$0$a$b$c$d$e$f$g$h$i$j$k$l$m$n$w.o$p$!+q$r$s$t$u$s$v$                      ",
"                    w$x$y$z$A$B$C$D$E$F$G$H$I$J$K$L$M$N$O$P$c$Q$Q$R$S$e$T$U$V$W$X$Y$Z$`$ %.%+%<.@%#%$%%%&%*%                    ",
"                    =%-%;%>%,%K '%)%!%~%}+{%]%^%/%(%_%_%1$:%<%[%}%|%B.1%2%3%4%5%6%7%8%9%.%)++%0%a%b%c%d%e%f%                    ",
"                    g%h%i%j%k%l%m%+%i+k+n%o%p%q%r%s%t%P#u%v%e$w%x%m#y%z%A%B%C%D%E%F%G%H%I%J%K%h$L%M%N%O%P%Q%                    ",
"                    R%S%T%U%V%t$G+W%X%!%Y%Z%`% &.&+&3%@&#&$&Z%D$%&&&*&#&=&<$M%-&;&>&,&'&_+)&K%!&+%e$~&{&;$]&^&                  ",
"                /&(&_&:&<&j%[&}&|&1&2&+%3&4&5&6&7&8&9&0&a&b&Z%a&c&d&e&e&H#B$f&g&h&i&a&j&!+k&l&j+m&n&o&p&q&r&s&t&                ",
"              u&v&w&x&y&z&A&B&C&D&E&F&G&H&I&J&K&L&M&N&O&P&Q&i$m%R&R&e$S&S&T&U&V&W&X&a&Y&S#Z&`&!+ *.*+*@*U+#*$*%*&*              ",
"              **=*-*;*>*,*'*)*1+!*~*{*}$]*^*T$/*(*_*:*[% %<*[*}*u%|*1*2*3*m 4*5*6*7*8*m#m%9*0*a*{$b*c*d*e*f*g*h*i*j*            ",
"              k*l*m*n*o*p*q*1$r*s*  t*u*v*w*x*y*z*A*B*C*D*E*N&g$1*R&v%^$F*G*H*I*J*K*x@r&L*u$M*N*O*P*Q*R*S*T*U*V*W*X*            ",
"            Y*Z*`* =.=+=@=#=$=%=  &=i.g$*===-=;=>=,='=)=!=~={=]=^=/=(=_=:=<=[=}=|=1=d&2=-$w%3=    4=%+5=6=7=8=L#9=0=            ",
"          a=b=c=d=e=f=g=h=i=j=    k=l=e&a&m=n=o=p=q=r=s=t=u=v=w=x=y=h.z=A=B=C=D=E=F=G=H=I=B%C&J=  K=L=G+M=N=O=P=Q=R=S=          ",
"            T=U=V=W=X=Y=Z=`= -    .-+-x%@-#-$-%-&-*-S.=---;->-,-'-)-!-~-{-]-^-/-(-_-:-^$<-[-}-|-    1-2-3-4-5-6-7-8-9-          ",
"            0-a-b-c-d-e-f-g-      h-i-I=j-k-l-m-n-o-p-}$7.q-7.r-s-{+{+c+c+2$K+t-u-v-w-x-y-z-A-B-      C-D-E-F-G-H-I-J-          ",
"            K-L-M-N-O-+%P-      Q-R-#&y%S-T-U-V-W-X-Y-e$!&Z-`- ;.;.;+;@;#;G+$;%;&;*;=;x%-;;;!%f&>;    ,;q$w=@&';);!;            ",
"            ~;{;];q&^;@&/;      ]+(;O-B%_;:;<;[;};|;1;n%:%2;3;4;5;6;5;7;S&:%}+8;9;0;a;w%d#m%b;:*c;    A+[-v@4%d;e;f;            ",
"            g;h;i;d$j;k;l;m;n;]+$&c$x-c#x@o;p;q;r;s;b$t;u;v;w;x;x;y;x;x;~%z;A;B;(-C;D;E;F;*&z%G;X@H;  I;J;o o K;L;M;            ",
"          N;O;P;Q;R;S;T;U;V;W;X;$&=&w.Y;a*Z;`; >.>+>@>#>j&X;Q.$>r.r.%>&>*>=>->;>>>,>'>[*)>!>&&Z%T.~>  {>]>  ^>B*/>(>_>          ",
"            :><>[>}>4;  |>  1>K%g$}*2>S$I#I#3>4>5>6>7>V.8>9>0>a>b>b>%>c>d>e>f>g>h>i>j>k>l>m>|-n>o>p>  q>r>  s>t>u>v>            ",
"              w>x>y>z>A>    B>C>y#<*B.Q$a*Y;D>E>F>G>H>I>v@J>K>%>a>%>L>M>C.N>O>P>Q>R>S>T>U>w.V>y#<%W>      X>Y>Z>`>              ",
"                            v%t;=&Q$Q$Q$ ,.,+,@,#,$,S&%,&,*,=,a>%>a>-,;,>,,,',),!,~,{,],^,Z;[*/,g$(,                            ",
"                          a&2$Z%m#S$S$;$_%/,_,:,<,[,},|,1,2,3,4,b>%>5,6,7,8,9,0,a,b,c,d,y%R$R$/,d$e,f,                          ",
"                          w%C>g$y%S$x-x-g,h,i,j,k,l,m,C>n,o,p,%>p,%>a>p,K%.-<%q,r,s,t,u,w.*=w.x-|%:%v,w,                        ",
"                        x,<%y,|%z,A,.,B,C,D,E,F,G,H,I,J,4,p,r.K,$>R.p,p,S.P*I,L,M,N,O,z$y%/,P,Q,`$R,y;S,                        ",
"                        T,U,V,+-W,;$X,Y,Z,`, '.'+'@'#'$'%'p,p,)+^-r.^-p,&'*'i$='-';'>','y%a&y%c$''3%:*z,                        ",
"                      )'Q&$&f$!'g$z,~'{']'^'/'('_':'m K%<')+$>r.$>['~+~+}'|'P*1'2'3'4'5'6';$~&+-|%f$7'8'                        ",
"                      9'2$0'y,|%O-+-a'b'c'd'e'f'g'h'p,i'~+j'$>)+r.$>)+~+--=-k+k'l'm'n'o'p'q'w%f$r'Q&Q-U,                        ",
"                    s'y;2$2$7.Z%d$t'u'v'x%&&w'x'y'z'A'B'^-r.)+$>^-p,p,p,C'D'E'F'G'H'I'J'$-K'L' %n (;M'I+)%                      ",
"                    N'h-O'(,P'Q'R'S'T'/$:@U'3%V'W'X'A'Y'p,$>$>$>$>r.a>%>Z'`' ).)+)@)#)$)%)D$[$y,&)7'I+z-*)                      ",
"                    =).-C>-)$=(,;)L%.$>),)')E$))!)~)p,K,R.R.$>R.R.R.R.R.{)])!+^)/)()m,_):)e$`$<)z-2$I+z-:*                      ",
"                    [)X%})(,|)m,t;[-O-1)2)3)^+4)5)6)p,K,K,R.R.R.%>K,7)K,R.a>*'8)9)0)K%a)b)c)d)K+7'!&(,e)f)                      ",
"                    S#g)(,(,h)i)j)L+k)l)m)n)<+o):+p)a>%>R.R.%>K,K,K,R.K,R.{){)o)Y%:+Y%q)r)s)t)u)|&2$2$*>F+                      ",
"                      v)w)x)y)z)A)B)C)D)_+<+E):+K%.%K,K,%>%>%>a>a>%>%>%>%>F)G)'+i+E)O'O'z-H)I)J)K)L)M)N)                        ",
"                          T$O)|'|'8'P)i.P*:+f):+Q)5,p,p,p,R)    ^+F$i'R.J%Q.F)i'S)T)/+U)7.c+:+A'V)O)S$                          ",
"                            W)''X)Y)7.$&m&i.]+e)Z)o,h$;$              `)v;:+ !1+1+{+2$e$<)q-o)4=P&.!                            ",
"                                  +!b+Z-@!j&#!]+v%                            A%r-|)!'$!%!7'&!                                  ",
"                                  *!=!<%<)y,<%-!                              ;!Y%X%i.1%1%]+<)                                  ",
"                                >!,!r='!)!{${+!!                                ~%n,X%~!j&{!]!^!                                ",
"                                &!/!U)7'Y%X%Y%(!                                O._!:!<![!}!|!1!                                ",
"                            2!3!4!5!6!7!8!9!*'0!                              a!<!_!&!b!c!d!e!f!g!h!                            ",
"                          i!e!j!k!l!m!n!o!w%p!L>q!                            r!n,O*s!t!u!v!w!x!y!z!A!                          ",
"                          B!C!<@D!E!F!D!G!H!=@                                    I!}&J!K!L!M!N!O!P!Q!                          ",
"                                                                                                                                ",
"                                                                                                                                ",
"                                                                                                                                "};
