/* XPM */
static char * profile_finale_xpm[] = {
"64 64 1075 2",
"  	c None",
". 	c #52B7B3",
"+ 	c #48B6B1",
"@ 	c #20B2AF",
"# 	c #20B0AD",
"$ 	c #1FADAB",
"% 	c #20AFAB",
"& 	c #1FB0AD",
"* 	c #1FB2AE",
"= 	c #3CB7B2",
"- 	c #5BBCB7",
"; 	c #40A9A6",
"> 	c #20A19C",
", 	c #21A6A1",
"' 	c #29A19A",
") 	c #329893",
"! 	c #378F8D",
"~ 	c #37918F",
"{ 	c #379290",
"] 	c #398381",
"^ 	c #338684",
"/ 	c #269593",
"( 	c #35A09A",
"_ 	c #61A4A1",
": 	c #2E8783",
"< 	c #2F8885",
"[ 	c #34918E",
"} 	c #3A827D",
"| 	c #397B76",
"1 	c #426762",
"2 	c #465756",
"3 	c #455958",
"4 	c #465C5B",
"5 	c #455B59",
"6 	c #445855",
"7 	c #475B58",
"8 	c #475B59",
"9 	c #436663",
"0 	c #3A7474",
"a 	c #2C7979",
"b 	c #229794",
"c 	c #4AABA6",
"d 	c #3B9494",
"e 	c #1F9A97",
"f 	c #37817E",
"g 	c #455F5F",
"h 	c #475857",
"i 	c #485756",
"j 	c #465453",
"k 	c #44504F",
"l 	c #3E4C4B",
"m 	c #3A4444",
"n 	c #3B4848",
"o 	c #3E4D4D",
"p 	c #455B5A",
"q 	c #475B5A",
"r 	c #475A58",
"s 	c #425553",
"t 	c #3A6A69",
"u 	c #2E6B6C",
"v 	c #2A6D6C",
"w 	c #3A8688",
"x 	c #36807F",
"y 	c #2A908D",
"z 	c #3F6463",
"A 	c #434D4C",
"B 	c #444D4D",
"C 	c #434C4C",
"D 	c #3E5352",
"E 	c #384D4C",
"F 	c #394243",
"G 	c #3F4E4E",
"H 	c #3F4E4F",
"I 	c #3D4E4E",
"J 	c #385A5B",
"K 	c #3B4343",
"L 	c #393E3F",
"M 	c #325050",
"N 	c #156365",
"O 	c #6D7F81",
"P 	c #46EAE1",
"Q 	c #22B7B1",
"R 	c #2E8582",
"S 	c #3C5D5B",
"T 	c #444C4C",
"U 	c #415C5A",
"V 	c #38716B",
"W 	c #3E5E5D",
"X 	c #40494A",
"Y 	c #404546",
"Z 	c #404445",
"` 	c #404446",
" .	c #3F4345",
"..	c #3F4344",
"+.	c #3E4344",
"@.	c #3C4142",
"#.	c #373C3C",
"$.	c #2F3233",
"%.	c #29393A",
"&.	c #116363",
"*.	c #748686",
"=.	c #48F9EE",
"-.	c #3BF7EC",
";.	c #23AAA6",
">.	c #227070",
",.	c #2A8179",
"'.	c #3C6764",
").	c #3B6763",
"!.	c #424F50",
"~.	c #424749",
"{.	c #424648",
"].	c #414647",
"^.	c #404646",
"/.	c #3F4546",
"(.	c #3D4445",
"_.	c #373C3E",
":.	c #303234",
"<.	c #2E2F30",
"[.	c #2E3030",
"}.	c #2E2F31",
"|.	c #293C3C",
"1.	c #106463",
"2.	c #718283",
"3.	c #5DF9EF",
"4.	c #38F7EC",
"5.	c #1BCEC8",
"6.	c #269090",
"7.	c #119291",
"8.	c #346C69",
"9.	c #404A4C",
"0.	c #404949",
"a.	c #3A4042",
"b.	c #3F4747",
"c.	c #3F4748",
"d.	c #3B4444",
"e.	c #343B3B",
"f.	c #303233",
"g.	c #2D2F30",
"h.	c #2D2D2E",
"i.	c #2C2D2F",
"j.	c #253B40",
"k.	c #263235",
"l.	c #273034",
"m.	c #272929",
"n.	c #6C7173",
"o.	c #64F0E8",
"p.	c #20A59F",
"q.	c #325456",
"r.	c #2C3E41",
"s.	c #268380",
"t.	c #356161",
"u.	c #3B4646",
"v.	c #3A4445",
"w.	c #384243",
"x.	c #35393B",
"y.	c #303032",
"z.	c #2D2E2F",
"A.	c #292A2B",
"B.	c #292A2A",
"C.	c #262C2C",
"D.	c #343D3B",
"E.	c #414341",
"F.	c #484A49",
"G.	c #494D4A",
"H.	c #444646",
"I.	c #5A5A5B",
"J.	c #7B7B7C",
"K.	c #578C89",
"L.	c #307875",
"M.	c #273134",
"N.	c #2E2D2F",
"O.	c #254F50",
"P.	c #305C5F",
"Q.	c #326264",
"R.	c #363D3E",
"S.	c #313234",
"T.	c #2A2C2E",
"U.	c #292B2C",
"V.	c #292C2C",
"W.	c #2B2F2F",
"X.	c #373E3E",
"Y.	c #3B4344",
"Z.	c #374747",
"`.	c #44524F",
" +	c #3F4643",
".+	c #3E3736",
"++	c #3B3636",
"@+	c #2F3336",
"#+	c #2D3133",
"$+	c #5E5E5F",
"%+	c #343A3C",
"&+	c #242728",
"*+	c #252627",
"=+	c #4D3630",
"-+	c #2F5054",
";+	c #33686C",
">+	c #33494A",
",+	c #282D2E",
"'+	c #2E3132",
")+	c #363B3B",
"!+	c #3A3F3F",
"~+	c #3D4140",
"{+	c #3C403F",
"]+	c #333737",
"^+	c #404140",
"/+	c #434340",
"(+	c #404240",
"_+	c #393331",
":+	c #2F2421",
"<+	c #3A3C3D",
"[+	c #2B2D2E",
"}+	c #292A2C",
"|+	c #A4725D",
"1+	c #8E4A2F",
"2+	c #6B3F31",
"3+	c #333B3B",
"4+	c #343B3A",
"5+	c #363B39",
"6+	c #2E3231",
"7+	c #2A2E2E",
"8+	c #264B49",
"9+	c #20514E",
"0+	c #1D4E4B",
"a+	c #227773",
"b+	c #2B7A74",
"c+	c #2C7C75",
"d+	c #2A7A78",
"e+	c #257778",
"f+	c #187B7D",
"g+	c #1A5E5F",
"h+	c #576263",
"i+	c #484946",
"j+	c #525656",
"k+	c #D79D80",
"l+	c #B8603A",
"m+	c #513D36",
"n+	c #304241",
"o+	c #333A3A",
"p+	c #2A2B2B",
"q+	c #212628",
"r+	c #274D4B",
"s+	c #218583",
"t+	c #23B0AA",
"u+	c #29AAA3",
"v+	c #25ABA2",
"w+	c #33918A",
"x+	c #3F6C68",
"y+	c #3F5150",
"z+	c #317C79",
"A+	c #346E6B",
"B+	c #326566",
"C+	c #207D7E",
"D+	c #277777",
"E+	c #385A5A",
"F+	c #435A5B",
"G+	c #4A5655",
"H+	c #535C5B",
"I+	c #A87E6B",
"J+	c #83482A",
"K+	c #3C3630",
"L+	c #274746",
"M+	c #283535",
"N+	c #1D2C2E",
"O+	c #2A5F5F",
"P+	c #287E7D",
"Q+	c #2A9493",
"R+	c #308281",
"S+	c #348682",
"T+	c #31817E",
"U+	c #327673",
"V+	c #397471",
"W+	c #3E5050",
"X+	c #38423F",
"Y+	c #37403F",
"Z+	c #345252",
"`+	c #3B4B49",
" @	c #266F71",
".@	c #227774",
"+@	c #324E4E",
"@@	c #3C4342",
"#@	c #3C4A49",
"$@	c #3B4947",
"%@	c #6D7676",
"&@	c #AB7F6D",
"*@	c #914C2B",
"=@	c #4C3027",
"-@	c #2C2E2E",
";@	c #273E40",
">@	c #295556",
",@	c #317978",
"'@	c #3B7472",
")@	c #386767",
"!@	c #23AFA4",
"~@	c #14E8DB",
"{@	c #19DFD5",
"]@	c #386063",
"^@	c #3D7575",
"/@	c #425B5C",
"(@	c #425454",
"_@	c #3D3A36",
":@	c #333230",
"<@	c #395150",
"[@	c #205857",
"}@	c #223E3D",
"|@	c #383D3B",
"1@	c #3B4B48",
"2@	c #374A49",
"3@	c #2F5F60",
"4@	c #63888A",
"5@	c #7E584B",
"6@	c #6F3A26",
"7@	c #3A2723",
"8@	c #222123",
"9@	c #285D5B",
"0@	c #325C5D",
"a@	c #425C5B",
"b@	c #3F4A48",
"c@	c #376364",
"d@	c #268682",
"e@	c #20AAA3",
"f@	c #23A9A3",
"g@	c #375758",
"h@	c #406C6C",
"i@	c #455151",
"j@	c #3C3B3A",
"k@	c #413B37",
"l@	c #382C27",
"m@	c #3F2D27",
"n@	c #362E2B",
"o@	c #282B2B",
"p@	c #212527",
"q@	c #313635",
"r@	c #307371",
"s@	c #304C4B",
"t@	c #16ADAB",
"u@	c #247979",
"v@	c #868C90",
"w@	c #5F3A2B",
"x@	c #964D2A",
"y@	c #954B2B",
"z@	c #4C413A",
"A@	c #2A2E2F",
"B@	c #545450",
"C@	c #4E403A",
"D@	c #434B4B",
"E@	c #444845",
"F@	c #3E5A5D",
"G@	c #385153",
"H@	c #385354",
"I@	c #365354",
"J@	c #385857",
"K@	c #3F4D4B",
"L@	c #3D3D3B",
"M@	c #493E3B",
"N@	c #433B39",
"O@	c #4F2E26",
"P@	c #271F1D",
"Q@	c #1E191A",
"R@	c #28292B",
"S@	c #28292A",
"T@	c #2C2D30",
"U@	c #2D4E4F",
"V@	c #2A3436",
"W@	c #18878C",
"X@	c #1B8F92",
"Y@	c #84AFB3",
"Z@	c #6F3E29",
"`@	c #A15837",
" #	c #814F3F",
".#	c #355C59",
"+#	c #2D645F",
"@#	c #56372F",
"##	c #523D36",
"$#	c #6B3C2C",
"%#	c #7B4531",
"&#	c #774A38",
"*#	c #784933",
"=#	c #794531",
"-#	c #744330",
";#	c #6D402F",
">#	c #6A3E2E",
",#	c #57392F",
"'#	c #523329",
")#	c #332B2A",
"!#	c #242527",
"~#	c #2D2E30",
"{#	c #1E1F21",
"]#	c #323334",
"^#	c #323434",
"/#	c #404041",
"(#	c #3B3C3E",
"_#	c #2F3030",
":#	c #37383B",
"<#	c #6DAAA9",
"[#	c #6E402B",
"}#	c #7A564B",
"|#	c #2E4D50",
"1#	c #2E3233",
"2#	c #2A2A2B",
"3#	c #303031",
"4#	c #393838",
"5#	c #373636",
"6#	c #373637",
"7#	c #4A3832",
"8#	c #3C332F",
"9#	c #2A2A2A",
"0#	c #242324",
"a#	c #262424",
"b#	c #252424",
"c#	c #242526",
"d#	c #2B2C2E",
"e#	c #373A3B",
"f#	c #373738",
"g#	c #2F2F2F",
"h#	c #323435",
"i#	c #3F4142",
"j#	c #343436",
"k#	c #303334",
"l#	c #1F4045",
"m#	c #657B7E",
"n#	c #2B2A2A",
"o#	c #6A4432",
"p#	c #72574D",
"q#	c #2E5154",
"r#	c #303A3C",
"s#	c #2E3031",
"t#	c #252526",
"u#	c #242326",
"v#	c #262628",
"w#	c #2A3033",
"x#	c #253333",
"y#	c #212D2D",
"z#	c #262626",
"A#	c #222223",
"B#	c #1B1C1E",
"C#	c #222324",
"D#	c #2B2C2D",
"E#	c #37393A",
"F#	c #26282A",
"G#	c #212123",
"H#	c #2A2B2C",
"I#	c #313132",
"J#	c #363738",
"K#	c #2C2C2E",
"L#	c #222B2E",
"M#	c #56888D",
"N#	c #262324",
"O#	c #975632",
"P#	c #755649",
"Q#	c #36585A",
"R#	c #33575A",
"S#	c #2C4C4C",
"T#	c #29292B",
"U#	c #242627",
"V#	c #222628",
"W#	c #253335",
"X#	c #314143",
"Y#	c #209694",
"Z#	c #21827F",
"`#	c #363F43",
" $	c #1E1F22",
".$	c #212224",
"+$	c #2C2E30",
"@$	c #2A2B2D",
"#$	c #161719",
"$$	c #18181B",
"%$	c #262528",
"&$	c #343435",
"*$	c #657F83",
"=$	c #292525",
"-$	c #975934",
";$	c #65685F",
">$	c #247E81",
",$	c #306362",
"'$	c #286462",
")$	c #343635",
"!$	c #383C3B",
"~$	c #262929",
"{$	c #1E2324",
"]$	c #2D6567",
"^$	c #336B69",
"/$	c #1E8685",
"($	c #1E7976",
"_$	c #2F3E40",
":$	c #2B2E30",
"<$	c #262729",
"[$	c #19191B",
"}$	c #18181A",
"|$	c #19181A",
"1$	c #1B1B1E",
"2$	c #4D4E4F",
"3$	c #292726",
"4$	c #996A48",
"5$	c #1FAE9C",
"6$	c #345250",
"7$	c #2D4D4D",
"8$	c #224647",
"9$	c #363536",
"0$	c #2C2D2E",
"a$	c #1F2123",
"b$	c #202324",
"c$	c #3C3E3D",
"d$	c #383A3B",
"e$	c #333537",
"f$	c #363B3C",
"g$	c #333739",
"h$	c #2E3235",
"i$	c #343A3D",
"j$	c #27292B",
"k$	c #151517",
"l$	c #153537",
"m$	c #536F70",
"n$	c #2C2A29",
"o$	c #9F5D38",
"p$	c #476860",
"q$	c #335551",
"r$	c #2F3837",
"s$	c #1F1F20",
"t$	c #272727",
"u$	c #2F302F",
"v$	c #303131",
"w$	c #2B2C2C",
"x$	c #34383A",
"y$	c #2E2E2F",
"z$	c #303436",
"A$	c #4B3027",
"B$	c #312626",
"C$	c #151618",
"D$	c #114546",
"E$	c #477C7D",
"F$	c #312F30",
"G$	c #9E5832",
"H$	c #534944",
"I$	c #2F3031",
"J$	c #3B3C3C",
"K$	c #2B2B2C",
"L$	c #222222",
"M$	c #282929",
"N$	c #2A5557",
"O$	c #2D7476",
"P$	c #278885",
"Q$	c #316462",
"R$	c #333F40",
"S$	c #343538",
"T$	c #332A28",
"U$	c #4C2C20",
"V$	c #312421",
"W$	c #17191B",
"X$	c #124547",
"Y$	c #5A8284",
"Z$	c #2F2E30",
"`$	c #9B5732",
" %	c #564A44",
".%	c #333535",
"+%	c #3E3F3F",
"@%	c #2D2E2E",
"#%	c #383A3A",
"$%	c #181D1E",
"%%	c #2C5555",
"&%	c #346769",
"*%	c #2E7274",
"=%	c #257578",
"-%	c #285A5C",
";%	c #295354",
">%	c #333133",
",%	c #343336",
"'%	c #272424",
")%	c #2E201D",
"!%	c #231E1D",
"~%	c #195150",
"{%	c #18605F",
"]%	c #597879",
"^%	c #2E2D2D",
"/%	c #975531",
"(%	c #564942",
"_%	c #3D3D3E",
":%	c #353738",
"<%	c #1F5153",
"[%	c #236063",
"}%	c #3D5E61",
"|%	c #385355",
"1%	c #315D61",
"2%	c #2F5D61",
"3%	c #275A5C",
"4%	c #282F31",
"5%	c #1B1A1C",
"6%	c #1A3234",
"7%	c #125458",
"8%	c #203134",
"9%	c #212528",
"0%	c #5A5C5D",
"a%	c #2F2D2D",
"b%	c #93532F",
"c%	c #554742",
"d%	c #3A3B3C",
"e%	c #262D2F",
"f%	c #287075",
"g%	c #323A3C",
"h%	c #42494B",
"i%	c #3B3E3F",
"j%	c #3A3E3E",
"k%	c #265657",
"l%	c #223C3F",
"m%	c #25393B",
"n%	c #15393B",
"o%	c #174344",
"p%	c #1E383B",
"q%	c #232426",
"r%	c #585859",
"s%	c #2E2C2D",
"t%	c #8C502D",
"u%	c #524742",
"v%	c #2F3132",
"w%	c #3B3C3D",
"x%	c #3B3B3B",
"y%	c #2C2B2E",
"z%	c #2F3739",
"A%	c #297376",
"B%	c #2D3336",
"C%	c #36393B",
"D%	c #3C4244",
"E%	c #383C3D",
"F%	c #294143",
"G%	c #234449",
"H%	c #212729",
"I%	c #262627",
"J%	c #262527",
"K%	c #242425",
"L%	c #232325",
"M%	c #424446",
"N%	c #2D2D2C",
"O%	c #8B4F2E",
"P%	c #524640",
"Q%	c #3C3D3E",
"R%	c #414040",
"S%	c #3C3C3C",
"T%	c #2D5E59",
"U%	c #335A59",
"V%	c #404B50",
"W%	c #2C3234",
"X%	c #394041",
"Y%	c #323638",
"Z%	c #2A2C2D",
"`%	c #29292A",
" &	c #383838",
".&	c #292B2D",
"+&	c #272627",
"@&	c #282728",
"#&	c #1E1F20",
"$&	c #2D3030",
"%&	c #344548",
"&&	c #395657",
"*&	c #244042",
"=&	c #302F2F",
"-&	c #834D30",
";&	c #504541",
">&	c #313334",
",&	c #3A3A3B",
"'&	c #2F2F30",
")&	c #333536",
"!&	c #27847E",
"~&	c #377273",
"{&	c #40555A",
"]&	c #278380",
"^&	c #22AAA6",
"/&	c #2C676A",
"(&	c #237A7C",
"_&	c #1B7474",
":&	c #282B2D",
"<&	c #1F2125",
"[&	c #272728",
"}&	c #282B2C",
"|&	c #2C4A4C",
"1&	c #236668",
"2&	c #254F51",
"3&	c #493731",
"4&	c #885339",
"5&	c #404444",
"6&	c #313333",
"7&	c #282829",
"8&	c #252628",
"9&	c #255D5B",
"0&	c #335757",
"a&	c #374A4B",
"b&	c #1D9291",
"c&	c #3D6668",
"d&	c #41585C",
"e&	c #208583",
"f&	c #1C8482",
"g&	c #2E3D3E",
"h&	c #1B2021",
"i&	c #1B1E20",
"j&	c #133C3B",
"k&	c #113B3A",
"l&	c #191A1C",
"m&	c #3B3637",
"n&	c #202021",
"o&	c #50372F",
"p&	c #96593A",
"q&	c #454C4E",
"r&	c #2E2F2F",
"s&	c #232425",
"t&	c #202122",
"u&	c #2F3232",
"v&	c #3F4648",
"w&	c #3C4143",
"x&	c #2C3131",
"y&	c #26484A",
"z&	c #293235",
"A&	c #1C1F20",
"B&	c #1A1B1E",
"C&	c #192022",
"D&	c #192122",
"E&	c #252527",
"F&	c #4B4443",
"G&	c #222122",
"H&	c #503830",
"I&	c #995A3B",
"J&	c #434A4B",
"K&	c #2C2F30",
"L&	c #2A2C2C",
"M&	c #272829",
"N&	c #1D2224",
"O&	c #18191C",
"P&	c #1B1C1F",
"Q&	c #222323",
"R&	c #292A29",
"S&	c #4A4240",
"T&	c #242424",
"U&	c #2E2F2E",
"V&	c #4F3830",
"W&	c #9E5C3A",
"X&	c #3E4444",
"Y&	c #262727",
"Z&	c #201E1E",
"`&	c #563A30",
" *	c #38393A",
".*	c #383A3C",
"+*	c #333435",
"@*	c #2C2B2B",
"#*	c #1C1C1F",
"$*	c #1D1D20",
"%*	c #212122",
"&*	c #2D2D2D",
"**	c #463E3E",
"=*	c #252625",
"-*	c #282A29",
";*	c #4A342C",
">*	c #965737",
",*	c #3A3E3F",
"'*	c #262728",
")*	c #272525",
"!*	c #5E3F32",
"~*	c #444445",
"{*	c #393A3B",
"]*	c #333434",
"^*	c #313233",
"/*	c #3A3839",
"(*	c #333232",
"_*	c #201F21",
":*	c #1B1A1D",
"<*	c #262526",
"[*	c #2B2B2B",
"}*	c #2E2E2D",
"|*	c #453E3D",
"1*	c #1E1F1F",
"2*	c #272B2A",
"3*	c #272C2B",
"4*	c #463128",
"5*	c #915536",
"6*	c #383D3D",
"7*	c #343130",
"8*	c #292929",
"9*	c #272828",
"0*	c #343334",
"a*	c #312F31",
"b*	c #363537",
"c*	c #282729",
"d*	c #1B1B1D",
"e*	c #1D1D1F",
"f*	c #1F1F21",
"g*	c #1F2020",
"h*	c #2C2D2D",
"i*	c #443027",
"j*	c #8B5134",
"k*	c #333333",
"l*	c #282828",
"m*	c #202121",
"n*	c #2B2A2B",
"o*	c #323032",
"p*	c #3D3B3C",
"q*	c #2C2B2C",
"r*	c #393839",
"s*	c #1E1D1F",
"t*	c #1C1B1D",
"u*	c #1F1E20",
"v*	c #2A2A29",
"w*	c #2C2C2B",
"x*	c #383332",
"y*	c #1C1C1D",
"z*	c #2C2C2D",
"A*	c #47332B",
"B*	c #905435",
"C*	c #2E2E2E",
"D*	c #212022",
"E*	c #1F1D1E",
"F*	c #1E1E20",
"G*	c #232424",
"H*	c #2B2B2A",
"I*	c #3F3A39",
"J*	c #1D1D1D",
"K*	c #45332D",
"L*	c #915333",
"M*	c #393C3C",
"N*	c #343536",
"O*	c #323231",
"P*	c #1E1D20",
"Q*	c #1F1E21",
"R*	c #1E1E1F",
"S*	c #232324",
"T*	c #433C3B",
"U*	c #43332C",
"V*	c #8A4F31",
"W*	c #3A3938",
"X*	c #3C3430",
"Y*	c #343433",
"Z*	c #202022",
"`*	c #443C3B",
" =	c #1E1D1E",
".=	c #403938",
"+=	c #68493D",
"@=	c #3A3431",
"#=	c #433733",
"$=	c #343535",
"%=	c #323333",
"&=	c #262726",
"*=	c #2A2B2A",
"==	c #433D3C",
"-=	c #1E1E1E",
";=	c #464746",
">=	c #444D4F",
",=	c #343637",
"'=	c #313332",
")=	c #272928",
"!=	c #252726",
"~=	c #2C2C2C",
"{=	c #453F3E",
"]=	c #1F1E1F",
"^=	c #1F2425",
"/=	c #323838",
"(=	c #A86B51",
"_=	c #4E4542",
":=	c #444D50",
"<=	c #323232",
"[=	c #353636",
"}=	c #2F2F2E",
"|=	c #2B2D2B",
"1=	c #2C2E2D",
"2=	c #2C2E2C",
"3=	c #2B2C2B",
"4=	c #222020",
"5=	c #212020",
"6=	c #333939",
"7=	c #AA6D54",
"8=	c #4D413D",
"9=	c #3C484A",
"0=	c #353736",
"a=	c #333534",
"b=	c #2F302E",
"c=	c #2E302E",
"d=	c #2C2D2C",
"e=	c #423D3C",
"f=	c #232120",
"g=	c #272827",
"h=	c #1D2323",
"i=	c #A66D55",
"j=	c #4A403C",
"k=	c #38474A",
"l=	c #313131",
"m=	c #323332",
"n=	c #303130",
"o=	c #242525",
"p=	c #373534",
"q=	c #2C2A2A",
"r=	c #201E1F",
"s=	c #202726",
"t=	c #343A39",
"u=	c #A26B54",
"v=	c #473E3B",
"w=	c #37474A",
"x=	c #333331",
"y=	c #2D2F2D",
"z=	c #31302F",
"A=	c #2E2E2C",
"B=	c #2D2E2D",
"C=	c #2F2E2F",
"D=	c #292829",
"E=	c #252626",
"F=	c #32312F",
"G=	c #242524",
"H=	c #242828",
"I=	c #343838",
"J=	c #A16C56",
"K=	c #49403D",
"L=	c #2E2B2B",
"M=	c #372D2A",
"N=	c #2D2C2C",
"O=	c #342E2C",
"P=	c #322D2C",
"Q=	c #352D2A",
"R=	c #3B3837",
"S=	c #26292A",
"T=	c #303434",
"U=	c #A47360",
"V=	c #494340",
"W=	c #395052",
"X=	c #293639",
"Y=	c #3C2D2A",
"Z=	c #3C2F2B",
"`=	c #322C2A",
" -	c #2D2C2B",
".-	c #332C2A",
"+-	c #2D2C2D",
"@-	c #2E2726",
"#-	c #2B2827",
"$-	c #2C2A2B",
"%-	c #3B3838",
"&-	c #212121",
"*-	c #262829",
"=-	c #2A2F30",
"--	c #4E7170",
";-	c #3A686B",
">-	c #204C51",
",-	c #2B3437",
"'-	c #402D27",
")-	c #402C27",
"!-	c #382C29",
"~-	c #322C2B",
"{-	c #2A2C2B",
"]-	c #232626",
"^-	c #2F2624",
"/-	c #2F2725",
"(-	c #2F2B2B",
"_-	c #3B3737",
":-	c #222121",
"<-	c #202020",
"[-	c #252B2E",
"}-	c #417574",
"|-	c #1C5E5D",
"1-	c #264547",
"2-	c #284245",
"3-	c #2F4245",
"4-	c #2F4448",
"5-	c #274546",
"6-	c #263234",
"7-	c #212225",
"8-	c #222225",
"9-	c #222525",
"0-	c #242626",
"a-	c #2B2625",
"b-	c #2F2A27",
"c-	c #332D2D",
"d-	c #332F30",
"e-	c #181819",
"f-	c #242A2D",
"g-	c #17484F",
"h-	c #135156",
"i-	c #12555A",
"j-	c #185C5F",
"k-	c #18595A",
"l-	c #175355",
"m-	c #165052",
"n-	c #155253",
"o-	c #155355",
"p-	c #185559",
"q-	c #1B5A60",
"r-	c #1B5B62",
"s-	c #1E5B62",
"t-	c #223F43",
"u-	c #222A2D",
"v-	c #202627",
"w-	c #152122",
"x-	c #161D1E",
"y-	c #1B1F20",
"z-	c #1D2021",
"A-	c #1D2121",
"B-	c #171A1B",
"C-	c #191A1B",
"D-	c #547577",
"E-	c #3B6062",
"F-	c #144145",
"G-	c #144347",
"H-	c #15474B",
"I-	c #174B4E",
"J-	c #20201F",
"K-	c #141617",
"L-	c #17191A",
"M-	c #1D1F20",
"N-	c #1D1F21",
"O-	c #1A1D1F",
"P-	c #1A1C1F",
"Q-	c #1B1C1D",
"R-	c #232322",
"S-	c #212120",
"T-	c #171819",
"U-	c #181A1B",
"V-	c #1C1F21",
"W-	c #202C30",
"X-	c #233337",
"Y-	c #212A2E",
"Z-	c #202225",
"`-	c #848587",
" ;	c #3E3F40",
".;	c #1A1A1B",
"+;	c #1C1C1C",
"@;	c #171919",
"#;	c #302828",
"$;	c #2D2827",
"%;	c #2D2A2A",
"&;	c #212E31",
"*;	c #1E3B41",
"=;	c #7D8083",
"-;	c #404545",
";;	c #272626",
">;	c #2B2B2D",
",;	c #303D42",
"';	c #323F43",
");	c #262F32",
"!;	c #213D43",
"~;	c #6C7275",
"{;	c #555657",
"];	c #393A39",
"^;	c #272F31",
"/;	c #2C484B",
"(;	c #2B474A",
"_;	c #324A4D",
":;	c #39393A",
"<;	c #302F30",
"[;	c #343534",
"};	c #313031",
"|;	c #282627",
"1;	c #262E31",
"2;	c #263C43",
"3;	c #2B4046",
"4;	c #292E31",
"5;	c #2F2D2E",
"6;	c #787979",
"7;	c #656566",
"8;	c #333132",
"9;	c #2D292A",
"0;	c #303335",
"a;	c #36474A",
"b;	c #354648",
"c;	c #344143",
"d;	c #373537",
"e;	c #353435",
"f;	c #323132",
"g;	c #252629",
"h;	c #332928",
"i;	c #352E2C",
"j;	c #352F30",
"k;	c #342F2F",
"l;	c #262224",
"m;	c #757575",
"n;	c #252325",
"o;	c #242325",
"p;	c #252425",
"q;	c #242223",
"r;	c #232223",
"s;	c #2A282A",
"t;	c #5F5E60",
"u;	c #4D4D4E",
"v;	c #1D1B1C",
"w;	c #1E1C1E",
"x;	c #3E3D3E",
"                                                                                                                                ",
"                                                . + @ # $ % & * =                                                               ",
"                                          - ; > , ' ) ! ~ { { ! ] ^ / (                                                         ",
"                                      _ : < [ } | 1 2 3 4 5 6 7 8 9 0 a b c                                                     ",
"                                    d e f g h i j k k l m n o p q r s t u v w                                                   ",
"                                      x y z A B C A D E F G H H G I J K L M N O                                                 ",
"                                      P Q R S T U V W X Y Z `  ...+.@.#.$.%.&.*.                                                ",
"                                    =.-.;.>.,.'.).!.~.{.].^./.(._.:.<.[.}.|.1.2.                                                ",
"                                    3.4.5.6.7.8.9.0.a.b.c.d.e.f.g.h.i.j.k.l.m.n.                                                ",
"                                      o.p.q.r.s.t.u.v.w.x.y.<.z.A.B.C.D.E.F.G.H.I.J.                                            ",
"                                      K.L.M.N.O.P.Q.R.S.T.U.V.W.X.Y.Z.`. +.+++@+#+$+                                            ",
"                                        %+&+*+=+-+;+>+,+'+)+!+~+{+]+^+/+(+_+:+<+[+}+                                            ",
"                                          |+1+2+3+4+5+6+7+8+9+0+a+b+c+d+e+f+g+h+i+j+                                            ",
"                                        k+l+m+n+o+p+q+r+s+t+u+v+w+x+y+z+A+B+C+D+E+F+G+H+                                        ",
"                                        I+J+K+L+M+N+O+P+Q+R+S+T+U+V+W+X+Y+Z+`+ @.@+@@@#@$@%@                                    ",
"                                        &@*@=@-@;@>@,@'@)@!@~@{@]@^@/@(@_@:@<@:@[@}@|@1@2@3@4@                                  ",
"                                        5@6@7@8@9@0@a@b@c@d@e@f@g@h@i@j@k@l@m@n@o@p@q@r@s@t@u@v@                                ",
"                                      w@x@y@z@A@B@C@D@E@F@G@H@I@J@K@L@M@N@O@P@Q@R@S@T@U@V@W@X@Y@                                ",
"                                      Z@`@ #.#+#@###$#%#&#*#=#-#;#>#,#'#)#!#~#{#]#^#/#(#_#:#<#                                  ",
"                                      [#}#|#U@1#2#3#4#5#6#7#8#9#0#a#b#!#c#d#e#}+f#g#h#i#j#k#l#m#                                ",
"                                    n#o#p#q#r#s#t#u#2#*+v#v#w#x#y#z#A#B#C#D#E#F#G#H#I#J#K#L#M#                                  ",
"                                    N#O#P#Q#R#S#T#[.s#U#V#W#X#Y#Z#`#U# $.$+$@$#$$$%$T#2#&$*$                                    ",
"                                    =$-$;$>$,$'$<.)$!$~${$]$^$/$($_$:$<$[$[$}$|$1$2$                                            ",
"                                    3$4$5$6$7$8$9$0$U#a$b$c$d$e$f$%+g$h$i$j$[$k$l$m$                                            ",
"                                    n$o$p$q$r$s$t$u$v$w$.$!$v$s#x.x$y$z$g$A$B$C$D$E$                                            ",
"                                    F$G$H$I$J$K$z#L$M$w${#N$O$P$Q$R$&$S$T$U$V$W$X$Y$                                            ",
"                                    Z$`$ %.%+%-@@%)$#%$%%%&%*%=%-%;%>%,%'%)%!%~%{%]%                                            ",
"                                    ^%/%(%S._%z.y$:%}+<%[%}%|%1%2%3%4%0#5%6%7%8%9%0%                                            ",
"                                    a%b%c%I#d%z.}+T#e%f%g%h%i%i%j%k%l%m%n%o%p%q%{#r%                                            ",
"                                    s%t%u%v%w%x%h.y%z%A%B%C%+.D%E%<$F%G%H%I%J%K%L%M%                                            ",
"                                    N%O%P%v%Q%R%S%T%U%V%W%X%Y%h#Z%`% &.&+&@&#&$&%&&&*&                                          ",
"                                    =&-&;&>&,&'&)&!&~&{&]&^&/&(&_&:&3#<&!#[&[$}&|&1&2&                                          ",
"                                    3&4&{.5&6&7&8&9&0&a&b&c&d&e&f&g&h&i&j&k&l&{#m&s$n&                                          ",
"                                    o&p&q&J$r&K%s&t&a$u&k#v&w&x&y&z&A&B&C&D&B#E&F&G&9#                                          ",
"                                    H&I&J&&$@%s&L%s$c#Z%<$K&L&M&N&O&P&B#B&B#Q&R&S&T&r&U&                                        ",
"                                    V&W&X&@%2#Y&C#Z&`& *<+.*E#+*@*{#1$#*$*%*t$&***A#=*-*                                        ",
"                                    ;*>*,*u$'*7&s&)*!*~*{*]*^*/*(*_*:*1$8@<*[*}*|*1*2*3*                                        ",
"                                    4*5*6*7*8*9*s$n&9#9$f#0*a*b*c*d*e*f*f*T&[*}*|*g*h*A.                                        ",
"                                    i*j*)&k*M$l*t#m*n*o*o*p*q*r*s*t*u*f*f*K%v*w*x*y*z*&*                                        ",
"                                    A*B*#%C*9*'**+I%t#J%D*+&E*J%u*f*u*F*F*G*8*H*I*J*h.=&                                        ",
"                                    K*L*M*N*O*9#v#[&@&+&s$P*Q*f*f*s$F*R*R*S*8*n#T*J*z*y$                                        ",
"                                    U*V*W*X*Y*k*B.[&@&l*z#Z*u*#&#&#&#&R*F*S*l*H*`* =q*[*                                        ",
"                                    .=+=@=#=$=$=%=w$M$8*8*&=m*#&1*R*R*1*#&Q&z#*===-=q*8*+*                                      ",
"                                    ;=>=k*,=&$.%$='=B.-*M$)=!=t&#&#&1*#&s$s&7&~={=]=T&8*^=/=                                    ",
"                                  (=_=:=<=N*$=$=[=}=|=1=1=1=2=3=#&F*#&s$Z*t#9#p+|*4=5=l*{$6=                                    ",
"                                  7=8=9=r&N*[=0=a=b=}=u$u$c=U&C*d=G*T&S*I%K%7&B.e=f=5=g=h=6=                                    ",
"                                  i=j=k=0$]*l=m=n=u$U&U&U&U&U&U&r&[&Y&[&I%o='*o=p=q=r=9*s=t=                                    ",
"                                  u=v=w=z*_#x=y=z=A=&*B=@%C*C*C=g#D=@&[&@&9*E=Y&h*F=J*G=H=I=                                    ",
"                                  J=K=w=z.h.N%L=M=N=O=P=Q=&*h.C*g#z*[&[&M&9*'*[&[*R=g*n&S=T=                                    ",
"                                  U=V=W=X=z.h.Y=Z=`= -.-[*~=+-B.z*`%l*@-M&'*'*#-$-%-&-s$*-=-                                    ",
"                                      --;->-,-K&'-)-!-~-{-D=[&Y&Y&*+*+]-U#Y&^-/-(-_-:-<-<$[-                                    ",
"                                          }-|-1-2-3-4-5-6-7-8-C#C#A#.$9-0-a-/-b-c-d-e-Q*!#f-                                    ",
"                                                    g-h-i-j-k-l-m-n-o-l-p-q-r-s-t-D*|$J*{#u-                                    ",
"                                                    z#s$v-w-x-y-z-A-B-W$C-      D-E-F-G-H-I-                                    ",
"                                                      L$J-K-L-M-N-M-O-P-Q-                                                      ",
"                                                      R-S-T-U-V-W-X-Y-Z-`-                                                      ",
"                                                  L  ;.;+;@;E*#;$;%;&;*;=;                                                      ",
"                                              -;:&h.;;u*y*n&>;y.,;';);!;~;                                                      ",
"                                    {;];^;/;(;_;:;<;[;};|;@&1;2;3;4;5;'&E&6;                                                    ",
"                                  7;8;9;0;a;b;c;d;e;s%>%5;f;<.g;h;i;j;k;l;m;                                                    ",
"                                    q*n;o;p;q;r;n;o;p;J%s;t;u;I#v;E*E*w;x;                                                      ",
"                                                                                                                                ",
"                                                                                                                                ",
"                                                                                                                                "};
