/* XPM */
static char * profile_xpm[] = {
"64 64 1081 2",
"  	c None",
". 	c #61B1B1",
"+ 	c #2FA5A3",
"@ 	c #58B2B0",
"# 	c #22ADAB",
"$ 	c #21B3B1",
"% 	c #20B3B1",
"& 	c #1FB3B0",
"* 	c #20B1AE",
"= 	c #32B1AE",
"- 	c #6DBFBF",
"; 	c #5ABAB9",
"> 	c #77B6B6",
", 	c #359E9C",
"' 	c #2E8987",
") 	c #337F7C",
"! 	c #3C7776",
"~ 	c #3B7F7E",
"{ 	c #3C8785",
"] 	c #3A8785",
"^ 	c #3B8684",
"/ 	c #398481",
"( 	c #368986",
"_ 	c #2F9692",
": 	c #2AA5A3",
"< 	c #23B2B1",
"[ 	c #4BB9B8",
"} 	c #59B8B6",
"| 	c #64B8B8",
"1 	c #449798",
"2 	c #298E8E",
"3 	c #34827F",
"4 	c #397875",
"5 	c #415E5D",
"6 	c #445A59",
"7 	c #455A58",
"8 	c #425453",
"9 	c #3E4F4D",
"0 	c #415553",
"a 	c #455B59",
"b 	c #465D5A",
"c 	c #475F5C",
"d 	c #427F7B",
"e 	c #3F7776",
"f 	c #3C7B79",
"g 	c #3A7D7D",
"h 	c #328183",
"i 	c #419192",
"j 	c #67BCBD",
"k 	c #477E7F",
"l 	c #237172",
"m 	c #306666",
"n 	c #396565",
"o 	c #3F5C5B",
"p 	c #43605F",
"q 	c #436160",
"r 	c #42605E",
"s 	c #3E5A58",
"t 	c #39514F",
"u 	c #344544",
"v 	c #3B4847",
"w 	c #465251",
"x 	c #444F4F",
"y 	c #444E4E",
"z 	c #435453",
"A 	c #435454",
"B 	c #435757",
"C 	c #3E6C6C",
"D 	c #2BAAAA",
"E 	c #43A1A6",
"F 	c #6E8181",
"G 	c #185B5D",
"H 	c #264F50",
"I 	c #323839",
"J 	c #343638",
"K 	c #3D4949",
"L 	c #3E4849",
"M 	c #3F4445",
"N 	c #3E4343",
"O 	c #3E4444",
"P 	c #41504F",
"Q 	c #3F6461",
"R 	c #405E5D",
"S 	c #434B4C",
"T 	c #434A4A",
"U 	c #425151",
"V 	c #289C9C",
"W 	c #34AEAD",
"X 	c #6F8080",
"Y 	c #1A5B5D",
"Z 	c #244C4D",
"` 	c #2D3031",
" .	c #323435",
"..	c #353839",
"+.	c #393D3D",
"@.	c #404445",
"#.	c #404545",
"$.	c #404546",
"%.	c #404646",
"&.	c #3B6361",
"*.	c #3B6B68",
"=.	c #405554",
"-.	c #414B4C",
";.	c #2A8B8B",
">.	c #1CA0A2",
",.	c #3FEEEB",
"'.	c #7FF9F5",
").	c #868E90",
"!.	c #204547",
"~.	c #203D3F",
"{.	c #28363B",
"].	c #2D2F30",
"^.	c #2E3030",
"/.	c #303132",
"(.	c #353838",
"_.	c #3B3F40",
":.	c #404547",
"<.	c #3F4547",
"[.	c #404446",
"}.	c #3F4345",
"|.	c #3E4344",
"1.	c #3F4B4B",
"2.	c #3C5050",
"3.	c #298B8C",
"4.	c #257476",
"5.	c #218988",
"6.	c #38EFEA",
"7.	c #6BF5F3",
"8.	c #79797A",
"9.	c #434443",
"0.	c #3B3E3C",
"a.	c #3D403E",
"b.	c #363A3A",
"c.	c #283E41",
"d.	c #2D3639",
"e.	c #2E2F30",
"f.	c #2D2D2E",
"g.	c #2F2E30",
"h.	c #333335",
"i.	c #37393B",
"j.	c #3D4244",
"k.	c #3E4345",
"l.	c #3D4445",
"m.	c #3E4B4D",
"n.	c #2F7B79",
"o.	c #1E8889",
"p.	c #265256",
"q.	c #1BB2B4",
"r.	c #3CECEB",
"s.	c #7DF5F3",
"t.	c #535353",
"u.	c #363837",
"v.	c #3C3F3E",
"w.	c #3E4141",
"x.	c #454A4A",
"y.	c #4D5351",
"z.	c #444948",
"A.	c #3B4040",
"B.	c #33383A",
"C.	c #2A2C2E",
"D.	c #272629",
"E.	c #2D2C2F",
"F.	c #313032",
"G.	c #353436",
"H.	c #3B3E40",
"I.	c #405357",
"J.	c #307877",
"K.	c #323B3B",
"L.	c #3C4948",
"M.	c #287A79",
"N.	c #35B2B2",
"O.	c #9FCFCE",
"P.	c #4B4C4C",
"Q.	c #343434",
"R.	c #393A3A",
"S.	c #453B39",
"T.	c #553530",
"U.	c #424645",
"V.	c #424444",
"W.	c #393C3C",
"X.	c #434747",
"Y.	c #424647",
"Z.	c #3C4041",
"`.	c #303234",
" +	c #28292B",
".+	c #323B3D",
"++	c #376766",
"@+	c #2E7171",
"#+	c #252A2C",
"$+	c #273335",
"%+	c #1D1F20",
"&+	c #2C3C3B",
"*+	c #2E3B3D",
"=+	c #93A0A3",
"-+	c #757877",
";+	c #727472",
">+	c #747778",
",+	c #233B3C",
"'+	c #1F6967",
")+	c #217B76",
"!+	c #1F7872",
"~+	c #207C77",
"{+	c #1F7A75",
"]+	c #228079",
"^+	c #292D2E",
"/+	c #2B2C2D",
"(+	c #303030",
"_+	c #333434",
":+	c #363738",
"<+	c #373E3F",
"[+	c #374C4D",
"}+	c #343F40",
"|+	c #61463C",
"1+	c #7D4932",
"2+	c #82675B",
"3+	c #75706E",
"4+	c #696E6C",
"5+	c #5B605D",
"6+	c #40524C",
"7+	c #2B5451",
"8+	c #285F5E",
"9+	c #19817E",
"0+	c #276D6B",
"a+	c #2F5A59",
"b+	c #36807C",
"c+	c #436563",
"d+	c #416A68",
"e+	c #397774",
"f+	c #27ADAA",
"g+	c #28B2AC",
"h+	c #26B1AB",
"i+	c #258B87",
"j+	c #255050",
"k+	c #252A2B",
"l+	c #2D2E2F",
"m+	c #343A3B",
"n+	c #29474C",
"o+	c #513D35",
"p+	c #A05A37",
"q+	c #C68F73",
"r+	c #898F90",
"s+	c #414F4C",
"t+	c #3D4644",
"u+	c #38413F",
"v+	c #2B4647",
"w+	c #236262",
"x+	c #1F6969",
"y+	c #2F4E50",
"z+	c #2E5957",
"A+	c #2D4240",
"B+	c #3D4442",
"C+	c #475A58",
"D+	c #3D827F",
"E+	c #328D8B",
"F+	c #2F8584",
"G+	c #308F8A",
"H+	c #2D8681",
"I+	c #33817C",
"J+	c #347A76",
"K+	c #2C5E5C",
"L+	c #1E2E2E",
"M+	c #242D2D",
"N+	c #2E4E51",
"O+	c #2E3231",
"P+	c #74412C",
"Q+	c #9D5334",
"R+	c #5C9399",
"S+	c #30686C",
"T+	c #3D4B48",
"U+	c #3B4947",
"V+	c #343A38",
"W+	c #192D2F",
"X+	c #282B2B",
"Y+	c #404341",
"Z+	c #263435",
"`+	c #3F3D3A",
" @	c #465551",
".@	c #446566",
"+@	c #437B78",
"@@	c #37716D",
"#@	c #20B8AE",
"$@	c #27E4DB",
"%@	c #23D4C8",
"&@	c #405758",
"*@	c #4A6463",
"=@	c #397572",
"-@	c #2C605E",
";@	c #294042",
">@	c #2F3637",
",@	c #3A3737",
"'@	c #8B492B",
")@	c #A25836",
"!@	c #8D9B9F",
"~@	c #27767F",
"{@	c #18AFB6",
"]@	c #233032",
"^@	c #306F74",
"/@	c #292E30",
"(@	c #1A1C20",
"_@	c #2A292A",
":@	c #302827",
"<@	c #4B322C",
"[@	c #362D2B",
"}@	c #493C36",
"|@	c #3D3E3A",
"1@	c #424A49",
"2@	c #446463",
"3@	c #386360",
"4@	c #26827D",
"5@	c #24948D",
"6@	c #22908A",
"7@	c #3C5757",
"8@	c #3B4C4B",
"9@	c #3D4F4F",
"0@	c #38585A",
"a@	c #325F62",
"b@	c #263A3E",
"c@	c #382F2D",
"d@	c #673B2A",
"e@	c #83492F",
"f@	c #29A4A9",
"g@	c #1E9095",
"h@	c #202729",
"i@	c #354346",
"j@	c #272829",
"k@	c #252527",
"l@	c #323233",
"m@	c #221F20",
"n@	c #2F2524",
"o@	c #502F26",
"p@	c #483831",
"q@	c #503B33",
"r@	c #443934",
"s@	c #44433F",
"t@	c #3C4F4E",
"u@	c #3F5352",
"v@	c #435754",
"w@	c #455754",
"x@	c #435655",
"y@	c #434F4E",
"z@	c #513E38",
"A@	c #62524C",
"B@	c #35484C",
"C@	c #4F4F4D",
"D@	c #A15835",
"E@	c #B25E32",
"F@	c #80513F",
"G@	c #6E6C6A",
"H@	c #68A2A1",
"I@	c #3E3E3E",
"J@	c #3E3D3F",
"K@	c #313132",
"L@	c #414141",
"M@	c #1F1F21",
"N@	c #373838",
"O@	c #2F3031",
"P@	c #211F20",
"Q@	c #402B24",
"R@	c #543023",
"S@	c #6D3825",
"T@	c #613322",
"U@	c #6D3B29",
"V@	c #743E29",
"W@	c #82452D",
"X@	c #6E3D2B",
"Y@	c #6A3C2D",
"Z@	c #6E3D2D",
"`@	c #4F4545",
" #	c #51342D",
".#	c #314A4F",
"+#	c #316D6F",
"@#	c #54534F",
"##	c #8C553F",
"$#	c #96512E",
"%#	c #585654",
"&#	c #6D7D82",
"*#	c #235553",
"=#	c #2C2F31",
"-#	c #424242",
";#	c #3B3B3C",
">#	c #373737",
",#	c #3D3C3D",
"'#	c #222224",
")#	c #2F3030",
"!#	c #1B1B1E",
"~#	c #212021",
"{#	c #2B2928",
"]#	c #32302F",
"^#	c #262525",
"/#	c #272526",
"(#	c #312B2B",
"_#	c #3B2F2E",
":#	c #393536",
"<#	c #3C3C3D",
"[#	c #3F3D3F",
"}#	c #373738",
"|#	c #292729",
"1#	c #2F2E32",
"2#	c #2C373A",
"3#	c #2B4C51",
"4#	c #375256",
"5#	c #8E4E2E",
"6#	c #595857",
"7#	c #4C9896",
"8#	c #23393B",
"9#	c #272628",
"0#	c #2B2B2D",
"a#	c #29282A",
"b#	c #262628",
"c#	c #1F2022",
"d#	c #1B1B1D",
"e#	c #313232",
"f#	c #2C2D2E",
"g#	c #212122",
"h#	c #1F1D20",
"i#	c #19181B",
"j#	c #1F2223",
"k#	c #1E3839",
"l#	c #1C5757",
"m#	c #234A4B",
"n#	c #262A2C",
"o#	c #222325",
"p#	c #1E1E22",
"q#	c #2B2B2C",
"r#	c #323334",
"s#	c #262526",
"t#	c #292B2D",
"u#	c #262D30",
"v#	c #2E464A",
"w#	c #385457",
"x#	c #904F2E",
"y#	c #3D2720",
"z#	c #616363",
"A#	c #696B6D",
"B#	c #2E2E2F",
"C#	c #232526",
"D#	c #17171A",
"E#	c #151618",
"F#	c #1D1E1F",
"G#	c #282A2B",
"H#	c #212022",
"I#	c #2E2D2E",
"J#	c #3C4F52",
"K#	c #307576",
"L#	c #28B6B4",
"M#	c #2B8A8A",
"N#	c #277E7D",
"O#	c #295859",
"P#	c #242426",
"Q#	c #404344",
"R#	c #3B3F3F",
"S#	c #242525",
"T#	c #274042",
"U#	c #28787A",
"V#	c #36686B",
"W#	c #3D797C",
"X#	c #A95A31",
"Y#	c #5B3626",
"Z#	c #666768",
"`#	c #5A5F61",
" $	c #1A1B1D",
".$	c #1A1A1C",
"+$	c #19191C",
"@$	c #1D1E20",
"#$	c #242526",
"$$	c #323436",
"%$	c #2B2C2E",
"&$	c #2D4B4C",
"*$	c #2E5D5E",
"=$	c #305756",
"-$	c #363939",
";$	c #282628",
">$	c #252628",
",$	c #26282A",
"'$	c #2E2F2F",
")$	c #283F41",
"!$	c #1E7376",
"~$	c #2E4D4F",
"{$	c #2B7C7A",
"]$	c #AA7B62",
"^$	c #613929",
"/$	c #69696B",
"($	c #5A8386",
"_$	c #135858",
":$	c #151718",
"<$	c #181719",
"[$	c #2D211F",
"}$	c #36393A",
"|$	c #343637",
"1$	c #393D3F",
"2$	c #414547",
"3$	c #363636",
"4$	c #454240",
"5$	c #2C2A29",
"6$	c #171719",
"7$	c #2D2E30",
"8$	c #393A3B",
"9$	c #252526",
"0$	c #2C2C2E",
"a$	c #36605B",
"b$	c #35908A",
"c$	c #A68C75",
"d$	c #603929",
"e$	c #6C6E70",
"f$	c #5D878A",
"g$	c #105A59",
"h$	c #161719",
"i$	c #272120",
"j$	c #552F22",
"k$	c #201D1D",
"l$	c #312F30",
"m$	c #353433",
"n$	c #373A3A",
"o$	c #325959",
"p$	c #345151",
"q$	c #304242",
"r$	c #181819",
"s$	c #28292A",
"t$	c #262829",
"u$	c #2A2B2C",
"v$	c #38393B",
"w$	c #394F54",
"x$	c #47585C",
"y$	c #9E6343",
"z$	c #573527",
"A$	c #6C6E6E",
"B$	c #648B8E",
"C$	c #126969",
"D$	c #183334",
"E$	c #211F1F",
"F$	c #43261E",
"G$	c #1E1A1A",
"H$	c #343231",
"I$	c #363333",
"J$	c #2F4646",
"K$	c #1F6062",
"L$	c #277072",
"M$	c #228685",
"N$	c #3B6A6B",
"O$	c #294040",
"P$	c #212E2F",
"Q$	c #3D3F41",
"R$	c #303032",
"S$	c #3A3B3C",
"T$	c #333435",
"U$	c #424546",
"V$	c #915A3C",
"W$	c #4F3326",
"X$	c #707070",
"Y$	c #636869",
"Z$	c #1C3A3D",
"`$	c #18484A",
" %	c #144C50",
".%	c #1F3235",
"+%	c #201E1F",
"@%	c #2D2B2A",
"#%	c #2B2929",
"$%	c #284745",
"%%	c #296869",
"&%	c #2D6C6C",
"*%	c #2D6869",
"=%	c #3B6A68",
"-%	c #245C5C",
";%	c #195B5A",
">%	c #394646",
",%	c #454749",
"'%	c #393B3C",
")%	c #2F2F31",
"!%	c #38383A",
"~%	c #313134",
"{%	c #414244",
"]%	c #905738",
"^%	c #4F3427",
"/%	c #6E6E6D",
"(%	c #5E5F5F",
"_%	c #1D1C1D",
":%	c #202426",
"<%	c #1E464A",
"[%	c #174A4D",
"}%	c #124245",
"|%	c #1C2E32",
"1%	c #1F3538",
"2%	c #1C605D",
"3%	c #333E3F",
"4%	c #343B3C",
"5%	c #34393C",
"6%	c #3C5556",
"7%	c #38494B",
"8%	c #226D6C",
"9%	c #265555",
"0%	c #323336",
"a%	c #343436",
"b%	c #313133",
"c%	c #925636",
"d%	c #503426",
"e%	c #727272",
"f%	c #505252",
"g%	c #212223",
"h%	c #272728",
"i%	c #29292A",
"j%	c #1D2325",
"k%	c #234549",
"l%	c #26494D",
"m%	c #212324",
"n%	c #383E40",
"o%	c #394043",
"p%	c #3A4143",
"q%	c #363B3E",
"r%	c #31363A",
"s%	c #1F6D6C",
"t%	c #275C5B",
"u%	c #3D3D3F",
"v%	c #424344",
"w%	c #915636",
"x%	c #4E3124",
"y%	c #717271",
"z%	c #202A2D",
"A%	c #324D52",
"B%	c #314548",
"C%	c #272C2E",
"D%	c #1E1E20",
"E%	c #292929",
"F%	c #272527",
"G%	c #23292B",
"H%	c #2C2E30",
"I%	c #343839",
"J%	c #33383B",
"K%	c #2F3336",
"L%	c #2C3033",
"M%	c #2F3F43",
"N%	c #2E4345",
"O%	c #225F5D",
"P%	c #3A3A3B",
"Q%	c #414242",
"R%	c #343435",
"S%	c #464748",
"T%	c #955838",
"U%	c #503224",
"V%	c #6E6F6F",
"W%	c #1F373A",
"X%	c #286A6D",
"Y%	c #325E60",
"Z%	c #2C3435",
"`%	c #1D1D20",
" &	c #206666",
".&	c #207F7F",
"+&	c #2F6065",
"@&	c #25908E",
"#&	c #25948F",
"$&	c #395055",
"%&	c #355154",
"&&	c #159C99",
"*&	c #2D3334",
"=&	c #3C3D3D",
"-&	c #383839",
";&	c #48494A",
">&	c #9C5B38",
",&	c #553426",
"'&	c #1D1E1E",
")&	c #1C1C1C",
"!&	c #312C2B",
"~&	c #1D1D1D",
"{&	c #17181A",
"]&	c #122C2E",
"^&	c #0E4040",
"/&	c #1A1C1E",
"(&	c #1A1A1F",
"_&	c #343C3D",
":&	c #2A7A76",
"<&	c #1A9891",
"[&	c #3D5B5C",
"}&	c #3C595B",
"|&	c #239995",
"1&	c #334E4F",
"2&	c #314042",
"3&	c #1C6F6C",
"4&	c #1D2021",
"5&	c #232425",
"6&	c #3C3E3F",
"7&	c #454A4C",
"8&	c #895641",
"9&	c #72442D",
"0&	c #6F706F",
"a&	c #272828",
"b&	c #222323",
"c&	c #4C443F",
"d&	c #1C1D1F",
"e&	c #1B2022",
"f&	c #1A2728",
"g&	c #1B1C1E",
"h&	c #2D3032",
"i&	c #2F5350",
"j&	c #283133",
"k&	c #3A3E41",
"l&	c #3B3D3E",
"m&	c #1E2021",
"n&	c #222324",
"o&	c #262728",
"p&	c #3E4243",
"q&	c #815440",
"r&	c #76462D",
"s&	c #686869",
"t&	c #A6A6A6",
"u&	c #262726",
"v&	c #262626",
"w&	c #232424",
"x&	c #4D4541",
"y&	c #312F2E",
"z&	c #252626",
"A&	c #1D1D1F",
"B&	c #1D1C1F",
"C&	c #1A191D",
"D&	c #1C1C1E",
"E&	c #222124",
"F&	c #27282A",
"G&	c #2C2F2F",
"H&	c #2B2D2E",
"I&	c #2F2F2E",
"J&	c #222424",
"K&	c #242425",
"L&	c #262828",
"M&	c #3B3D3D",
"N&	c #7A4E3B",
"O&	c #72432A",
"P&	c #646364",
"Q&	c #9FA1A1",
"R&	c #212121",
"S&	c #232423",
"T&	c #252525",
"U&	c #4B4340",
"V&	c #292A29",
"W&	c #232324",
"X&	c #202021",
"Y&	c #1B1C1D",
"Z&	c #2F2E2E",
"`&	c #333635",
" *	c #303333",
".*	c #333536",
"+*	c #3D3E3F",
"@*	c #5B3B2F",
"#*	c #4A3027",
"$*	c #353738",
"%*	c #754B38",
"&*	c #6E4128",
"**	c #636262",
"=*	c #9C9D9D",
"-*	c #232323",
";*	c #47403C",
">*	c #2C2C2C",
",*	c #282828",
"'*	c #222223",
")*	c #1E1F20",
"!*	c #1B1C1C",
"~*	c #323131",
"{*	c #3C3939",
"]*	c #393B3A",
"^*	c #383B39",
"/*	c #484A4C",
"(*	c #42312C",
"_*	c #3B2C28",
":*	c #202122",
"<*	c #262727",
"[*	c #272729",
"}*	c #2F2D2D",
"|*	c #784E3A",
"1*	c #724328",
"2*	c #5C5B5B",
"3*	c #A1A2A2",
"4*	c #453D3B",
"5*	c #333130",
"6*	c #2C2B2B",
"7*	c #272727",
"8*	c #1F1F20",
"9*	c #1F2020",
"0*	c #191A1B",
"a*	c #1C1E1E",
"b*	c #2C2E2E",
"c*	c #292B2B",
"d*	c #2C2D2D",
"e*	c #262627",
"f*	c #353230",
"g*	c #3A3C3E",
"h*	c #784F39",
"i*	c #75472B",
"j*	c #525152",
"k*	c #9E9E9F",
"l*	c #211F21",
"m*	c #3C3534",
"n*	c #292928",
"o*	c #1E1E1E",
"p*	c #1E1E1F",
"q*	c #1A191B",
"r*	c #252627",
"s*	c #282729",
"t*	c #292829",
"u*	c #333333",
"v*	c #39393A",
"w*	c #764A37",
"x*	c #74442A",
"y*	c #999999",
"z*	c #463C3A",
"A*	c #332F2E",
"B*	c #282728",
"C*	c #764B38",
"D*	c #77452A",
"E*	c #939394",
"F*	c #463D39",
"G*	c #34302F",
"H*	c #1E1D20",
"I*	c #282829",
"J*	c #28282A",
"K*	c #333334",
"L*	c #333231",
"M*	c #363637",
"N*	c #744835",
"O*	c #744329",
"P*	c #4D4E4D",
"Q*	c #8D8D8D",
"R*	c #2A2A2B",
"S*	c #463D3A",
"T*	c #322F2E",
"U*	c #212123",
"V*	c #2C2C2D",
"W*	c #353636",
"X*	c #343332",
"Y*	c #403631",
"Z*	c #6C4432",
"`*	c #714027",
" =	c #919090",
".=	c #2F3334",
"+=	c #2B2C2C",
"@=	c #463E3B",
"#=	c #202022",
"$=	c #252425",
"%=	c #2D2D2D",
"&=	c #343535",
"*=	c #363737",
"==	c #383736",
"-=	c #3B3533",
";=	c #3F3A39",
">=	c #463F3E",
",=	c #C3C3C3",
"'=	c #454B4C",
")=	c #1D2425",
"!=	c #292A2A",
"~=	c #473E3B",
"{=	c #302E2E",
"]=	c #282929",
"^=	c #1E1D1F",
"/=	c #2A2B2B",
"(=	c #373837",
"_=	c #383838",
":=	c #35393B",
"<=	c #9F8279",
"[=	c #454C4D",
"}=	c #1C2526",
"|=	c #292A2B",
"1=	c #1E1F1F",
"2=	c #2E2C2D",
"3=	c #201F21",
"4=	c #2F3130",
"5=	c #313332",
"6=	c #313231",
"7=	c #353637",
"8=	c #363A3D",
"9=	c #3D4446",
"0=	c #8C4D34",
"a=	c #BD9081",
"b=	c #4A5051",
"c=	c #2A2A2A",
"d=	c #3F3736",
"e=	c #2A2929",
"f=	c #242424",
"g=	c #2E2F2E",
"h=	c #2F302F",
"i=	c #2E302F",
"j=	c #2E312F",
"k=	c #2E3130",
"l=	c #35393C",
"m=	c #3E4547",
"n=	c #8B4F35",
"o=	c #BE9483",
"p=	c #4C5252",
"q=	c #1E2628",
"r=	c #242323",
"s=	c #2D2B2B",
"t=	c #272726",
"u=	c #2D2E2E",
"v=	c #333433",
"w=	c #313131",
"x=	c #3E4749",
"y=	c #8C4F36",
"z=	c #BD9585",
"A=	c #4B4F50",
"B=	c #212729",
"C=	c #1A1B1B",
"D=	c #2D292A",
"E=	c #262625",
"F=	c #2D2F2E",
"G=	c #2F2E2F",
"H=	c #332D2E",
"I=	c #353B3E",
"J=	c #3D484B",
"K=	c #8D4F36",
"L=	c #BF9888",
"M=	c #494E4F",
"N=	c #242A2C",
"O=	c #1A1A1A",
"P=	c #333131",
"Q=	c #2C2929",
"R=	c #252524",
"S=	c #252625",
"T=	c #2F2623",
"U=	c #35302F",
"V=	c #322F30",
"W=	c #302F2F",
"X=	c #3B2D2A",
"Y=	c #3F2D29",
"Z=	c #332E2E",
"`=	c #2E2E30",
" -	c #2D2F31",
".-	c #313D40",
"+-	c #3C484B",
"@-	c #894E36",
"#-	c #BA9485",
"$-	c #242A2B",
"%-	c #1A1A1B",
"&-	c #353334",
"*-	c #302B2B",
"=-	c #342421",
"--	c #292524",
";-	c #2A2525",
">-	c #232525",
",-	c #2B2B2B",
"'-	c #2D2D2F",
")-	c #382E2D",
"!-	c #312E2D",
"~-	c #422E29",
"{-	c #29393D",
"]-	c #23474B",
"^-	c #506E71",
"/-	c #828586",
"(-	c #D0CDCB",
"_-	c #F5F1F0",
":-	c #464C4E",
"<-	c #22282A",
"[-	c #19191A",
"}-	c #2A2828",
"|-	c #352E2B",
"1-	c #342623",
"2-	c #2F2523",
"3-	c #312422",
"4-	c #232426",
"5-	c #252426",
"6-	c #2B2D30",
"7-	c #313B3E",
"8-	c #423735",
"9-	c #433735",
"0-	c #383737",
"a-	c #2D4F53",
"b-	c #316F73",
"c-	c #66878B",
"d-	c #4F5557",
"e-	c #1E1D1D",
"f-	c #2B3131",
"g-	c #244649",
"h-	c #204245",
"i-	c #204244",
"j-	c #1E3F42",
"k-	c #1D3E40",
"l-	c #1D3E41",
"m-	c #1D3E42",
"n-	c #1E3E41",
"o-	c #1E3D41",
"p-	c #1F3F42",
"q-	c #204549",
"r-	c #116168",
"s-	c #0F545C",
"t-	c #375960",
"u-	c #719296",
"v-	c #709396",
"w-	c #829F9E",
"x-	c #515E5F",
"y-	c #1A3234",
"z-	c #1B3134",
"A-	c #183033",
"B-	c #224B4F",
"C-	c #2B4F54",
"D-	c #749596",
"E-	c #1F3E40",
"F-	c #173939",
"G-	c #16383A",
"H-	c #1B3B3E",
"I-	c #1A3C3D",
"J-	c #1A3C3E",
"K-	c #193C3E",
"L-	c #123A3C",
"M-	c #154040",
"N-	c #1D2224",
"O-	c #1A181B",
"P-	c #4F4C4E",
"Q-	c #17181B",
"R-	c #141517",
"S-	c #1F1E1E",
"T-	c #6B6A6A",
"U-	c #929292",
"V-	c #202325",
"W-	c #1C2D2F",
"X-	c #1F2A2B",
"Y-	c #1F2426",
"Z-	c #1D1D1E",
"`-	c #151717",
" ;	c #1F1E1F",
".;	c #ABAAAA",
"+;	c #1D1B1C",
"@;	c #211E20",
"#;	c #202929",
"$;	c #1D3031",
"%;	c #242324",
"&;	c #171919",
"*;	c #1E1F1E",
"=;	c #1B1B1C",
"-;	c #6C6B6B",
";;	c #1A4143",
">;	c #312827",
",;	c #352927",
"';	c #382A27",
");	c #2E2625",
"!;	c #191B1B",
"~;	c #1A1C1C",
"{;	c #323739",
"];	c #4C5053",
"^;	c #545454",
"/;	c #23393D",
"(;	c #24474E",
"_;	c #284549",
":;	c #28373B",
"<;	c #353130",
"[;	c #312E2F",
"};	c #282425",
"|;	c #474748",
"1;	c #383738",
"2;	c #2D2C2C",
"3;	c #2A2928",
"4;	c #706F71",
"5;	c #323030",
"6;	c #312D2C",
"7;	c #2E2A2A",
"8;	c #263539",
"9;	c #2E2D2F",
"0;	c #2B2A2C",
"a;	c #383739",
"b;	c #312E30",
"c;	c #2B2729",
"d;	c #3D3537",
"e;	c #394B4F",
"f;	c #2F6468",
"g;	c #2D5252",
"h;	c #2A2424",
"i;	c #344248",
"j;	c #5F6364",
"k;	c #494849",
"l;	c #2B2323",
"m;	c #2A2223",
"n;	c #2A2222",
"o;	c #282021",
"p;	c #201D1E",
"q;	c #424142",
"r;	c #434143",
"s;	c #242223",
"t;	c #2D2728",
"u;	c #302B2A",
"v;	c #322C2B",
"w;	c #342F2E",
"x;	c #2F2A29",
"y;	c #282223",
"z;	c #322E2F",
"A;	c #656464",
"B;	c #9D9C9C",
"C;	c #7F7F80",
"D;	c #767577",
"                                                                                                                                ",
"                                                                                                                                ",
"                                                                                                                                ",
"                                                        . + @ # $ $ % & * = - ;                                                 ",
"                                                    > , ' ) ! ~ { ] ^ / ( _ : < [ } |                                           ",
"                                                  1 2 3 4 5 6 7 8 9 0 a b c d e f g h i j                                       ",
"                                                k l m n o p q r s t u v w x y z A B C D E                                       ",
"                                              F G H I J K L M N N O M P Q R S T S U V W                                         ",
"                                              X Y Z `  ...+.N @.#.$.$.@.%.&.*.=.-.;.>.,.'.                                      ",
"                                              ).!.~.{.].^.^./.(._.:.<.[.}.|.1.2.3.4.5.6.7.                                      ",
"                                            8.9.0.a.b.c.d.e.f.f.g.h.i.j.k.l.m.n.o.p.q.r.s.                                      ",
"                                          t.f.u.v.w.x.y.z.A.B.C.D.E.F.G.H.L I.J.K.L.M.N.O.                                      ",
"                                          P.Q.R.S.T.9.U.V.W.X.Y.Y.Z.`. +.+++@+#+$+%+&+*+=+                                      ",
"                                          -+;+>+,+'+)+!+~+{+]+^+/+(+_+:+<+[+}+|+1+2+3+                                          ",
"                                      4+5+6+7+8+9+0+a+b+c+d+e+f+g+h+i+j+k+l+m+n+o+p+q+                                          ",
"                                  r+s+t+u+v+w+x+y+z+A+B+C+D+E+F+G+H+I+J+K+L+M+N+O+P+Q+                                          ",
"                                R+S+T+U+V+W+Y X+Y+Z+`+ @.@+@@@#@$@%@&@*@=@-@;@>@,@'@)@                                          ",
"                              !@~@{@]@^@/@(@_@:@<@[@}@|@1@2@3@4@5@6@7@8@9@0@a@b@c@d@e@                                          ",
"                                f@g@h@i@j@k@l@m@n@o@p@q@r@s@t@u@v@w@x@y@x z@A@B@C@D@E@F@G@                                      ",
"                                H@W.Q.I@J@K@L@M@N@O@P@Q@R@S@T@U@V@W@X@Y@Z@`@ #.#+#@###$#%#                                      ",
"                              &#*#=#l@-#;#>#,#'#L@)#!#~#{#]#^#/#(#_#:#<#[#}#|#1#2#3#4#5#6#                                      ",
"                                7#8#9#0#a#b#c#d#e#f#g#h#i#j#k#l#m#n#o#p#q#r#s#t#u#v#w#x#y#z#                                    ",
"                                    A#B#l+C#D#E#F#G#c#H#I#J#K#L#M#N#O#P#Q#R#S#T#U#V#W#X#Y#Z#                                    ",
"                                          `# $.$+$@$#$l+$$%$&$*$=$-$;$>$,$X+'$)$!$~${$]$^$/$                                    ",
"                                          ($_$:$<$[$}$}$|$1$2$3$3$4$5$6$#$7$8$9$0$a$b$c$d$e$                                    ",
"                                          f$g$h$i$j$k$I#l$m$n$o$p$q$r$o#s$t$>$u$v$w$x$y$z$A$                                    ",
"                                          B$C$D$E$F$G$H$I$J$K$L$M$N$O$P$:+Q$$$R$S$T$U$V$W$X$                                    ",
"                                          Y$Z$`$ %.%+%@%#%$%%%&%*%=%-%;%>%,%'%)%!%~%{%]%^%/%                                    ",
"                                          (%_%:%<%[%}%|%1%2%3%4%5%6%7%8%9%0%a%f.}#b%{%c%d%e%                                    ",
"                                          f%g%h%i%C#j%k%l%m%n%o%p%q%r%s%t%f# +K@u%h.v%w%x%y%                                    ",
"                                        z%A%B%C%D%E%F%G%..D.H%I%J%K%L%M%N%O%|$P%Q%R%S%T%U%V%                                    ",
"                                        W%X%Y%Z% $#$k@`%r#,$ &.&+&@&#&$&%&&&*&s$=&-&;&>&,&e%                                    ",
"                                        '&)&!&~&{&]&^&/&(&_&:&<&[&}&|&1&2&3&4&5&e.6&7&8&9&0&                                    ",
"                                        a&b&c&@%d&e&f&g&`%h&i&j&k&}.l&N@h%m&n&5&o& .p&q&r&s&                                    ",
"                                    t&u&v&w&x&y&z&@$A&B&d&C&D&E&F&G&H&(+I&J&#$K&L&)#M&N&O&P&                                    ",
"                                    Q&R&S&T&U&H$V&W&X&d&/&Y&#%Z&`& *.*+*@*#*g%v&h%'$$*%*&***                                    ",
"                                    =*a&a&-*;*H$>*,*'*)* $!*~*{*]*^*M&/*(*_*:*<*[*}*'%|*1*2*                                    ",
"                                    3*0$f#H#4*5*6*7*8*9*8*0*a*b*X+c*d*s$f#'*'*e* +f*g*h*i*j*                                    ",
"                                    k*l+g.l*m*}*n*T&o*p*)*p*g&)#l+O@h.0$_+q*r*s*t*u*v*w*x*t.                                    ",
"                                    y*l+f.W&z*A*E%9$F#F#D%p*p*H#`%K&H#'#B*9#B*9#a#/+N@C*D*t.                                    ",
"                                    E*I#f.W&F*G*E%s#D%p*A&A&A&`%H*H*H#I*J*I*B*q#K*L*M*N*O*P*                                    ",
"                                    Q*R*R*'*S*T*E%-*D%@$F#H*H*`%H*U*I*i%E%E%V*Q.W*X*Y*Z*`* =                                    ",
"                                    .=+=a&9*@=]#,*K&D%D%H*H*H*H*#=$=a#E%i%%=&=3$*===-=;=>=,=                                    ",
"                                  '=)=!=-*F#~={=R*]=H#^=H*^=H*W&!=/=/=/=/='$*=(=(=_=W*:=p%<=                                    ",
"                                  [=}=|=J&1=S*2=i%'*X&D%M@3=K&+=^.)#4=4=5=6=*=N@_=_=7=8=9=0=a=                                  ",
"                                  b=}=c=b&8*d=e=z&S#f=z&7*7*g=h=i=j=^.k=4=5=e#N@>#(=W*l=m=n=o=                                  ",
"                                  p=q=e*p*r=s=u&b&f=u&t=7*7*u=i='$i='$i=i=g=v=w=R%Q.r#q%x=y=z=                                  ",
"                                  A=B=g%C=}*D=E=v&v&u&t=u&V&F='$^.'$A*G*A*G=H=l$F.l@/.I=J=K=L=                                  ",
"                                  M=N=#=O=P=Q=R=T&T&S=T=E=a&+=d*B#B#G=U=V=W=X=Y=Z=`= -.-+-@-#-                                  ",
"                                  M=$-X&%-&-*-=---;-S#T&>-S#j@c=,-V*'-)-!-!-~-!-B#{-]-^-/-(-_-                                  ",
"                                  :-<-)*[-}-|-1-2-3-w&5&S#K&4-P#5-9$6-7-8-9-0-I a-b-c-                                          ",
"                                  d-:%A&[-e-f-g-h-i-j-k-l-m-m-n-o-p-q-r-s-t-u-v-w-                                              ",
"                                  x-y-z-A-B-C-    D-E-F-G-H-I-J-K-L-M-N-O-P-                                                    ",
"                                                    K&/&Q-D%D%p*d#R-g&S-T-U-                                                    ",
"                                                    3$V-W-X-Y-M@Z-`-a* ;.;                                                      ",
"                                                      +;@;#;$;%;:*&;*;=;-;                                                      ",
"                                                      ;;k->;,;';);!;~;A&~#{;];                                                  ",
"                                                    ^;R=^#/;(;_;:;J*:*K&<;[;};|;1;2;3;4;                                        ",
"                                                  t&g#5;5;6;7;8;{-9;0;a;b;c;d;e;f;*%g;h;i;j;                                    ",
"                                                    k;l;m;n;o;p;q;r;%;g#~#s;t;u;v;w;x;y;z;A;                                    ",
"                                                          B;              C;D;                                                  ",
"                                                                                                                                ",
"                                                                                                                                ",
"                                                                                                                                "};
