/* XPM */
static char * sol_final_xpm[] = {
"64 64 2925 2",
"  	c #60676D",
". 	c #595E64",
"+ 	c #5A5E63",
"@ 	c #5B5F63",
"# 	c #595E61",
"$ 	c #53585D",
"% 	c #585E61",
"& 	c #575C60",
"* 	c #5A6064",
"= 	c #52585E",
"- 	c #4A5055",
"; 	c #212221",
"> 	c #373839",
", 	c #474C4F",
"' 	c #505658",
") 	c #4D5456",
"! 	c #4A5053",
"~ 	c #494E50",
"{ 	c #434647",
"] 	c #232121",
"^ 	c #2E3132",
"/ 	c #51585D",
"( 	c #54595C",
"_ 	c #4E5052",
": 	c #4A4C4C",
"< 	c #47484B",
"[ 	c #4B4C4E",
"} 	c #525355",
"| 	c #4E5154",
"1 	c #505457",
"2 	c #2E3030",
"3 	c #1A1C1B",
"4 	c #5D666B",
"5 	c #5A6167",
"6 	c #545858",
"7 	c #555452",
"8 	c #4E4B4A",
"9 	c #4A4547",
"0 	c #544F4C",
"a 	c #5B514A",
"b 	c #655953",
"c 	c #5A4E4D",
"d 	c #514947",
"e 	c #2B2722",
"f 	c #5B453A",
"g 	c #70584E",
"h 	c #6E5F5A",
"i 	c #6F6661",
"j 	c #696562",
"k 	c #666362",
"l 	c #5A5556",
"m 	c #3F3A3A",
"n 	c #1B1B17",
"o 	c #545D60",
"p 	c #5F666B",
"q 	c #5E6366",
"r 	c #585D5E",
"s 	c #4B4E52",
"t 	c #4E5051",
"u 	c #4A4C4D",
"v 	c #424446",
"w 	c #3F4044",
"x 	c #43474B",
"y 	c #494A50",
"z 	c #5B6066",
"A 	c #4C4F52",
"B 	c #4B4D4E",
"C 	c #505252",
"D 	c #515354",
"E 	c #4A4D4F",
"F 	c #47484A",
"G 	c #4B4C4D",
"H 	c #4A4A4C",
"I 	c #494C50",
"J 	c #3B3F44",
"K 	c #1B1D1C",
"L 	c #2F3231",
"M 	c #3C3E41",
"N 	c #3F3F3F",
"O 	c #363435",
"P 	c #313030",
"Q 	c #363534",
"R 	c #303131",
"S 	c #1E1C1B",
"T 	c #303334",
"U 	c #4F5960",
"V 	c #464B4D",
"W 	c #3B3A3B",
"X 	c #3A3B3B",
"Y 	c #3A3A3B",
"Z 	c #3C3D3C",
"` 	c #3A3C3C",
" .	c #3C3E3E",
"..	c #404345",
"+.	c #242727",
"@.	c #5B656A",
"#.	c #5D6468",
"$.	c #4E4C4B",
"%.	c #4E4641",
"&.	c #51463E",
"*.	c #4A3C37",
"=.	c #503F39",
"-.	c #574339",
";.	c #5B463D",
">.	c #5B4C47",
",.	c #4F4743",
"'.	c #272522",
").	c #4B3328",
"!.	c #5D3E31",
"~.	c #5D4338",
"{.	c #58443A",
"].	c #4D3C37",
"^.	c #594D48",
"/.	c #544A47",
"(.	c #363130",
"_.	c #4A5054",
":.	c #53565B",
"<.	c #55575A",
"[.	c #555758",
"}.	c #454748",
"|.	c #454444",
"1.	c #3E3C3E",
"2.	c #363538",
"3.	c #424445",
"4.	c #45484C",
"5.	c #575E62",
"6.	c #484B4C",
"7.	c #3E3E3F",
"8.	c #414143",
"9.	c #464849",
"0.	c #434345",
"a.	c #434444",
"b.	c #464745",
"c.	c #3E3F40",
"d.	c #424647",
"e.	c #353A3C",
"f.	c #131414",
"g.	c #282B2E",
"h.	c #404144",
"i.	c #424342",
"j.	c #333231",
"k.	c #2C2B2A",
"l.	c #302F2E",
"m.	c #262729",
"n.	c #1A1919",
"o.	c #303637",
"p.	c #505C63",
"q.	c #464B4F",
"r.	c #3B3B3C",
"s.	c #393A3B",
"t.	c #3A3C3D",
"u.	c #3B3E3F",
"v.	c #404448",
"w.	c #252729",
"x.	c #17191A",
"y.	c #59636A",
"z.	c #585F67",
"A.	c #403B3C",
"B.	c #463A34",
"C.	c #504034",
"D.	c #4C3A30",
"E.	c #534138",
"F.	c #544036",
"G.	c #4A3530",
"H.	c #534440",
"I.	c #494440",
"J.	c #1A1C1C",
"K.	c #37231B",
"L.	c #543729",
"M.	c #553A2D",
"N.	c #472F27",
"O.	c #473129",
"P.	c #4C3932",
"Q.	c #51433E",
"R.	c #3B3432",
"S.	c #181718",
"T.	c #44474F",
"U.	c #505258",
"V.	c #4F5154",
"W.	c #505253",
"X.	c #505050",
"Y.	c #494848",
"Z.	c #39373A",
"`.	c #323034",
" +	c #333436",
".+	c #3B3D3E",
"++	c #414245",
"@+	c #53595F",
"#+	c #434446",
"$+	c #3D3D3D",
"%+	c #3E3E41",
"&+	c #424447",
"*+	c #3E3E42",
"=+	c #424041",
"-+	c #424141",
";+	c #414442",
">+	c #35393B",
",+	c #161616",
"'+	c #2D2F30",
")+	c #474A4C",
"!+	c #393A3E",
"~+	c #37393B",
"{+	c #3E3F3C",
"]+	c #1C1B1C",
"^+	c #2A3033",
"/+	c #4C5960",
"(+	c #464C4F",
"_+	c #3B3C3C",
":+	c #383A3A",
"<+	c #383C3C",
"[+	c #3B3E3E",
"}+	c #3C4041",
"|+	c #414549",
"1+	c #242628",
"2+	c #141617",
"3+	c #525C64",
"4+	c #515962",
"5+	c #3F3938",
"6+	c #41352E",
"7+	c #43342A",
"8+	c #412E25",
"9+	c #483831",
"0+	c #524239",
"a+	c #4B3D36",
"b+	c #504441",
"c+	c #4A4644",
"d+	c #1C1E1B",
"e+	c #2B1A13",
"f+	c #41281D",
"g+	c #462D23",
"h+	c #3B251E",
"i+	c #433027",
"j+	c #4C3931",
"k+	c #4C3C36",
"l+	c #322927",
"m+	c #181818",
"n+	c #4A4F54",
"o+	c #5D5F63",
"p+	c #555759",
"q+	c #454142",
"r+	c #363136",
"s+	c #313033",
"t+	c #2F3033",
"u+	c #343539",
"v+	c #3A3B3E",
"w+	c #4E545A",
"x+	c #3D3E3F",
"y+	c #3B3C39",
"z+	c #404241",
"A+	c #444649",
"B+	c #454546",
"C+	c #42413F",
"D+	c #3D3937",
"E+	c #363233",
"F+	c #383838",
"G+	c #303437",
"H+	c #1A191A",
"I+	c #333435",
"J+	c #4A4F50",
"K+	c #4B5152",
"L+	c #43494C",
"M+	c #3F4648",
"N+	c #424745",
"O+	c #353837",
"P+	c #1D1D1F",
"Q+	c #2A3234",
"R+	c #4B5960",
"S+	c #444C4F",
"T+	c #393B3D",
"U+	c #373B3C",
"V+	c #373B3D",
"W+	c #3A3E3E",
"X+	c #3D4141",
"Y+	c #45484B",
"Z+	c #292A2B",
"`+	c #161819",
" @	c #535B62",
".@	c #443F3C",
"+@	c #3F342E",
"@@	c #3D2E28",
"#@	c #3F302B",
"$@	c #483E38",
"%@	c #504840",
"&@	c #4F4643",
"*@	c #534E4D",
"=@	c #4E4B4D",
"-@	c #222223",
";@	c #30221B",
">@	c #3C281E",
",@	c #3F2C23",
"'@	c #362421",
")@	c #342420",
"!@	c #42322B",
"~@	c #41322D",
"{@	c #2D2624",
"]@	c #191A1A",
"^@	c #585C5E",
"/@	c #4E4F52",
"(@	c #454548",
"_@	c #474647",
":@	c #413D3F",
"<@	c #3C393A",
"[@	c #3B3A3A",
"}@	c #353738",
"|@	c #343639",
"1@	c #36363A",
"2@	c #4A4F58",
"3@	c #3B3C3E",
"4@	c #3F3F3B",
"5@	c #3F3E3C",
"6@	c #414140",
"7@	c #484743",
"8@	c #43403C",
"9@	c #3D3935",
"0@	c #373030",
"a@	c #373435",
"b@	c #313436",
"c@	c #181717",
"d@	c #343635",
"e@	c #474C4E",
"f@	c #454E50",
"g@	c #434B4F",
"h@	c #3F4649",
"i@	c #3F4342",
"j@	c #3F4241",
"k@	c #252424",
"l@	c #2C3335",
"m@	c #4D5B62",
"n@	c #424B4F",
"o@	c #383C3D",
"p@	c #3B3E40",
"q@	c #3E4143",
"r@	c #3D4243",
"s@	c #46494B",
"t@	c #2A2C2C",
"u@	c #151818",
"v@	c #545D63",
"w@	c #5A6166",
"x@	c #453E3A",
"y@	c #3E322B",
"z@	c #3E3029",
"A@	c #41332C",
"B@	c #463B37",
"C@	c #47403B",
"D@	c #4B4543",
"E@	c #524F4F",
"F@	c #494749",
"G@	c #1C1C1B",
"H@	c #31241B",
"I@	c #3D2A20",
"J@	c #38261E",
"K@	c #35241E",
"L@	c #362823",
"M@	c #3E302A",
"N@	c #463833",
"O@	c #322C29",
"P@	c #151716",
"Q@	c #41484A",
"R@	c #515355",
"S@	c #4C4B4F",
"T@	c #434344",
"U@	c #404040",
"V@	c #403D3E",
"W@	c #3D393B",
"X@	c #3C3C39",
"Y@	c #363637",
"Z@	c #323337",
"`@	c #313236",
" #	c #4B5158",
".#	c #3A3C3E",
"+#	c #3B3C38",
"@#	c #3E3B38",
"##	c #413E3D",
"$#	c #48433F",
"%#	c #3C3434",
"&#	c #403A37",
"*#	c #3A3B3D",
"=#	c #1A1A16",
"-#	c #2F3131",
";#	c #43474A",
">#	c #3E4648",
",#	c #495354",
"'#	c #464E4F",
")#	c #35383B",
"!#	c #252223",
"~#	c #323A3A",
"{#	c #4F5D62",
"]#	c #414C4F",
"^#	c #373D3E",
"/#	c #3E4141",
"(#	c #3F4243",
"_#	c #3C4141",
":#	c #424648",
"<#	c #26292A",
"[#	c #161818",
"}#	c #5A6266",
"|#	c #5F6569",
"1#	c #423732",
"2#	c #433329",
"3#	c #443128",
"4#	c #402D28",
"5#	c #463935",
"6#	c #48403C",
"7#	c #4B4544",
"8#	c #4B4747",
"9#	c #434143",
"0#	c #1D1A18",
"a#	c #241914",
"b#	c #2F201A",
"c#	c #271B17",
"d#	c #2E211E",
"e#	c #3B2F29",
"f#	c #352A24",
"g#	c #42362F",
"h#	c #342E2A",
"i#	c #181918",
"j#	c #3C4043",
"k#	c #464749",
"l#	c #414144",
"m#	c #434343",
"n#	c #404240",
"o#	c #393638",
"p#	c #353233",
"q#	c #343332",
"r#	c #343333",
"s#	c #353536",
"t#	c #353435",
"u#	c #4B535A",
"v#	c #393B3F",
"w#	c #393736",
"x#	c #433C3A",
"y#	c #453E3B",
"z#	c #403A39",
"A#	c #424240",
"B#	c #424645",
"C#	c #3D4144",
"D#	c #191916",
"E#	c #2D2D2E",
"F#	c #3E4044",
"G#	c #43484D",
"H#	c #464F50",
"I#	c #434849",
"J#	c #323538",
"K#	c #323335",
"L#	c #252323",
"M#	c #303738",
"N#	c #4B5A5E",
"O#	c #404A4C",
"P#	c #363A3C",
"Q#	c #3D3F41",
"R#	c #3F4041",
"S#	c #404346",
"T#	c #242729",
"U#	c #151718",
"V#	c #596165",
"W#	c #60656B",
"X#	c #413833",
"Y#	c #46362B",
"Z#	c #48372E",
"`#	c #463630",
" $	c #443935",
".$	c #48403F",
"+$	c #494343",
"@$	c #463F42",
"#$	c #423E41",
"$$	c #1E1A18",
"%$	c #1C1514",
"&$	c #211918",
"*$	c #1E1717",
"=$	c #231B1A",
"-$	c #2D2420",
";$	c #2E2621",
">$	c #372E27",
",$	c #292320",
"'$	c #393C3E",
")$	c #3B3D3F",
"!$	c #393A3C",
"~$	c #3D3E3E",
"{$	c #383839",
"]$	c #302E30",
"^$	c #2F2D2F",
"/$	c #323030",
"($	c #2F2E2F",
"_$	c #302F30",
":$	c #2C2B2D",
"<$	c #54595F",
"[$	c #3A3B3F",
"}$	c #373131",
"|$	c #403938",
"1$	c #46413E",
"2$	c #3C4143",
"3$	c #3D4548",
"4$	c #495154",
"5$	c #1D1C19",
"6$	c #2F2E2E",
"7$	c #3B3B3F",
"8$	c #45494B",
"9$	c #373B3B",
"0$	c #343837",
"a$	c #21211F",
"b$	c #2D3132",
"c$	c #3B4449",
"d$	c #3C4344",
"e$	c #3C3F40",
"f$	c #3C3E40",
"g$	c #3D3F40",
"h$	c #3F4140",
"i$	c #3D3F3F",
"j$	c #444648",
"k$	c #282A2B",
"l$	c #121415",
"m$	c #4F575C",
"n$	c #585C63",
"o$	c #473E3A",
"p$	c #4A3B30",
"q$	c #46352E",
"r$	c #473935",
"s$	c #463F3A",
"t$	c #4C4541",
"u$	c #494442",
"v$	c #464042",
"w$	c #464243",
"x$	c #221C19",
"y$	c #1A1413",
"z$	c #141010",
"A$	c #151113",
"B$	c #211C1D",
"C$	c #261F1D",
"D$	c #221B19",
"E$	c #211A19",
"F$	c #1B1617",
"G$	c #121112",
"H$	c #2C2D2F",
"I$	c #2E2E30",
"J$	c #29282A",
"K$	c #2C2C2E",
"L$	c #2E2D2E",
"M$	c #2A292B",
"N$	c #2C2B2B",
"O$	c #262427",
"P$	c #222023",
"Q$	c #201E20",
"R$	c #4F5359",
"S$	c #424143",
"T$	c #3A3837",
"U$	c #3E3A35",
"V$	c #433D39",
"W$	c #403E3E",
"X$	c #434648",
"Y$	c #414648",
"Z$	c #404649",
"`$	c #444A4E",
" %	c #414447",
".%	c #1F1D1A",
"+%	c #2B2A2A",
"@%	c #404142",
"#%	c #414445",
"$%	c #444A4A",
"%%	c #3E4546",
"&%	c #3A4043",
"*%	c #2B2E31",
"=%	c #1F1F1E",
"-%	c #1F2022",
";%	c #33383C",
">%	c #383C3E",
",%	c #393C3D",
"'%	c #3E4040",
")%	c #3D4040",
"!%	c #484A4C",
"~%	c #2E2F30",
"{%	c #151617",
"]%	c #4E565B",
"^%	c #53585F",
"/%	c #45413F",
"(%	c #453D37",
"_%	c #453C37",
":%	c #484240",
"<%	c #42403F",
"[%	c #403F3E",
"}%	c #464847",
"|%	c #4C4C4D",
"1%	c #474446",
"2%	c #1B1713",
"3%	c #141110",
"4%	c #120E10",
"5%	c #161215",
"6%	c #1B1717",
"7%	c #171412",
"8%	c #171415",
"9%	c #181414",
"0%	c #171314",
"a%	c #131213",
"b%	c #191717",
"c%	c #1A1918",
"d%	c #1D1D1D",
"e%	c #1E1E1C",
"f%	c #181817",
"g%	c #161618",
"h%	c #191819",
"i%	c #161515",
"j%	c #110F10",
"k%	c #110F11",
"l%	c #484747",
"m%	c #3D3B38",
"n%	c #3C3835",
"o%	c #3F3B39",
"p%	c #3D3E40",
"q%	c #434848",
"r%	c #434949",
"s%	c #414649",
"t%	c #404549",
"u%	c #3A3D41",
"v%	c #1C1B18",
"w%	c #2A2B2B",
"x%	c #3F4142",
"y%	c #454A49",
"z%	c #444B49",
"A%	c #394041",
"B%	c #383D40",
"C%	c #323436",
"D%	c #212120",
"E%	c #1C1C1D",
"F%	c #303338",
"G%	c #34363A",
"H%	c #3B3C3D",
"I%	c #4D4E50",
"J%	c #2F2F30",
"K%	c #181919",
"L%	c #404041",
"M%	c #413F3E",
"N%	c #454240",
"O%	c #414142",
"P%	c #3D4244",
"Q%	c #3F4647",
"R%	c #404044",
"S%	c #171411",
"T%	c #110E0D",
"U%	c #161213",
"V%	c #171213",
"W%	c #1C1714",
"X%	c #1A1716",
"Y%	c #141213",
"Z%	c #141013",
"`%	c #191517",
" &	c #1E1B1B",
".&	c #1E1D1D",
"+&	c #18181A",
"@&	c #141414",
"#&	c #10100F",
"$&	c #111010",
"%&	c #0E0E0F",
"&&	c #121211",
"*&	c #171616",
"=&	c #1A1B1B",
"-&	c #151415",
";&	c #46484D",
">&	c #3D3D3E",
",&	c #3A3634",
"'&	c #373432",
")&	c #3C3B3A",
"!&	c #3E4242",
"~&	c #424545",
"{&	c #414546",
"]&	c #414345",
"^&	c #1E1E19",
"/&	c #2C2B2C",
"(&	c #3B3C40",
"_&	c #3B3C3F",
":&	c #3B3F41",
"<&	c #32383A",
"[&	c #383E3F",
"}&	c #36393B",
"|&	c #1B191D",
"1&	c #202222",
"2&	c #383F41",
"3&	c #3B3F40",
"4&	c #3F403F",
"5&	c #3C3D3F",
"6&	c #3C3F41",
"7&	c #3E4243",
"8&	c #4A4B4D",
"9&	c #2C2C2D",
"0&	c #171717",
"a&	c #5C6266",
"b&	c #63696E",
"c&	c #3F4043",
"d&	c #44403E",
"e&	c #403F3D",
"f&	c #394044",
"g&	c #3A4045",
"h&	c #393B40",
"i&	c #151412",
"j&	c #161210",
"k&	c #1C1512",
"l&	c #1D1615",
"m&	c #1C1413",
"n&	c #1A1516",
"o&	c #171313",
"p&	c #1D1919",
"q&	c #1B1719",
"r&	c #2E2A2A",
"s&	c #2E2B2B",
"t&	c #272324",
"u&	c #221E1D",
"v&	c #1C1A1A",
"w&	c #1E1E1F",
"x&	c #232629",
"y&	c #293032",
"z&	c #272C2F",
"A&	c #222225",
"B&	c #45454A",
"C&	c #39383C",
"D&	c #393837",
"E&	c #3C3C3B",
"F&	c #3B3D3D",
"G&	c #424646",
"H&	c #404445",
"I&	c #464A4B",
"J&	c #1C1C17",
"K&	c #2C2C2C",
"L&	c #3E3F43",
"M&	c #323236",
"N&	c #2F3334",
"O&	c #373C3A",
"P&	c #363A3A",
"Q&	c #202020",
"R&	c #262828",
"S&	c #3E4647",
"T&	c #3B4041",
"U&	c #3F413F",
"V&	c #3C3E3F",
"W&	c #3F4242",
"X&	c #3C4140",
"Y&	c #404244",
"Z&	c #252627",
"`&	c #595F65",
" *	c #62686D",
".*	c #424244",
"+*	c #3E3938",
"@*	c #3F3634",
"#*	c #3E3634",
"$*	c #393536",
"%*	c #3B3A3D",
"&*	c #404246",
"**	c #3A3D43",
"=*	c #38393F",
"-*	c #111211",
";*	c #17100F",
">*	c #201614",
",*	c #1B1311",
"'*	c #1E1614",
")*	c #261D1C",
"!*	c #1D1614",
"~*	c #201815",
"{*	c #241E1C",
"]*	c #1C1A18",
"^*	c #2A2221",
"/*	c #251C1C",
"(*	c #211818",
"_*	c #2B231F",
":*	c #221C1B",
"<*	c #241F1F",
"[*	c #2C2D2E",
"}*	c #343A3A",
"|*	c #2D3234",
"1*	c #26282C",
"2*	c #1F1F22",
"3*	c #47494D",
"4*	c #3E4042",
"5*	c #3E4142",
"6*	c #3C4142",
"7*	c #3F4446",
"8*	c #43494B",
"9*	c #454A4D",
"0*	c #484C50",
"a*	c #45474A",
"b*	c #1D1B17",
"c*	c #2D2D2B",
"d*	c #3D3F42",
"e*	c #3D4043",
"f*	c #2E2F32",
"g*	c #282929",
"h*	c #313331",
"i*	c #333432",
"j*	c #1B1918",
"k*	c #262929",
"l*	c #393F43",
"m*	c #393D40",
"n*	c #3E4041",
"o*	c #424343",
"p*	c #3D403F",
"q*	c #3D3E41",
"r*	c #252526",
"s*	c #151717",
"t*	c #52595F",
"u*	c #575E64",
"v*	c #424242",
"w*	c #49413C",
"x*	c #463B36",
"y*	c #3E3332",
"z*	c #3C3333",
"A*	c #3F3836",
"B*	c #443F40",
"C*	c #433D40",
"D*	c #131110",
"E*	c #120C0E",
"F*	c #1E1515",
"G*	c #1D1514",
"H*	c #261C18",
"I*	c #2B221F",
"J*	c #1F1716",
"K*	c #241B1A",
"L*	c #27201E",
"M*	c #1B1819",
"N*	c #251C1F",
"O*	c #201716",
"P*	c #1D1413",
"Q*	c #231A1A",
"R*	c #201A18",
"S*	c #191312",
"T*	c #24201E",
"U*	c #2B2B2A",
"V*	c #282728",
"W*	c #2A2928",
"X*	c #211F1F",
"Y*	c #3F4246",
"Z*	c #414346",
"`*	c #3D4245",
" =	c #454B4E",
".=	c #45494D",
"+=	c #414244",
"@=	c #262726",
"#=	c #37393C",
"$=	c #2E3033",
"%=	c #292829",
"&=	c #2B292B",
"*=	c #272528",
"==	c #1A1717",
"-=	c #2E3233",
";=	c #485458",
">=	c #41494D",
",=	c #393D3F",
"'=	c #41403F",
")=	c #3E3B3C",
"!=	c #444244",
"~=	c #151516",
"{=	c #4D555B",
"]=	c #50565F",
"^=	c #464546",
"/=	c #4D4844",
"(=	c #423935",
"_=	c #3A3230",
":=	c #453B37",
"<=	c #453832",
"[=	c #483933",
"}=	c #51443F",
"|=	c #4B4240",
"1=	c #161211",
"2=	c #150F11",
"3=	c #191012",
"4=	c #1F1416",
"5=	c #291D19",
"6=	c #271D1A",
"7=	c #221816",
"8=	c #211816",
"9=	c #1F1918",
"0=	c #161514",
"a=	c #1D1817",
"b=	c #261E1A",
"c=	c #2C2420",
"d=	c #251A19",
"e=	c #241916",
"f=	c #1F1613",
"g=	c #221916",
"h=	c #201B1A",
"i=	c #211E1E",
"j=	c #282623",
"k=	c #211E1D",
"l=	c #45484D",
"m=	c #424547",
"n=	c #434644",
"o=	c #3B3F42",
"p=	c #414448",
"q=	c #3C3F42",
"r=	c #181714",
"s=	c #292A29",
"t=	c #38393A",
"u=	c #3B3E3D",
"v=	c #313332",
"w=	c #262626",
"x=	c #272526",
"y=	c #1B1818",
"z=	c #2A3132",
"A=	c #4F5E64",
"B=	c #465257",
"C=	c #3D4246",
"D=	c #403A3A",
"E=	c #3E3837",
"F=	c #474444",
"G=	c #151616",
"H=	c #4E575D",
"I=	c #555D65",
"J=	c #484B4D",
"K=	c #4C4C4B",
"L=	c #383538",
"M=	c #413D3C",
"N=	c #423632",
"O=	c #483731",
"P=	c #50403B",
"Q=	c #4B3F3E",
"R=	c #161414",
"S=	c #141211",
"T=	c #171212",
"U=	c #181012",
"V=	c #271B19",
"W=	c #241A18",
"X=	c #211717",
"Y=	c #1C1516",
"Z=	c #141314",
"`=	c #1D1B19",
" -	c #2D2520",
".-	c #372E2A",
"+-	c #271C1B",
"@-	c #251817",
"#-	c #281D1B",
"$-	c #201918",
"%-	c #201919",
"&-	c #28211F",
"*-	c #201B19",
"=-	c #45464A",
"--	c #3E3D3F",
";-	c #3E3E3D",
">-	c #403D3C",
",-	c #3D3A39",
"'-	c #3F3E3B",
")-	c #3E3D3C",
"!-	c #3A3A3A",
"~-	c #171714",
"{-	c #282828",
"]-	c #373838",
"^-	c #393938",
"/-	c #353533",
"(-	c #2B2928",
"_-	c #2B282A",
":-	c #2F2E2D",
"<-	c #1C1A19",
"[-	c #2D3435",
"}-	c #4E5D64",
"|-	c #48565B",
"1-	c #3D4347",
"2-	c #3E3B3B",
"3-	c #3B3635",
"4-	c #494545",
"5-	c #161717",
"6-	c #545C61",
"7-	c #606A71",
"8-	c #484D51",
"9-	c #393435",
"0-	c #3E3637",
"a-	c #4A3834",
"b-	c #48342E",
"c-	c #493732",
"d-	c #4A3B3A",
"e-	c #0E0E0D",
"f-	c #151110",
"g-	c #1C1314",
"h-	c #1A1112",
"i-	c #191110",
"j-	c #1D1A1D",
"k-	c #302B2C",
"l-	c #39312E",
"m-	c #372F2B",
"n-	c #191112",
"o-	c #1D1616",
"p-	c #201817",
"q-	c #2E2521",
"r-	c #251F1D",
"s-	c #424145",
"t-	c #403C3B",
"u-	c #3D3736",
"v-	c #403B39",
"w-	c #3C3938",
"x-	c #363433",
"y-	c #393A39",
"z-	c #404547",
"A-	c #191816",
"B-	c #242527",
"C-	c #333335",
"D-	c #373637",
"E-	c #2E2C2E",
"F-	c #2E2C2A",
"G-	c #211E20",
"H-	c #201E1F",
"I-	c #323637",
"J-	c #56656A",
"K-	c #4A555A",
"L-	c #3B3737",
"M-	c #383131",
"N-	c #3B3532",
"O-	c #3A3432",
"P-	c #4A4546",
"Q-	c #2D2C2D",
"R-	c #51595E",
"S-	c #5E666D",
"T-	c #484C4F",
"U-	c #3C3C3D",
"V-	c #373635",
"W-	c #3D3939",
"X-	c #3F3735",
"Y-	c #52403A",
"Z-	c #533E39",
"`-	c #483632",
" ;	c #443736",
".;	c #131212",
"+;	c #0F0D0C",
"@;	c #130F10",
"#;	c #181313",
"$;	c #1E1615",
"%;	c #140E11",
"&;	c #151011",
"*;	c #1B1412",
"=;	c #181314",
"-;	c #332F2E",
";;	c #38312E",
">;	c #302825",
",;	c #1F1816",
"';	c #1D1717",
");	c #191414",
"!;	c #1B1514",
"~;	c #1E1817",
"{;	c #48494D",
"];	c #424347",
"^;	c #3B3B3B",
"/;	c #3C3C3C",
"(;	c #414041",
"_;	c #3B3B3D",
":;	c #363839",
"<;	c #3A4041",
"[;	c #434A4E",
"};	c #252325",
"|;	c #302F32",
"1;	c #383737",
"2;	c #2B2929",
"3;	c #23221F",
"4;	c #2F3335",
"5;	c #536066",
"6;	c #475256",
"7;	c #3F4143",
"8;	c #3D3C3B",
"9;	c #393535",
"0;	c #44403D",
"a;	c #423F3E",
"b;	c #464548",
"c;	c #26282A",
"d;	c #131517",
"e;	c #596068",
"f;	c #414247",
"g;	c #3F3E3E",
"h;	c #3B3836",
"i;	c #3D3735",
"j;	c #3E3431",
"k;	c #4F3D35",
"l;	c #503C37",
"m;	c #4B3934",
"n;	c #473A38",
"o;	c #151513",
"p;	c #100C0A",
"q;	c #120C0C",
"r;	c #141011",
"s;	c #191514",
"t;	c #161013",
"u;	c #231D1B",
"v;	c #1E191A",
"w;	c #131012",
"x;	c #23201D",
"y;	c #2B2523",
"z;	c #2F2623",
"A;	c #2A211E",
"B;	c #211C18",
"C;	c #17110F",
"D;	c #1D1612",
"E;	c #1E1716",
"F;	c #171312",
"G;	c #464A4F",
"H;	c #3F4040",
"I;	c #3F4343",
"J;	c #3B434A",
"K;	c #3B4347",
"L;	c #303133",
"M;	c #2F2F2E",
"N;	c #2F2F2C",
"O;	c #242427",
"P;	c #2C2D2D",
"Q;	c #1B1C1C",
"R;	c #282C2F",
"S;	c #48565E",
"T;	c #434B51",
"U;	c #3D3C3F",
"V;	c #3C3A3B",
"W;	c #3D3A3A",
"X;	c #423E3D",
"Y;	c #454340",
"Z;	c #474A4E",
"`;	c #25282B",
" >	c #53595B",
".>	c #5C6267",
"+>	c #3D3D40",
"@>	c #3C3633",
"#>	c #3E3432",
"$>	c #433432",
"%>	c #4D3830",
"&>	c #4E3831",
"*>	c #503D36",
"=>	c #4D403C",
"->	c #151410",
";>	c #110C09",
">>	c #170F0F",
",>	c #151010",
"'>	c #0E0B0B",
")>	c #0D0B0B",
"!>	c #1A1511",
"~>	c #211B17",
"{>	c #1C1717",
"]>	c #161413",
"^>	c #1F1C19",
"/>	c #191412",
"(>	c #1E1B1A",
"_>	c #181413",
":>	c #241C16",
"<>	c #201916",
"[>	c #231E1C",
"}>	c #1B1A19",
"|>	c #494D50",
"1>	c #444749",
"2>	c #3C3D3E",
"3>	c #3B3939",
"4>	c #3B3837",
"5>	c #393637",
"6>	c #3C3B3C",
"7>	c #3B3E41",
"8>	c #40464B",
"9>	c #40464A",
"0>	c #252525",
"a>	c #313435",
"b>	c #303232",
"c>	c #303130",
"d>	c #343432",
"e>	c #232326",
"f>	c #232426",
"g>	c #1B1A1B",
"h>	c #2E3334",
"i>	c #4A595F",
"j>	c #40494E",
"k>	c #3A3B3C",
"l>	c #3E3C3B",
"m>	c #403C3A",
"n>	c #41403E",
"o>	c #3F4347",
"p>	c #26292B",
"q>	c #4F5151",
"r>	c #5E6363",
"s>	c #3A3738",
"t>	c #3C3636",
"u>	c #3E3737",
"v>	c #433737",
"w>	c #493530",
"x>	c #45342F",
"y>	c #4E3F3D",
"z>	c #4D4444",
"A>	c #12120F",
"B>	c #0B0805",
"C>	c #150F0F",
"D>	c #0D090B",
"E>	c #0E0B0D",
"F>	c #181310",
"G>	c #100D0D",
"H>	c #1C1716",
"I>	c #141012",
"J>	c #161314",
"K>	c #151514",
"L>	c #14100F",
"M>	c #251C19",
"N>	c #2B211C",
"O>	c #2D2723",
"P>	c #24211F",
"Q>	c #434549",
"R>	c #3E3E40",
"S>	c #3A3937",
"T>	c #3A3838",
"U>	c #3F3D3D",
"V>	c #3F3E40",
"W>	c #44474A",
"X>	c #414548",
"Y>	c #171611",
"Z>	c #242322",
"`>	c #2F3030",
" ,	c #2B2C2B",
".,	c #282827",
"+,	c #1F1D21",
"@,	c #232224",
"#,	c #303636",
"$,	c #444D51",
"%,	c #3A3D3E",
"&,	c #3A3A39",
"*,	c #3F4448",
"=,	c #27292C",
"-,	c #141212",
";,	c #464241",
">,	c #544E4C",
",,	c #433D3B",
"',	c #403936",
"),	c #3C3535",
"!,	c #403434",
"~,	c #47332F",
"{,	c #463D3E",
"],	c #101110",
"^,	c #0E0C0A",
"/,	c #17120F",
"(,	c #16110F",
"_,	c #100B0B",
":,	c #1B1716",
"<,	c #1C1816",
"[,	c #141312",
"},	c #100E0D",
"|,	c #221F1D",
"1,	c #242020",
"2,	c #201D1D",
"3,	c #231C1B",
"4,	c #241819",
"5,	c #302422",
"6,	c #372A25",
"7,	c #312623",
"8,	c #424548",
"9,	c #3D3A38",
"0,	c #393636",
"a,	c #3E3A3A",
"b,	c #403C3C",
"c,	c #3F3D3C",
"d,	c #454446",
"e,	c #191815",
"f,	c #242325",
"g,	c #242425",
"h,	c #2D2E2C",
"i,	c #525F63",
"j,	c #4B5255",
"k,	c #39393C",
"l,	c #39393B",
"m,	c #3D4042",
"n,	c #47494E",
"o,	c #2C2E2F",
"p,	c #141210",
"q,	c #3B3534",
"r,	c #473E3C",
"s,	c #4B4340",
"t,	c #48403B",
"u,	c #3C332F",
"v,	c #382E2E",
"w,	c #3F3332",
"x,	c #4C3A34",
"y,	c #4A3934",
"z,	c #423531",
"A,	c #3A3232",
"B,	c #0E1010",
"C,	c #100C0D",
"D,	c #130F0C",
"E,	c #110C0A",
"F,	c #16100E",
"G,	c #140F0A",
"H,	c #201A15",
"I,	c #201B17",
"J,	c #2F2C28",
"K,	c #2F2A26",
"L,	c #241D1C",
"M,	c #241D1D",
"N,	c #362D29",
"O,	c #3C312A",
"P,	c #322621",
"Q,	c #352723",
"R,	c #312421",
"S,	c #322723",
"T,	c #29211E",
"U,	c #403E3C",
"V,	c #3C3939",
"W,	c #3F3C3D",
"X,	c #3F3D3B",
"Y,	c #3A3B38",
"Z,	c #1C1918",
"`,	c #23201F",
" '	c #1F1B1B",
".'	c #201F20",
"+'	c #292B29",
"@'	c #292A2A",
"#'	c #1C1A1B",
"$'	c #2A2E30",
"%'	c #4B575D",
"&'	c #454C4E",
"*'	c #3C3B3D",
"='	c #39383B",
"-'	c #4C4C4F",
";'	c #181514",
">'	c #464442",
",'	c #484546",
"''	c #45403E",
")'	c #4A3E39",
"!'	c #42332D",
"~'	c #3F322C",
"{'	c #473931",
"]'	c #534037",
"^'	c #463835",
"/'	c #3B3333",
"('	c #0F1211",
"_'	c #0F0B0A",
":'	c #120C0B",
"<'	c #0F0C0B",
"['	c #171211",
"}'	c #17120E",
"|'	c #241E19",
"1'	c #211B19",
"2'	c #292624",
"3'	c #2A2423",
"4'	c #261F1E",
"5'	c #25201F",
"6'	c #302B29",
"7'	c #2D2623",
"8'	c #2A201E",
"9'	c #332822",
"0'	c #2F241E",
"a'	c #2F231E",
"b'	c #271D1C",
"c'	c #3F4345",
"d'	c #3F3F3E",
"e'	c #3F3E3D",
"f'	c #373938",
"g'	c #3B3F43",
"h'	c #191615",
"i'	c #191617",
"j'	c #262725",
"k'	c #252626",
"l'	c #19181B",
"m'	c #131112",
"n'	c #282D30",
"o'	c #445057",
"p'	c #42494D",
"q'	c #3D3C3E",
"r'	c #424344",
"s'	c #4E4F51",
"t'	c #2D2E2E",
"u'	c #515557",
"v'	c #555A60",
"w'	c #423731",
"x'	c #433229",
"y'	c #41302A",
"z'	c #47352D",
"A'	c #4F3A30",
"B'	c #4D3B35",
"C'	c #4B3D3A",
"D'	c #453B3C",
"E'	c #141615",
"F'	c #0E0C09",
"G'	c #110E0A",
"H'	c #0E0B07",
"I'	c #16130D",
"J'	c #18140F",
"K'	c #14100D",
"L'	c #18130E",
"M'	c #151210",
"N'	c #0C0B0C",
"O'	c #181614",
"P'	c #211B18",
"Q'	c #2B2420",
"R'	c #221E1A",
"S'	c #1E1C17",
"T'	c #1F1B19",
"U'	c #221E1C",
"V'	c #26201C",
"W'	c #1F1713",
"X'	c #3E3E3E",
"Y'	c #3C3A39",
"Z'	c #3D3C3C",
"`'	c #414347",
" )	c #131210",
".)	c #1F1C1C",
"+)	c #181715",
"@)	c #151312",
"#)	c #1E1E1D",
"$)	c #1A1B1D",
"%)	c #110F0E",
"&)	c #2B3132",
"*)	c #49555B",
"=)	c #3D3C3D",
"-)	c #403F40",
";)	c #474646",
">)	c #545556",
",)	c #141616",
"')	c #4B5458",
"))	c #58646A",
"!)	c #4B5055",
"~)	c #453A39",
"{)	c #40302B",
"])	c #3B2C29",
"^)	c #44332D",
"/)	c #4C392F",
"()	c #463530",
"_)	c #443633",
":)	c #443938",
"<)	c #110D0A",
"[)	c #140F0C",
"})	c #1B1611",
"|)	c #17110E",
"1)	c #120D0D",
"2)	c #0E0909",
"3)	c #0E0D0C",
"4)	c #0E0D0D",
"5)	c #141413",
"6)	c #181412",
"7)	c #1D1716",
"8)	c #201C1A",
"9)	c #1C1715",
"0)	c #1A1613",
"a)	c #13110F",
"b)	c #1A1411",
"c)	c #211916",
"d)	c #1F1815",
"e)	c #3C3B3B",
"f)	c #3D3D3C",
"g)	c #3F3F41",
"h)	c #454649",
"i)	c #11110F",
"j)	c #1D1A19",
"k)	c #252120",
"l)	c #1B1917",
"m)	c #141111",
"n)	c #171615",
"o)	c #1C1E1F",
"p)	c #2F3333",
"q)	c #4D565B",
"r)	c #3A393B",
"s)	c #3F3F40",
"t)	c #404141",
"u)	c #515256",
"v)	c #303032",
"w)	c #1A1817",
"x)	c #515659",
"y)	c #555E63",
"z)	c #424449",
"A)	c #433634",
"B)	c #43322B",
"C)	c #392B28",
"D)	c #3B302B",
"E)	c #4A3831",
"F)	c #44332E",
"G)	c #423432",
"H)	c #453937",
"I)	c #0E0D09",
"J)	c #140F0D",
"K)	c #1A1311",
"L)	c #120D0B",
"M)	c #100E0C",
"N)	c #0C0A09",
"O)	c #161517",
"P)	c #121416",
"Q)	c #141517",
"R)	c #232322",
"S)	c #2D2A2A",
"T)	c #2C2A29",
"U)	c #171716",
"V)	c #1A1917",
"W)	c #292523",
"X)	c #211C1A",
"Y)	c #3E3F41",
"Z)	c #39393A",
"`)	c #3D3B39",
" !	c #424144",
".!	c #3A393A",
"+!	c #1E1B19",
"@!	c #282322",
"#!	c #151313",
"$!	c #1D1E1F",
"%!	c #2D3031",
"&!	c #495359",
"*!	c #3E4347",
"=!	c #37383B",
"-!	c #3B393B",
";!	c #3F4245",
">!	c #474A4F",
",!	c #2B2B2E",
"'!	c #5A5B5E",
")!	c #595C62",
"!!	c #3F3D41",
"~!	c #453A35",
"{!	c #352E30",
"]!	c #2F2C2F",
"^!	c #392F2E",
"/!	c #3E3434",
"(!	c #493E3D",
"_!	c #473B39",
":!	c #0F100B",
"<!	c #2D292A",
"[!	c #3C3639",
"}!	c #383637",
"|!	c #3E3B3D",
"1!	c #343435",
"2!	c #2E2E2F",
"3!	c #242424",
"4!	c #0A0705",
"5!	c #1B1B1E",
"6!	c #191A1D",
"7!	c #33302F",
"8!	c #232323",
"9!	c #222423",
"0!	c #2F2C2A",
"a!	c #393838",
"b!	c #383635",
"c!	c #3B3839",
"d!	c #3D3B3C",
"e!	c #403D3F",
"f!	c #3A3839",
"g!	c #13120F",
"h!	c #120E11",
"i!	c #191614",
"j!	c #151213",
"k!	c #2D2F2F",
"l!	c #4B5459",
"m!	c #363739",
"n!	c #3B393A",
"o!	c #535456",
"p!	c #5D5E61",
"q!	c #4B4443",
"r!	c #4D4039",
"s!	c #493E39",
"t!	c #3A3537",
"u!	c #2F3034",
"v!	c #342F30",
"w!	c #3B3331",
"x!	c #4B3D3B",
"y!	c #493D3A",
"z!	c #131311",
"A!	c #373032",
"B!	c #3E3638",
"C!	c #3D373A",
"D!	c #474141",
"E!	c #433F40",
"F!	c #373638",
"G!	c #3F4042",
"H!	c #0E0B09",
"I!	c #100F0C",
"J!	c #151413",
"K!	c #1B1A1A",
"L!	c #242323",
"M!	c #212121",
"N!	c #242627",
"O!	c #2A2C2E",
"P!	c #2B2E2F",
"Q!	c #2C2F30",
"R!	c #282A2C",
"S!	c #444446",
"T!	c #3D3B3D",
"U!	c #393738",
"V!	c #3C3838",
"W!	c #3E3939",
"X!	c #3C3837",
"Y!	c #3C383A",
"Z!	c #3D3837",
"`!	c #393534",
" ~	c #14120D",
".~	c #221C18",
"+~	c #271F1D",
"@~	c #141112",
"#~	c #191818",
"$~	c #191616",
"%~	c #2E3131",
"&~	c #4D575B",
"*~	c #454B4D",
"=~	c #393A38",
"-~	c #3C3A3A",
";~	c #414141",
">~	c #474A4D",
",~	c #1B1816",
"'~	c #45464B",
")~	c #525053",
"!~	c #534743",
"~~	c #533F38",
"{~	c #4A3B33",
"]~	c #353537",
"^~	c #423730",
"/~	c #4D3E39",
"(~	c #473A37",
"_~	c #161716",
":~	c #2E2829",
"<~	c #403636",
"[~	c #443837",
"}~	c #493F3A",
"|~	c #48413E",
"1~	c #3A363A",
"2~	c #2A2B2E",
"3~	c #0A0500",
"4~	c #263138",
"5~	c #313D49",
"6~	c #38444F",
"7~	c #445159",
"8~	c #465259",
"9~	c #445056",
"0~	c #4D5960",
"a~	c #536169",
"b~	c #4C5C65",
"c~	c #4B5B64",
"d~	c #4B565D",
"e~	c #423F42",
"f~	c #3F3936",
"g~	c #3D3632",
"h~	c #3F3734",
"i~	c #413834",
"j~	c #3C342F",
"k~	c #393533",
"l~	c #0D100B",
"m~	c #1F1917",
"n~	c #27201F",
"o~	c #1B1817",
"p~	c #171516",
"q~	c #292D30",
"r~	c #485358",
"s~	c #464D50",
"t~	c #3D403E",
"u~	c #454547",
"v~	c #4E5054",
"w~	c #2F2F31",
"x~	c #1B1919",
"y~	c #43484F",
"z~	c #504F53",
"A~	c #544844",
"B~	c #4F3934",
"C~	c #4A3935",
"D~	c #473F3E",
"E~	c #3C3637",
"F~	c #463731",
"G~	c #4D3932",
"H~	c #433631",
"I~	c #131614",
"J~	c #292324",
"K~	c #382C2D",
"L~	c #433635",
"M~	c #433531",
"N~	c #3C3431",
"O~	c #343236",
"P~	c #0B0600",
"Q~	c #333F47",
"R~	c #35414B",
"S~	c #363F48",
"T~	c #40484E",
"U~	c #3C4248",
"V~	c #3F4447",
"W~	c #4A5257",
"X~	c #434D53",
"Y~	c #3E474E",
"Z~	c #433D41",
"`~	c #3E3736",
" {	c #3C3331",
".{	c #3C322F",
"+{	c #3E332F",
"@{	c #40342F",
"#{	c #3A2F2A",
"${	c #3A3535",
"%{	c #0C0E0E",
"&{	c #1A1616",
"*{	c #261F20",
"={	c #1C1818",
"-{	c #181617",
";{	c #1E1C1C",
">{	c #181416",
",{	c #2E3234",
"'{	c #48535A",
"){	c #41474B",
"!{	c #4A494C",
"~{	c #4F5157",
"{{	c #1C1B1B",
"]{	c #51565A",
"^{	c #5A5A5B",
"/{	c #574B45",
"({	c #503A32",
"_{	c #4C3933",
":{	c #483E3C",
"<{	c #453A37",
"[{	c #503B32",
"}{	c #4B362F",
"|{	c #4D392F",
"1{	c #40322B",
"2{	c #131813",
"3{	c #2A2628",
"4{	c #3B3237",
"5{	c #3E3437",
"6{	c #36302E",
"7{	c #373738",
"8{	c #37393E",
"9{	c #222527",
"0{	c #0A0600",
"a{	c #2F373C",
"b{	c #343B40",
"c{	c #333639",
"d{	c #303030",
"e{	c #282321",
"f{	c #2D2823",
"g{	c #292422",
"h{	c #333331",
"i{	c #2E2E2C",
"j{	c #272625",
"k{	c #464040",
"l{	c #3F3635",
"m{	c #3D3430",
"n{	c #3D332E",
"o{	c #3D312D",
"p{	c #3C2F2C",
"q{	c #3F3130",
"r{	c #40322E",
"s{	c #423630",
"t{	c #453732",
"u{	c #382F2F",
"v{	c #090A0A",
"w{	c #1D1718",
"x{	c #292021",
"y{	c #1D1918",
"z{	c #161312",
"A{	c #191613",
"B{	c #191716",
"C{	c #1C1919",
"D{	c #2C2F31",
"E{	c #4B545C",
"F{	c #38393C",
"G{	c #49494A",
"H{	c #4D4D51",
"I{	c #1D1C1B",
"J{	c #595D60",
"K{	c #636163",
"L{	c #5A4C45",
"M{	c #51382E",
"N{	c #51392E",
"O{	c #4D423C",
"P{	c #4B413D",
"Q{	c #514035",
"R{	c #42332C",
"S{	c #4C3A35",
"T{	c #4B3C39",
"U{	c #1B1E1C",
"V{	c #322D2F",
"W{	c #3A3234",
"X{	c #2E2524",
"Y{	c #2D2828",
"Z{	c #242626",
"`{	c #090401",
" ]	c #2C333B",
".]	c #313943",
"+]	c #3A4247",
"@]	c #2C2927",
"#]	c #1F1C1D",
"$]	c #242225",
"%]	c #2B2C2C",
"&]	c #2A2A2A",
"*]	c #494242",
"=]	c #40332D",
"-]	c #3E322D",
";]	c #3F332E",
">]	c #473932",
",]	c #52453F",
"']	c #382F2D",
")]	c #0C0D0E",
"!]	c #292121",
"~]	c #1C1819",
"{]	c #191817",
"]]	c #1C1B1A",
"^]	c #545D64",
"/]	c #383739",
"(]	c #414243",
"_]	c #444545",
":]	c #2B2B2C",
"<]	c #1D1C1C",
"[]	c #5A5C60",
"}]	c #625F62",
"|]	c #594842",
"1]	c #594034",
"2]	c #553C30",
"3]	c #483932",
"4]	c #52443D",
"5]	c #4B3E3A",
"6]	c #53423F",
"7]	c #4F403D",
"8]	c #1C1D1B",
"9]	c #312B29",
"0]	c #3A302E",
"a]	c #302722",
"b]	c #291F1D",
"c]	c #2E2928",
"d]	c #313132",
"e]	c #2D373E",
"f]	c #2F3A44",
"g]	c #384247",
"h]	c #373C3E",
"i]	c #343430",
"j]	c #211D1B",
"k]	c #2B2826",
"l]	c #323032",
"m]	c #353636",
"n]	c #383A38",
"o]	c #333433",
"p]	c #4B4444",
"q]	c #3E3734",
"r]	c #3C312D",
"s]	c #40332F",
"t]	c #3E312D",
"u]	c #3D322E",
"v]	c #3E3531",
"w]	c #483D38",
"x]	c #4E4441",
"y]	c #483C38",
"z]	c #3A322E",
"A]	c #0F1010",
"B]	c #201C19",
"C]	c #281F1D",
"D]	c #141515",
"E]	c #161615",
"F]	c #151515",
"G]	c #303233",
"H]	c #50575E",
"I]	c #46474B",
"J]	c #3C3A3C",
"K]	c #3D3B3B",
"L]	c #404243",
"M]	c #2D2D2C",
"N]	c #1F1E1B",
"O]	c #58575D",
"P]	c #5D5456",
"Q]	c #57423A",
"R]	c #583F33",
"S]	c #503A2F",
"T]	c #493730",
"U]	c #554037",
"V]	c #503D39",
"W]	c #493835",
"X]	c #191A16",
"Y]	c #2B2524",
"Z]	c #362C29",
"`]	c #372E2B",
" ^	c #302626",
".^	c #35312E",
"+^	c #353534",
"@^	c #2B2C2F",
"#^	c #0B0A04",
"$^	c #323D42",
"%^	c #3B464E",
"&^	c #374146",
"*^	c #2F3336",
"=^	c #2C2B27",
"-^	c #231F1C",
";^	c #332F2D",
">^	c #404140",
",^	c #494342",
"'^	c #433A35",
")^	c #42352E",
"!^	c #40332E",
"~^	c #3E322E",
"{^	c #3A302D",
"]^	c #4B413C",
"^^	c #4E403B",
"/^	c #413734",
"(^	c #0C0D0C",
"_^	c #1E1816",
":^	c #29201D",
"<^	c #121212",
"[^	c #131113",
"}^	c #1D1B1C",
"|^	c #1D191A",
"1^	c #282725",
"2^	c #353334",
"3^	c #393839",
"4^	c #424346",
"5^	c #4C4F53",
"6^	c #56545A",
"7^	c #574C4C",
"8^	c #524138",
"9^	c #4B382F",
"0^	c #44322A",
"a^	c #493830",
"b^	c #544138",
"c^	c #533F35",
"d^	c #493633",
"e^	c #473733",
"f^	c #1A1A17",
"g^	c #2F2A28",
"h^	c #352D2A",
"i^	c #2D2724",
"j^	c #39332F",
"k^	c #413F3C",
"l^	c #2E2F2E",
"m^	c #282D2E",
"n^	c #1D2023",
"o^	c #0A0903",
"p^	c #2F3A3E",
"q^	c #3D484F",
"r^	c #3E474C",
"s^	c #2C2A24",
"t^	c #32302E",
"u^	c #3B3B39",
"v^	c #363838",
"w^	c #383A3C",
"x^	c #47403F",
"y^	c #493D39",
"z^	c #483A32",
"A^	c #3E312B",
"B^	c #3E322C",
"C^	c #3C302C",
"D^	c #463933",
"E^	c #493933",
"F^	c #3C302B",
"G^	c #080A09",
"H^	c #1E1715",
"I^	c #2F2422",
"J^	c #161313",
"K^	c #151311",
"L^	c #1D1A1B",
"M^	c #171315",
"N^	c #1D1E1E",
"O^	c #1E1E1E",
"P^	c #212020",
"Q^	c #252222",
"R^	c #1B1B1A",
"S^	c #121210",
"T^	c #28282A",
"U^	c #2C2828",
"V^	c #2B2624",
"W^	c #28231E",
"X^	c #251F1A",
"Y^	c #322A25",
"Z^	c #2D251F",
"`^	c #27211E",
" /	c #292221",
"./	c #241E1D",
"+/	c #232222",
"@/	c #2C2928",
"#/	c #272423",
"$/	c #332C2A",
"%/	c #3E3A38",
"&/	c #343436",
"*/	c #2A2E32",
"=/	c #202428",
"-/	c #0B0905",
";/	c #2C3336",
">/	c #33383D",
",/	c #323638",
"'/	c #252422",
")/	c #403D3B",
"!/	c #424341",
"~/	c #4A4140",
"{/	c #463936",
"]/	c #47372F",
"^/	c #42302A",
"//	c #3B2B24",
"(/	c #3C2E27",
"_/	c #473B33",
":/	c #3F302A",
"</	c #3E2E27",
"[/	c #342A25",
"}/	c #090C0B",
"|/	c #2B201D",
"1/	c #251D19",
"2/	c #181212",
"3/	c #161110",
"4/	c #1E1C1A",
"5/	c #1A1617",
"6/	c #1E1D1F",
"7/	c #202022",
"8/	c #212323",
"9/	c #292727",
"0/	c #292726",
"a/	c #252423",
"b/	c #2B2A29",
"c/	c #262727",
"d/	c #252828",
"e/	c #212627",
"f/	c #242828",
"g/	c #272929",
"h/	c #2C2C28",
"i/	c #282925",
"j/	c #262826",
"k/	c #262928",
"l/	c #151715",
"m/	c #1F1B1D",
"n/	c #332D2B",
"o/	c #3D3734",
"p/	c #363332",
"q/	c #2F3135",
"r/	c #100E07",
"s/	c #323133",
"t/	c #312F32",
"u/	c #2F2F2F",
"v/	c #2F2F2D",
"w/	c #383735",
"x/	c #3C3D3B",
"y/	c #3E403E",
"z/	c #4B4140",
"A/	c #443734",
"B/	c #44342D",
"C/	c #413029",
"D/	c #3B2A24",
"E/	c #3A2A26",
"F/	c #3C2E29",
"G/	c #41332D",
"H/	c #3C2E2A",
"I/	c #3C2D29",
"J/	c #372D2A",
"K/	c #0E1110",
"L/	c #1E1819",
"M/	c #231B19",
"N/	c #191513",
"O/	c #0F0E0D",
"P/	c #120E0D",
"Q/	c #171413",
"R/	c #181615",
"S/	c #151414",
"T/	c #464B50",
"U/	c #4C5257",
"V/	c #4F555A",
"W/	c #565B5F",
"X/	c #606366",
"Y/	c #5E6165",
"Z/	c #595C5F",
"`/	c #5C5F62",
" (	c #656567",
".(	c #565C60",
"+(	c #4F585D",
"@(	c #565F65",
"#(	c #575756",
"$(	c #565653",
"%(	c #5A5A57",
"&(	c #5C5D5E",
"*(	c #525458",
"=(	c #1D1F1D",
"-(	c #272320",
";(	c #2C2622",
">(	c #36302B",
",(	c #342F2E",
"'(	c #111009",
")(	c #3B383A",
"!(	c #383537",
"~(	c #353535",
"{(	c #373939",
"](	c #393B3C",
"^(	c #4A4343",
"/(	c #453B38",
"((	c #3E302B",
"_(	c #3C2F2B",
":(	c #3B302C",
"<(	c #3A2E2A",
"[(	c #3C322D",
"}(	c #382C28",
"|(	c #37302E",
"1(	c #0E1211",
"2(	c #221D1C",
"3(	c #0D0D0D",
"4(	c #0E0E0E",
"5(	c #202121",
"6(	c #252524",
"7(	c #4C5155",
"8(	c #50565A",
"9(	c #535659",
"0(	c #4E5356",
"a(	c #4F5357",
"b(	c #55585B",
"c(	c #5D6063",
"d(	c #5C5E61",
"e(	c #57595B",
"f(	c #5C5C5E",
"g(	c #615F61",
"h(	c #59585B",
"i(	c #535558",
"j(	c #515559",
"k(	c #575759",
"l(	c #4F4C4A",
"m(	c #524E4B",
"n(	c #565250",
"o(	c #5B5759",
"p(	c #565356",
"q(	c #1D201E",
"r(	c #2D2725",
"s(	c #382F2B",
"t(	c #39322F",
"u(	c #3A3D3D",
"v(	c #2D3233",
"w(	c #0C0C07",
"x(	c #393537",
"y(	c #3C3737",
"z(	c #353131",
"A(	c #3A383A",
"B(	c #363736",
"C(	c #393B3B",
"D(	c #494544",
"E(	c #47413F",
"F(	c #423A36",
"G(	c #3F3733",
"H(	c #3F3934",
"I(	c #393633",
"J(	c #3A3531",
"K(	c #3F3B37",
"L(	c #393433",
"M(	c #0C100E",
"N(	c #111313",
"O(	c #111111",
"P(	c #262622",
"Q(	c #4E555A",
"R(	c #4D5055",
"S(	c #3F3D40",
"T(	c #424040",
"U(	c #424140",
"V(	c #413F40",
"W(	c #414040",
"X(	c #3E3C39",
"Y(	c #3E3B3A",
"Z(	c #3B3736",
"`(	c #383330",
" _	c #3A3533",
"._	c #3E3838",
"+_	c #464140",
"@_	c #1C1F1B",
"#_	c #372D29",
"$_	c #38302C",
"%_	c #3D3830",
"&_	c #36383A",
"*_	c #252A2D",
"=_	c #0A0B08",
"-_	c #373333",
";_	c #403937",
">_	c #3D3936",
",_	c #3D3B3E",
"'_	c #383938",
")_	c #393B3A",
"!_	c #383738",
"~_	c #333133",
"{_	c #433F41",
"]_	c #423D3D",
"^_	c #433F39",
"/_	c #413C35",
"(_	c #3F3A36",
"__	c #313131",
":_	c #464444",
"<_	c #0E0F0D",
"[_	c #1A1514",
"}_	c #131111",
"|_	c #131211",
"1_	c #313130",
"2_	c #1F1D1D",
"3_	c #404950",
"4_	c #444B50",
"5_	c #43444A",
"6_	c #303234",
"7_	c #151815",
"8_	c #323639",
"9_	c #393937",
"0_	c #373535",
"a_	c #3A3939",
"b_	c #434544",
"c_	c #212423",
"d_	c #322E2C",
"e_	c #342E29",
"f_	c #2D2523",
"g_	c #382F2A",
"h_	c #332A25",
"i_	c #383331",
"j_	c #272B2D",
"k_	c #10120F",
"l_	c #38322F",
"m_	c #3B3330",
"n_	c #383634",
"o_	c #3E3D3E",
"p_	c #373636",
"q_	c #454143",
"r_	c #3F3832",
"s_	c #413831",
"t_	c #3F3834",
"u_	c #393735",
"v_	c #383A39",
"w_	c #454242",
"x_	c #13120E",
"y_	c #121012",
"z_	c #0F0E10",
"A_	c #171414",
"B_	c #323232",
"C_	c #343434",
"D_	c #485257",
"E_	c #464E54",
"F_	c #383939",
"G_	c #3F434A",
"H_	c #2B3034",
"I_	c #101311",
"J_	c #303539",
"K_	c #373A3D",
"L_	c #36373B",
"M_	c #343536",
"N_	c #404444",
"O_	c #434A49",
"P_	c #404746",
"Q_	c #3D4345",
"R_	c #33302B",
"S_	c #36302A",
"T_	c #302826",
"U_	c #2A1F1E",
"V_	c #382D27",
"W_	c #423C35",
"X_	c #40413E",
"Y_	c #323634",
"Z_	c #161712",
"`_	c #3A2F2B",
" :	c #3F322E",
".:	c #373533",
"+:	c #383C3A",
"@:	c #333636",
"#:	c #343535",
"$:	c #383836",
"%:	c #383734",
"&:	c #392C28",
"*:	c #3B2B28",
"=:	c #382E2B",
"-:	c #413D3A",
";:	c #393331",
">:	c #181713",
",:	c #231C1A",
"':	c #121010",
"):	c #1D1917",
"!:	c #30312F",
"~:	c #2B3130",
"{:	c #202220",
"]:	c #4B5559",
"^:	c #4B5157",
"/:	c #35393A",
"(:	c #3A3A3D",
"_:	c #3D4248",
"::	c #36383C",
"<:	c #3D3D3F",
"[:	c #403E3D",
"}:	c #414342",
"|:	c #484A4A",
"1:	c #4B4E4F",
"2:	c #424846",
"3:	c #3A403F",
"4:	c #191D1A",
"5:	c #2C2A25",
"6:	c #28241F",
"7:	c #1E1917",
"8:	c #1B1516",
"9:	c #2D231F",
"0:	c #423B36",
"a:	c #484643",
"b:	c #373836",
"c:	c #131613",
"d:	c #3A2D2B",
"e:	c #433632",
"f:	c #3E3A37",
"g:	c #363635",
"h:	c #333736",
"i:	c #313433",
"j:	c #353634",
"k:	c #393A37",
"l:	c #4D4A49",
"m:	c #3C3634",
"n:	c #392F2D",
"o:	c #3B2F2D",
"p:	c #3D3332",
"q:	c #413E3B",
"r:	c #41413F",
"s:	c #3E3C3A",
"t:	c #3F3A39",
"u:	c #131513",
"v:	c #241C1A",
"w:	c #2C221F",
"x:	c #1D1714",
"y:	c #241F1B",
"z:	c #2B2A2B",
"A:	c #181C1B",
"B:	c #3E4B51",
"C:	c #444C52",
"D:	c #3C3D41",
"E:	c #353739",
"F:	c #3A3D3F",
"G:	c #42474C",
"H:	c #2B2E33",
"I:	c #0F0F10",
"J:	c #282C31",
"K:	c #36393A",
"L:	c #3E3E3C",
"M:	c #4C4C50",
"N:	c #4D4D50",
"O:	c #414343",
"P:	c #1D1A1A",
"Q:	c #1A1618",
"R:	c #2E2724",
"S:	c #433C38",
"T:	c #434040",
"U:	c #313232",
"V:	c #121412",
"W:	c #3F322F",
"X:	c #443530",
"Y:	c #3F3835",
"Z:	c #353332",
"`:	c #3B3A3C",
" <	c #343534",
".<	c #474242",
"+<	c #403B3A",
"@<	c #433834",
"#<	c #443A35",
"$<	c #3D332F",
"%<	c #453834",
"&<	c #3C2E2C",
"*<	c #3C2E2D",
"=<	c #383130",
"-<	c #0F1514",
";<	c #2E231F",
"><	c #3D2D26",
",<	c #3B2D26",
"'<	c #2A1F1C",
")<	c #231D1A",
"!<	c #373633",
"~<	c #2A2828",
"{<	c #181D1C",
"]<	c #3A484D",
"^<	c #3F474C",
"/<	c #37373B",
"(<	c #363639",
"_<	c #36383B",
":<	c #3A3C3F",
"<<	c #42484D",
"[<	c #0F1112",
"}<	c #323A3D",
"|<	c #3A3F42",
"1<	c #343637",
"2<	c #383736",
"3<	c #434240",
"4<	c #3D3E3C",
"5<	c #3C403D",
"6<	c #484949",
"7<	c #4C4B50",
"8<	c #1F211F",
"9<	c #1B1B1B",
"0<	c #1A1A1A",
"a<	c #21201E",
"b<	c #231E1E",
"c<	c #392F2A",
"d<	c #444141",
"e<	c #2B2C2D",
"f<	c #453833",
"g<	c #3F3633",
"h<	c #393939",
"i<	c #353637",
"j<	c #3A3C3B",
"k<	c #474041",
"l<	c #443E3D",
"m<	c #413A35",
"n<	c #423029",
"o<	c #463128",
"p<	c #442D26",
"q<	c #412D25",
"r<	c #412D27",
"s<	c #372C29",
"t<	c #0D1514",
"u<	c #352A25",
"v<	c #433128",
"w<	c #382820",
"x<	c #2B201C",
"y<	c #302D2B",
"z<	c #222727",
"A<	c #415053",
"B<	c #3E464B",
"C<	c #3B393C",
"D<	c #373538",
"E<	c #3F454A",
"F<	c #252B2E",
"G<	c #0E1111",
"H<	c #353D3E",
"I<	c #3E4548",
"J<	c #34383A",
"K<	c #3F4341",
"L<	c #404342",
"M<	c #1E1F1B",
"N<	c #1E1D1B",
"O<	c #221818",
"P<	c #342821",
"Q<	c #434144",
"R<	c #493F3B",
"S<	c #413B3A",
"T<	c #3E3F3F",
"U<	c #363738",
"V<	c #393A3A",
"W<	c #433D3F",
"X<	c #45423E",
"Y<	c #402F28",
"Z<	c #413028",
"`<	c #43342B",
" [	c #42352C",
".[	c #3F3029",
"+[	c #45352D",
"@[	c #3D3230",
"#[	c #111818",
"$[	c #362924",
"%[	c #46332A",
"&[	c #3F2F27",
"*[	c #2D221C",
"=[	c #262625",
"-[	c #221F1F",
";[	c #2B2F30",
">[	c #49565A",
",[	c #41484D",
"'[	c #424243",
")[	c #383639",
"![	c #383638",
"~[	c #363537",
"{[	c #3D3F43",
"][	c #0D0D0C",
"^[	c #292F31",
"/[	c #3B4142",
"([	c #3C4040",
"_[	c #383B3C",
":[	c #3D3F3E",
"<[	c #383B3B",
"[[	c #1A1B18",
"}[	c #201F1E",
"|[	c #282420",
"1[	c #2A1E1A",
"2[	c #463F3D",
"3[	c #433F42",
"4[	c #34302F",
"5[	c #3A3333",
"6[	c #383535",
"7[	c #363638",
"8[	c #373A3A",
"9[	c #4A4848",
"0[	c #4A4B49",
"a[	c #454642",
"b[	c #3D2F2B",
"c[	c #3D322C",
"d[	c #453B39",
"e[	c #151A1A",
"f[	c #2E211D",
"g[	c #442F27",
"h[	c #46352C",
"i[	c #332721",
"j[	c #27201C",
"k[	c #332F2B",
"l[	c #2C3030",
"m[	c #4D595D",
"n[	c #484F53",
"o[	c #3F3F42",
"p[	c #383A3B",
"q[	c #353638",
"r[	c #383A3D",
"s[	c #202223",
"t[	c #0A0C0B",
"u[	c #293031",
"v[	c #393E40",
"w[	c #3A3B39",
"x[	c #3F4141",
"y[	c #1A1B17",
"z[	c #373937",
"A[	c #373631",
"B[	c #4D4B4C",
"C[	c #151512",
"D[	c #2A2B2C",
"E[	c #3A3735",
"F[	c #393836",
"G[	c #373639",
"H[	c #38383A",
"I[	c #4F4A4A",
"J[	c #484445",
"K[	c #3A312E",
"L[	c #362E2C",
"M[	c #3F3431",
"N[	c #3E3631",
"O[	c #3D3732",
"P[	c #433A37",
"Q[	c #403939",
"R[	c #161B1A",
"S[	c #2E221F",
"T[	c #3E2B25",
"U[	c #3A2A24",
"V[	c #271D19",
"W[	c #241C18",
"X[	c #2C2421",
"Y[	c #231D1F",
"Z[	c #1B1718",
"`[	c #292E2D",
" }	c #474E53",
".}	c #3C3C3F",
"+}	c #363939",
"@}	c #343537",
"#}	c #212223",
"$}	c #2B3336",
"%}	c #363B3F",
"&}	c #333233",
"*}	c #332E2C",
"=}	c #332D2A",
"-}	c #332D2E",
";}	c #3E3D3D",
">}	c #404343",
",}	c #47494A",
"'}	c #454749",
")}	c #1B1D19",
"!}	c #292D2D",
"~}	c #343334",
"{}	c #414242",
"]}	c #535556",
"^}	c #565658",
"/}	c #121310",
"(}	c #303336",
"_}	c #343739",
":}	c #3B3A39",
"<}	c #3C3D3D",
"[}	c #443E3E",
"}}	c #423D3C",
"|}	c #3E3836",
"1}	c #343232",
"2}	c #353333",
"3}	c #121818",
"4}	c #332927",
"5}	c #3D2D2A",
"6}	c #2E2120",
"7}	c #211B1C",
"8}	c #1E1A1A",
"9}	c #282323",
"0}	c #2A2829",
"a}	c #252C2C",
"b}	c #47545A",
"c}	c #393C3F",
"d}	c #373A3B",
"e}	c #38393B",
"f}	c #373737",
"g}	c #3F4144",
"h}	c #252829",
"i}	c #0C1011",
"j}	c #2F3A3F",
"k}	c #414B4E",
"l}	c #2A2222",
"m}	c #302724",
"n}	c #322A29",
"o}	c #31302E",
"p}	c #383F42",
"q}	c #181B18",
"r}	c #2C2F2F",
"s}	c #3E413F",
"t}	c #3C3E3B",
"u}	c #404242",
"v}	c #44484B",
"w}	c #4B4E50",
"x}	c #363837",
"y}	c #191A18",
"z}	c #35383A",
"A}	c #333738",
"B}	c #333537",
"C}	c #393434",
"D}	c #3D3835",
"E}	c #3E3935",
"F}	c #3A3736",
"G}	c #323235",
"H}	c #131717",
"I}	c #322825",
"J}	c #2D221F",
"K}	c #211D1D",
"L}	c #211C1B",
"M}	c #30302D",
"N}	c #252C2D",
"O}	c #4B5A5F",
"P}	c #444D53",
"Q}	c #36393C",
"R}	c #3A3A3C",
"S}	c #252A2B",
"T}	c #070D0C",
"U}	c #2E393E",
"V}	c #465055",
"W}	c #3C3F43",
"X}	c #322F31",
"Y}	c #332F30",
"Z}	c #393737",
"`}	c #414547",
" |	c #343A3C",
".|	c #333A3D",
"+|	c #1B1C1B",
"@|	c #3F3F3D",
"#|	c #3F403C",
"$|	c #444846",
"%|	c #41474A",
"&|	c #42464A",
"*|	c #36373A",
"=|	c #37383A",
"-|	c #3B3838",
";|	c #3D3B3A",
">|	c #3F3B3A",
",|	c #3D3D3B",
"'|	c #191B18",
")|	c #28201D",
"!|	c #322623",
"~|	c #2E2420",
"{|	c #241D1A",
"]|	c #211B1A",
"^|	c #2B2421",
"/|	c #302F29",
"(|	c #222322",
"_|	c #282E30",
":|	c #4F5D63",
"<|	c #4A5258",
"[|	c #232729",
"}|	c #090B0B",
"||	c #292E30",
"1|	c #3A3E41",
"2|	c #383433",
"3|	c #312C2C",
"4|	c #363333",
"5|	c #3E4245",
"6|	c #3B4143",
"7|	c #30302F",
"8|	c #363533",
"9|	c #3C3B38",
"0|	c #3B3D40",
"a|	c #2E2C2C",
"b|	c #1D1C17",
"c|	c #3F4244",
"d|	c #3C3C3E",
"e|	c #1B1D1A",
"f|	c #322724",
"g|	c #332A26",
"h|	c #241F1C",
"i|	c #2B2825",
"j|	c #1F1E1F",
"k|	c #262A2C",
"l|	c #48545A",
"m|	c #464E51",
"n|	c #222627",
"o|	c #2B2E2E",
"p|	c #353335",
"q|	c #322C2A",
"r|	c #312B2B",
"s|	c #373332",
"t|	c #3C4243",
"u|	c #181916",
"v|	c #282726",
"w|	c #32302F",
"x|	c #353231",
"y|	c #3A3737",
"z|	c #313031",
"A|	c #3D4044",
"B|	c #434445",
"C|	c #454746",
"D|	c #393A3D",
"E|	c #191A19",
"F|	c #3A2C28",
"G|	c #2C231F",
"H|	c #2A211B",
"I|	c #2B2522",
"J|	c #1E1C1E",
"K|	c #444B4F",
"L|	c #373D40",
"M|	c #202427",
"N|	c #494A49",
"O|	c #363536",
"P|	c #313639",
"Q|	c #2A2727",
"R|	c #2D2829",
"S|	c #393635",
"T|	c #292B2C",
"U|	c #1F1E1D",
"V|	c #363535",
"W|	c #343437",
"X|	c #333236",
"Y|	c #424549",
"Z|	c #454949",
"`|	c #41464A",
" 1	c #3C4144",
".1	c #434748",
"+1	c #3E4145",
"@1	c #291F1C",
"#1	c #3D2D27",
"$1	c #3D2F29",
"%1	c #3B2E27",
"&1	c #3A2E25",
"*1	c #272B2B",
"=1	c #454B50",
"-1	c #353737",
";1	c #373837",
">1	c #3C4044",
",1	c #23272A",
"'1	c #0C0B0D",
")1	c #4A4A49",
"!1	c #312E2C",
"~1	c #343433",
"{1	c #33373A",
"]1	c #272A2D",
"^1	c #191919",
"/1	c #222120",
"(1	c #282A2D",
"_1	c #1C1C1C",
":1	c #333336",
"<1	c #3E3F3E",
"[1	c #313537",
"}1	c #323338",
"|1	c #44494C",
"11	c #464B4B",
"21	c #454648",
"31	c #464A4C",
"41	c #434749",
"51	c #42484B",
"61	c #43484C",
"71	c #3A4044",
"81	c #1A1C1D",
"91	c #2D2220",
"01	c #392925",
"a1	c #372B29",
"b1	c #322624",
"c1	c #2F241D",
"d1	c #221B17",
"e1	c #1E1F1F",
"f1	c #1A1A1C",
"g1	c #252727",
"h1	c #373739",
"i1	c #25292D",
"j1	c #090A0C",
"k1	c #2A2D2F",
"l1	c #2C282A",
"m1	c #2F2B2C",
"n1	c #2C2A2B",
"o1	c #2E2D2F",
"p1	c #2E2F31",
"q1	c #2D3030",
"r1	c #1E1D1A",
"s1	c #21201F",
"t1	c #41403D",
"u1	c #40403F",
"v1	c #2D2F32",
"w1	c #333536",
"x1	c #323136",
"y1	c #42454A",
"z1	c #464647",
"A1	c #444546",
"B1	c #2D2321",
"C1	c #322523",
"D1	c #2A2122",
"E1	c #261D1F",
"F1	c #28231F",
"G1	c #222224",
"H1	c #3B434B",
"I1	c #202526",
"J1	c #080B0A",
"K1	c #232829",
"L1	c #3D3B36",
"M1	c #2C2726",
"N1	c #2C2827",
"O1	c #2F2929",
"P1	c #3B3D3C",
"Q1	c #1C1D17",
"R1	c #2A2A28",
"S1	c #3C3B39",
"T1	c #474B4D",
"U1	c #484C4E",
"V1	c #3C3C40",
"W1	c #2F2D30",
"X1	c #2C2B2F",
"Y1	c #44474C",
"Z1	c #454A4A",
"`1	c #424241",
" 2	c #444343",
".2	c #2C241F",
"+2	c #2B2322",
"@2	c #211A1B",
"#2	c #281F1C",
"$2	c #2A2521",
"%2	c #222425",
"&2	c #3F484F",
"*2	c #383B3F",
"=2	c #1F2325",
"-2	c #0B0C0D",
";2	c #35393D",
">2	c #3A3936",
",2	c #2C2826",
"'2	c #2D2928",
")2	c #3B4141",
"!2	c #3A3D3C",
"~2	c #302E2E",
"{2	c #3B3B3A",
"]2	c #373537",
"^2	c #474D4F",
"/2	c #1F1E1E",
"(2	c #302F31",
"_2	c #505558",
":2	c #4C5152",
"<2	c #494949",
"[2	c #4C4B4C",
"}2	c #261E1C",
"|2	c #2D211E",
"12	c #2D2422",
"22	c #29201B",
"32	c #26201D",
"42	c #1B1F20",
"52	c #394247",
"62	c #262A2D",
"72	c #0F100F",
"82	c #383F3F",
"92	c #333334",
"02	c #292626",
"a2	c #231F1F",
"b2	c #2D2A29",
"c2	c #3F4445",
"d2	c #1F1E1A",
"e2	c #393936",
"f2	c #4C4F4F",
"g2	c #4B4F52",
"h2	c #464645",
"i2	c #3B3C3B",
"j2	c #4F5253",
"k2	c #474B4C",
"l2	c #3E4043",
"m2	c #2F3137",
"n2	c #35373A",
"o2	c #1B1D1D",
"p2	c #2A2220",
"q2	c #2B2422",
"r2	c #251F1E",
"s2	c #211D1A",
"t2	c #1C2021",
"u2	c #353D41",
"v2	c #333333",
"w2	c #4A555B",
"x2	c #2D3538",
"y2	c #0D0E0E",
"z2	c #353A3D",
"A2	c #3A3D42",
"B2	c #242121",
"C2	c #2B2829",
"D2	c #1D1F1B",
"E2	c #282829",
"F2	c #312F31",
"G2	c #353433",
"H2	c #383436",
"I2	c #4E4F4E",
"J2	c #4C4E50",
"K2	c #343233",
"L2	c #312F30",
"M2	c #353434",
"N2	c #38383B",
"O2	c #3E403F",
"P2	c #333437",
"Q2	c #393C3C",
"R2	c #343738",
"S2	c #171718",
"T2	c #231E1D",
"U2	c #292321",
"V2	c #26221F",
"W2	c #231F1D",
"X2	c #1E1B18",
"Y2	c #1F1C18",
"Z2	c #22211E",
"`2	c #242526",
" 3	c #2B2F32",
".3	c #2D2D2F",
"+3	c #353633",
"@3	c #3E454A",
"#3	c #23282B",
"$3	c #0B0C0C",
"%3	c #303235",
"&3	c #3A3D40",
"*3	c #2A292A",
"=3	c #1E1D1C",
"-3	c #23211F",
";3	c #272524",
">3	c #333234",
",3	c #333235",
"'3	c #2C2B2E",
")3	c #262728",
"!3	c #363431",
"~3	c #303132",
"{3	c #1D1E1D",
"]3	c #333535",
"^3	c #323131",
"/3	c #323231",
"(3	c #353437",
"_3	c #343336",
":3	c #2E2E2E",
"<3	c #282627",
"[3	c #232324",
"}3	c #191714",
"|3	c #1B1A18",
"13	c #1B1A1C",
"23	c #181A1A",
"33	c #222221",
"43	c #242422",
"53	c #262523",
"63	c #262425",
"73	c #212122",
"83	c #1A1B1A",
"93	c #1D1D1E",
"03	c #22201E",
"a3	c #211F20",
"b3	c #292725",
"c3	c #2E2A2B",
"d3	c #2D2B2B",
"e3	c #181819",
"f3	c #222323",
"g3	c #242123",
"h3	c #252324",
"i3	c #262525",
"j3	c #232223",
"k3	c #222222",
"l3	c #18191A",
"m3	c #161919",
"n3	c #151816",
"o3	c #171515",
"p3	c #161614",
"q3	c #171817",
"r3	c #181716",
"s3	c #191B19",
"t3	c #141514",
"u3	c #141715",
"v3	c #151614",
"w3	c #151517",
"x3	c #161619",
"y3	c #171819",
"z3	c #1F1D1E",
"A3	c #242224",
"B3	c #262524",
"C3	c #232122",
"D3	c #232021",
"E3	c #221F20",
"F3	c #201F1F",
"G3	c #20211F",
"H3	c #1F201F",
"  . + @ # $ % & * = - ; > , ' ) ! ~ { ] ^ / ( _ : < [ } | 1 2 3 4 5 6 7 8 9 0 a b c d e f g h i j k l m n o p q r s t u v w x y ",
"z A B C D E F G H I J K L M N O P Q R S T U V W X Y Z `  ...+.3 @.#.$.%.&.*.=.-.;.>.,.'.).!.~.{.].^./.(.3 _.:.<.[.}.|.1.2.> 3.4.",
"5.6.7.8.9.0.a.b.c.d.e.f.g.h.i.j.k.l.m.n.o.p.q.r.Z s.t. .u.v.w.x.y.z.A.B.C.D.E.F.G.H.I.J.K.L.M.N.O.P.Q.R.S.T.U.V.W.X.Y.Z.`. +.+++",
"@+#+$+%+&+*+=+-+$+;+>+,+'+)+9.!+~+{+R ]+^+/+(+_+:+~+<+[+}+|+1+2+3+4+5+6+7+8+9+0+a+b+c+d+e+f+g+h+i+j+k+l+m+n+o+p+#+Y.q+r+s+t+u+v+",
"w+x+y+z+A+B+C+D+E+F+G+H+I+J+K+L+M+N+O+P+Q+R+S+T+U+V+U+W+X+Y+Z+`+3+ @.@+@@@#@$@%@&@*@=@-@;@>@,@'@)@!@~@{@]@! ^@/@(@_@:@<@[@}@|@1@",
"2@3@4@5@6@7@8@9@0@a@b@c@d@e@f@g@h@i@j@k@l@m@n@o@o@V+p@q@r@s@t@u@v@w@x@y@z@A@B@C@D@E@F@G@H@I@J@K@L@M@N@O@P@Q@R@S@T@U@V@W@X@Y@Z@`@",
" #.#+#@###$#%#&#D+W *#=#-#;#>#,#'#)#Y@!#~#{#]#^#t.M /#(#_#:#<#[#}#|#1#2#3#4#5#6#7#8#9#0#a#b#c#d#e#f#g#h#i#j#k#l#m#n#o#p#q#r#s#t#",
"u#v#w#D+x#y#z#A#B#e@C#D#E#F#G#H#I#J#K#L#M#N#O#P#u.Q#R#(#}+S#T#U#V#W#X#Y#Z#`# $.$+$@$#$$$%$&$*$=$-$;$>$,$,+'$)$!$~${$]$^$/$($_$:$",
"<$[$w#}$|$1$-+2$3$4$L+5$6$7$w 8$U+9$0$a$b$c$d$e$u.f$g$h$i$j$k$l$m$n$o$p$q$r$s$t$u$v$w$x$y$z$A$B$C$D$E$F$G$H$I$J$K$L$J$M$N$O$P$Q$",
"R$S$T$U$V$W$X$Y$Z$`$ %.%+%@%#%$%%%&%*%=%-%;%>%,%e$T+ .'%)%!%~%{%]%^%/%(%_%:%<%[%}%|%1%2%3%4%5%6%7%8%9%0%a%b%c%d%e%f%a%g%h%i%j%k%",
"U.l%m%n%o%p%q%r%s%t%u%v%w%x%y%z%A%B%C%D%E%F%G%H%'%.+[+(##%I%J%K%V#5 L%M%N%O%j#P%Q%s@R%S%T%U%V%W%X%Y%Z%`%8% &.&+&@&#&$&%&&&*&=&-&",
";&>&,&'&)&c.!&~&..{&]&^&/&(&_&:&<&[&}&|&1&2&3&4&r.5&t.6&7&8&9&0&a&b&c&)&d&e& .:&f&g&h&i&j&k&l&m&n&o&p&q&Y%r&s&t&u&v&w&x&y&z&*%A&",
"B&C&D&E&$+F&7&G&H&I&6.J&K&c&L&M&N&O&P&Q&R&S&T&U&_+!$V&W&X&Y&Z&{%`& *.*+*@*#*$*%*&***=*-*;*>*,*'*)*!*~*{*]*^*/*(*_*:*<*[*}*|*1*2*",
"3*4*/#/#5*6*7*8*9*0*a*b*c*d*e*f*g*h*i*j*k*l*m*n*F&V&o*~&p*q*r*s*t*u*v*w*x*y*z*A*|$B*C*D*E*F*G*H*I*J*K*L*M*N*O*P*Q*R*S*T*U*V*W*X*",
"Y*Z*3.5&p%f$m*`* =.=+=b*@=#=C#$=%=&=*===-=;=>=,=g$p%i.'=)=!=%=~={=]=^=/=(=_=:=<=[=}=|=1=2=3=4=5=6=7=8=9=0=a=b=c=d=e=f=g=h=i=j=k=",
"l=m=n=-+7.g$5*}+o=p=q=r=s=t=u=v=w=x=N$y=z=A=B=C=Q#>&##D=E=F=W*G=H=I=J=K=)=L=M=N=O=P=Q=R=S=T=U=V=W=d=X=Y=Z=`= -.-+-@-#-b=$-%-&-*-",
"=---;->-,-'-)-!-Y@]&S#~-{-]-^-/-(-_-:-<-[-}-|-1-g$2-3-A*&#4-+%5-6-7-8-x+r#9-0-a-b-c-d-0=e-f-!*7=g-h-i-T=j-k-l-m-m&n-o-p-!*8=q-r-",
"s-)=t-+*u-v-w-x-y-{&z-A-B-C-D-E-F-G-H-q&I-J-K-u%7.L-M-N-O-P-Q-G=R-S-T-U-V-W-X-Y-Z-`- ;.;+;@;#;$;%;&;*;=;j--;;;>;,;';o&);!;'*b=~;",
"{;];.*^;/;(;_;:;<;[;3$r=};|;1;2;3;S.d%c@4;5;6;7;8;9;+*0;a;b;c;d;R-e;f;g;h;i;j;k;l;m;n;o;p;q;r;s;t;Y=u;v;w;x;y;z;A;B;j&C;D;$;E;F;",
"n+G;v.n*L%H;4*I;f&J;K;r=s=L;R M;N;O;P;Q;R;S;T;U;V;W;X;Y;B+Z;`;l$ >.>+>##@>#>$>%>&>*>=>->;>>>,>'>)>!>~>{>]>^>/>o&(><-_>'*:><>[>}>",
"|>1>2>3>4>5>6>~$7>8>9>r=0>a>b>c>d>e>f>g>h>i>j>k>)-l>m>n>2>o>p>@&q>r>x+s>t>u>v>w>x>y>z>A>B>>>C>D>E>s;F>G>_>H>I>J>f%K>L>!*M>N>O>P>",
"Q>R>E&S>w-T>)&U>V>W>X>Y>Z>`>e> ,.,+,@,S.#,{#$,%,!-&,2-7.p@*,=,-,;,>,,,&#',),!,~,~@n;{,],^,/,(,_,@;:,<,[,},(>|,1,2,3,&$4,5,6,7,3,",
"8,r.T>9,L-0,a,b,c,d,&+e,<-!#H-.,f,g,h,.&-=i,j,k,l,^;D-Y m,n,o,p,q,r,s,t,u,v,w,x,y,z,A,B,C,C;D,E,F,G,H,I,7%J,K,L,M,N,O,P,Q,R,S,T,",
"m=^;V;U,,-V,W,X,Y,R#&*e,Z,`, '.'+'@'{-#'$'%'&'H%7.*'='Y c.-'_$;'>',''')'!'~'{']'=.^'/'('_':'<'['F>}'|'1'S=2'3'4'5'6'7'8'9'0'a'b'",
"c'2>d'e'2-3>*'E&f'Q#g']>h'2,8%i'j'k'l'm'n'o'p'n*i$2>q'5&r's't'0&u'v'(@w'x'y'z'A'B'C'D'E'F'G'H'I'J'K'L'M'N'O'P'Q'R'S'T'U'V'~*W'p-",
"r'7.X'Y'w-Y'Z'd'q*`'o= )s;.)+)@)#)k*$)%)&)*)G#H;Z !-=)-);)>)c>,)')))!)~){)])^)/)()_):)K>F'<)[)})|)1)2)3)4)5)6)7)8)9)0)a)b)c)d)'*",
"0.=)_+!-e)f)E&f)g)h)6&i)j)k)l)m)n)o)o)]>p)q)9>_;E&r)s)t)a.u)v)w)x)y)z)A)B)C)D)E)F)G)H)~-I)J)6)D$K)J)L)M)N)O)P)Q)R)S)T)U)V)W)O>X)",
"Y)*#Z){$W ;-)-`)U> !.!i)+!@!==#!<-$!k'==%!&!*!=!^;-!g;8.;!>!,!S '!)!!!B@~!{!]!^!/!(!_!:!<![!}!|!1!2!r#3!4!+&5!6!g,l.7!8!9!U*0!k)",
"0.=)a!b!c!d!r)V,V;e!f!g!$$<*8%h!i!c%]+j!k!l!v.m!a!n!d!--c&Z;2!(>o!p!q!r!s!t!u!v!w!x!y!z!A!B!C!D!E!F!G! +H!I!J!K!L!k@M!N!O!P!Q!R!",
"S!T!U!V!W!X!Y!b,V!Z!`! ~.~+~);@~]>#~$~3%%~&~*~k>=~-~[%;~G!>~($,~'~)~!~~~{~t-]~_=^~/~(~_~:~<~[~}~|~1~7$2~3~4~5~6~7~8~9~0~a~b~c~d~",
"e~W,V,Z!f~g~h~i~j~h~k~l~m~n~o~m'0%*&p~z$q~r~s~p%t~Z [%t)u~v~w~x~y~z~A~B~C~D~E~F~j+G~H~I~J~K~L~M~N~O~h&=,P~Q~R~S~T~U~V~, W~X~Y~1-",
"Z~A.`~R. {.{+{@{#{.{${%{&{*{={@~&{-{;{>{,{'{){_&H%s.>&m#!{~{~%{{]{^{/{({_{:{<{[{}{|{1{2{3{4{5{v,6{7{8{9{0{a{b{c{d{e{f{g{T)h{i{j{",
"k{l{m{n{o{p{q{r{s{t{u{v{w{x{y{z{A{B{X*C{D{E{p'F{:+s.r.v*G{H{K&I{J{K{L{M{N{O{P{Q{R{S{T{U{V{W{u{X{Y{-!g$Z{`{ ].]+]$=@]|,#]$]%]&]0>",
"*]X-+{=]z@-];]>],])''])]h=!]~]n)r={]]]b%T ^]q./].!7.R#(]_])+:]<][]}]|]1]2]3]<{4]5]6]7]8]9]0]a]b]c]n!b;d]0{e]f]g]h]i]j]k]l]m]n]o]",
"p]q]r]s]t]u]v]w]x]y]z]A]B]C]&{D]E]F]K!i'G]H]I]J]K]N g$n*L]>~M]N]O]P]Q]R]S]T]x,U]V]V]W]X]Y]Z]`] ^.^+^v+@^#^$^%^&^*^=^-^;^a@F+>^$+",
",^'^)^!^~^{^0]'^]^^^/^(^_^:^m~<^-,[^}^|^1^e*/]2^3^H%x+Q#4^5^K&V)6^7^8^9^0^a^b^c^_{d^e^f^g^h^i^j^k^l^m^n^o^p^q^r^-#s^t^u^v^w^c.W ",
"x^y^z^R{A^B^C^+@D^E^F^G^H^I^+~J^K^8%;{L^M^*&M*v&N^E%O^P^Q^w=R^S^T^U^V^W^X^-$Y^Z^`^ /./5-+/@/#/$/%/&/*/=/-/;/>/,/'/.^)/!/e$M c..!",
"~/{/]/^///(/g#_/:/</[/}/l&|/1/2/3/:,4/M*5/6/7/8/3!M!L!9/0/a/.,b/c/d/e/f/g/b/h/i/j/k/Z{l/I{.)m/n/o/p/q/1*r/s/t/u/v/w/x/y/.+u.i$X ",
"z/A/B/C/D/E/F/G/H/I/J/K/L/M/N/O/P/Q/R/S/.'T/U/$ / V/W/X/Y/Z/`/ (`/.(+(@(@ #($(%(&('!*(=(-(;( /O@>(,(7{'+'()(!(w~&/~(~({(](e$/#` ",
"^(/(B.((_(:(<([(}(o{|(1(B$2(.;3(4([,N^5(6(7(8(9(0(a(b(c(d(e(f(g(h(i(j(W/k(l(m(n(o(p(< q(r(s(g~t(9@W;u(v(w(x(y(z(-~A(B(f'C(H%` t#",
"D(E(F(G(H(I(.^J(K(v-L(M(y{9=[,N(O(.&7{%]P(Q(R(S(-!T(M%U(V(O%W(X(l>Y(<%<%Z(`( _._+_>'X @_{@#_$_%_t(E~&_*_=_-_;_>_X,,_'_)_v^> !_~_",
"{_]_^_/_(_1!^ __>&:_h;<_y$[_}_.;|_{-g$1_2_3_4_R>r.e)E&U-R>5_6_7_8_Y)m#X'9_0_p#a__]b_;!c_d_e_f_g_h_i_t=j_k_l_m_n_V-W o_c.T+Y@p_r#",
"q_W!r_s_t_u_O+v_U@w_ _x__^';y_z_A_B_}+C_+/D_E_,=m!='Y F_k>G_H_I_J_K_K_L_{$M_5&N_O_P_Q_c_R_S_T_U_V_W_X_Y_Z_`_ : _.:x/H;+:@:#:$:%:",
",^R.&:*:*:=:L(k~-:D=;:>:,:~;@~':):!:~:{:{:]:^:p@/:(:]({(~+_:*/N(H_::v#<:[:8;}:|:1:2:3:4:5:6:7:8:9:0:a:b:c:d:e:f:g:.+2>h:i:j:k:S>",
"l:m:n:o:p:q:r:s:f:t:Z!u:v:w:T,x:y:$:H%z:A:B:C:D:/:L_E:&_F:G:H:I:J:)#K:[@)/'-L:_]M:N:O:4:#)}>P:Q:R:S:T:U:V:W:X:Y:Z:l,`:s# <~('_j:",
".<+<F(@< $#<$<%<&<*<=<-<;<><,<'<)<!<E&~<{<]<^<_&!$/<(<_<:<<<n'[<}<|<1<2<l>3<4<5<6<7<b;8<9<0<a<b<c<%.d<e<z!f<[=g<V,Y h<> i<j<x+ +",
"k<l<m<!^n<o<p<q<r<^/s<t<u<v<w<x<{*y<W*I{z<A<B<U;C<D<(<F{,%E<F<G<H<I<J<` z+o*F&u=K<L<5&M<N<,~$$O<P<t,Q<'+F]<{R<S<l>~$T<!-U<V<*#E:",
"W<d<X<;]Y<Z<`< [.[+[@[#[$[%[&[*[.~@]=[-[;[>[,['[r))[![)[~[{[c;][^[/[([_[i$-)'[G!p*:[<[[[}[|[6=1[B^2[3[s/n)4[5[+*6[D-X'F_7[{$_+8[",
"9[0[a[v]b[<(^~c[c<f<d[e[f[g[h[i[j[k[T)k=l[m[n[o[p[q[7[D-p_r[s[t[u[v[t=Z w[!_i.R#x[h$u(y[k$z[A[;;o%K=B[s#C[D[_$E[F[h<h<G[H[f'V<t=",
"I[J[W-w!K[L[M[N[O[P[Q[R[S[T[U[V[W[X[Y[Z[`[m[ }.}+}@}G[3^D&*##}A]$}%}&}*}=}-};}>},}'}6*)}!}8[F_~}{}]}^}^-/}(}_}'_e&:}p_W <}v^+}=!",
"[}}}|}',D+1}2}T>1;V;]~3}4}5}6}7}8}9}0}w&a}b}T~c}d}~+e}]-f}g}h}i}j}k}l,l}m}n}o}n*d.s%p}q}r})_s}t}u}v}w}x}y}9$>%u.m#V>'_)_.+z}A}B}",
"9-C}D}E}u-F}4<v*Y ~(G}H}I}H/J}K}L}g{M}R)N}O}P}c}Q}v#F{k,R}8,S}T}U}V}W}X}Y}Z}X'`}|< |.|+|1_$+@|#|$|%|&|I+D#1<T+:<R#2>v^F_k>*|=|m!",
"-|O a!;|>|;|,|U,3>K]3^'|)|!|~|{|]|^|/|(|_|:|<|_&p[R}U-x+k,j#[|}|||1|F!2|3|4|5@4&'$5|6|X]7|:}8|9|C+0|3@a|b|f}W e}_[d}:;F_f}7[t.R}",
";~:<c|{}N ^;d|U@[%W$$+e|T,f|g|`^R*h|i|j|k|l|m|H%X /;E&r.=|B%n|3(o|F_p|k~q|r|s|w/](:#t|u|v|w|x|y|-~x+V&z|a<7{h<> p[t.t.Y =|k>_+7[",
"'}A|..m#1._&g}B|C|B|D|E|m}F|c[G|H|I|k@J|w.9~K|<}Y@/].!:+}@L|M|4)v^N|>&0,s|p_O|V<,/U+P|f%.'Q|R|S|l>t)o@T|U|r)!-V|!-6>e)![W|m!{(X|",
"Y|x Z|B+S!;#`| 1.1>~+1Q;@1#1$1%1&1^|{-l'*1K-=1r.-1;1~(m]m]>1,1'1B})1l>!17!p_~1q[{1D{]1^1f%/1^$f)8;*#)#(1_1:1H[F+W V<<1X I-[11<}1",
"x |11121F )+3141516171819101a1b1c1d1e1f1g1X~t%r).!^-M_s#h1o>i1j1k1j<[@x|r&l1m1n1o1p1q1r1s1j{w|t1u1#%C#v10<t+(<~$O%c.O:C(w1C%1<x1",
"l=y1m=c.L%z1A1Y&5*m,::=&B1C1D1E1@1F1; E%G1H1&%C(^;W Y@{$Z)m*I1J1K11<u1L1M1N1O1S)c>P18[Q1R1V-S18;i$T1U11<.&h1H[6>c.V1]&H%&/v)W1X1",
"Y1T-Z1H;;~`1 2s)U@m#2>y}.2u<+2@2#2$2#)5-%2&2C#&,^--!Z)t=F!*2=2-2$';2H;>2N1,2'2~}I-)2!2^&~2{2{2]2T<J=^21</2U-s)e)s.(;U@`:2.(2d{E#",
"_2:2{&H[U-e}O:x[<2[2p%f%}2|212+~2232{{F]4252W&:}B(h<Z)V<e}E<627282&'{[9202a2b2'%7&c2&_d2k.1;e24|e'f2g2C%<]u1h2g;/]^-&,'=s)h1i2i<",
"j2k2l2=''%}&m2n2O:d.'$o2./p2q2r2s2^>2_{{t2u2.#p_v2Y@F_x[v.w2x2y2z2<<A2Y@j{B2C27;8,7&_[D2E2F2G2H2C+I2J2~+=%t=$+2^K2L2L$M2/]N2<}.!",
"J2&+p%i$O2d}P2!2Q2T+R2S2T2U2V2W2X2Y2Z2'/`2 3.3P +3b:F+t)c|@3#3$3%3&3K#*3=3-3;3>3,3:1'3^1)3!:!36[l>=+B+~3{3]3#:^3/3Q-Q-7|t#(3h1_3",
"L;v)L$:3:]J$<3U*<3V*[3,+{]c%b%l)O'}3|3.&1323E%33435363v|v|73835)f193_19<^1K!N<03a3H-13S.E%; a/b3T)c3d3O^e35(f3k@=[k@g3h3x=};i3j3",
"M!M!8!k3O^93$!/2_10<l3m3n3E'G=U)o3p3n)0&5-G=_~q3r3U)_~_~,+0&s3E|F]t3D]~=G=,)u3v3F]-&w3x3y3=&#)s1s1a3z3w&Q&M!-@A3B363C3D3E3F3G3H3"};
