/* XPM */
static char * collectible_xpm[] = {
"64 64 3298 2",
"  	c #60676D",
". 	c #595E64",
"+ 	c #5A5E63",
"@ 	c #5B5F63",
"# 	c #595E61",
"$ 	c #53585D",
"% 	c #585E61",
"& 	c #575C60",
"* 	c #5A6064",
"= 	c #52585E",
"- 	c #4A5055",
"; 	c #212221",
"> 	c #373839",
", 	c #474C4F",
"' 	c #505658",
") 	c #4D5456",
"! 	c #4A5053",
"~ 	c #494E50",
"{ 	c #434647",
"] 	c #232121",
"^ 	c #2E3132",
"/ 	c #51585D",
"( 	c #54595C",
"_ 	c #4E5052",
": 	c #4A4C4C",
"< 	c #47484B",
"[ 	c #4B4C4E",
"} 	c #525355",
"| 	c #4E5154",
"1 	c #505457",
"2 	c #2E3030",
"3 	c #1A1C1B",
"4 	c #5D666B",
"5 	c #5A6167",
"6 	c #545858",
"7 	c #555452",
"8 	c #4E4B4A",
"9 	c #4A4547",
"0 	c #544F4C",
"a 	c #5B514A",
"b 	c #655953",
"c 	c #5A4E4D",
"d 	c #514947",
"e 	c #2B2722",
"f 	c #5B453A",
"g 	c #70584E",
"h 	c #6E5F5A",
"i 	c #6F6661",
"j 	c #696562",
"k 	c #666362",
"l 	c #5A5556",
"m 	c #3F3A3A",
"n 	c #1B1B17",
"o 	c #545D60",
"p 	c #5F666B",
"q 	c #5E6366",
"r 	c #585D5E",
"s 	c #4B4E52",
"t 	c #4E5051",
"u 	c #4A4C4D",
"v 	c #424446",
"w 	c #3F4044",
"x 	c #43474B",
"y 	c #494A50",
"z 	c #5B6066",
"A 	c #4C4F52",
"B 	c #4B4D4E",
"C 	c #505252",
"D 	c #515354",
"E 	c #4A4D4F",
"F 	c #47484A",
"G 	c #4B4C4D",
"H 	c #4A4A4C",
"I 	c #494C50",
"J 	c #3B3F44",
"K 	c #1B1D1C",
"L 	c #2F3231",
"M 	c #3C3E41",
"N 	c #3F3F3F",
"O 	c #363435",
"P 	c #313030",
"Q 	c #363534",
"R 	c #303131",
"S 	c #1E1C1B",
"T 	c #303334",
"U 	c #4F5960",
"V 	c #464B4D",
"W 	c #3B3A3B",
"X 	c #3A3B3B",
"Y 	c #3A3A3B",
"Z 	c #3C3D3C",
"` 	c #3A3C3C",
" .	c #3C3E3E",
"..	c #404345",
"+.	c #242727",
"@.	c #5B656A",
"#.	c #5D6468",
"$.	c #4E4C4B",
"%.	c #4E4641",
"&.	c #51463E",
"*.	c #4A3C37",
"=.	c #503F39",
"-.	c #574339",
";.	c #5B463D",
">.	c #5B4C47",
",.	c #4F4743",
"'.	c #272522",
").	c #4B3328",
"!.	c #5D3E31",
"~.	c #5D4338",
"{.	c #58443A",
"].	c #4D3C37",
"^.	c #594D48",
"/.	c #544A47",
"(.	c #363130",
"_.	c #4A5054",
":.	c #53565B",
"<.	c #55575A",
"[.	c #555758",
"}.	c #454748",
"|.	c #454444",
"1.	c #3E3C3E",
"2.	c #363538",
"3.	c #424445",
"4.	c #45484C",
"5.	c #575E62",
"6.	c #484B4C",
"7.	c #3E3E3F",
"8.	c #414143",
"9.	c #464849",
"0.	c #434345",
"a.	c #434444",
"b.	c #464745",
"c.	c #3E3F40",
"d.	c #424647",
"e.	c #353A3C",
"f.	c #131414",
"g.	c #282B2E",
"h.	c #404144",
"i.	c #424342",
"j.	c #333231",
"k.	c #2C2B2A",
"l.	c #302F2E",
"m.	c #262729",
"n.	c #1A1919",
"o.	c #303637",
"p.	c #505C63",
"q.	c #464B4F",
"r.	c #3B3B3C",
"s.	c #393A3B",
"t.	c #3A3C3D",
"u.	c #3B3E3F",
"v.	c #404448",
"w.	c #252729",
"x.	c #17191A",
"y.	c #59636A",
"z.	c #585F67",
"A.	c #403B3C",
"B.	c #463A34",
"C.	c #504034",
"D.	c #4C3A30",
"E.	c #534138",
"F.	c #544036",
"G.	c #4A3530",
"H.	c #534440",
"I.	c #494440",
"J.	c #1A1C1C",
"K.	c #37231B",
"L.	c #543729",
"M.	c #553A2D",
"N.	c #472F27",
"O.	c #473129",
"P.	c #4C3932",
"Q.	c #51433E",
"R.	c #3B3432",
"S.	c #181718",
"T.	c #44474F",
"U.	c #505258",
"V.	c #4F5154",
"W.	c #505253",
"X.	c #505050",
"Y.	c #494848",
"Z.	c #39373A",
"`.	c #323034",
" +	c #333436",
".+	c #3B3D3E",
"++	c #414245",
"@+	c #53595F",
"#+	c #434446",
"$+	c #3D3D3D",
"%+	c #3E3E41",
"&+	c #424447",
"*+	c #3E3E42",
"=+	c #424041",
"-+	c #424141",
";+	c #414442",
">+	c #35393B",
",+	c #161616",
"'+	c #2D2F30",
")+	c #474A4C",
"!+	c #393A3E",
"~+	c #37393B",
"{+	c #3E3F3C",
"]+	c #1C1B1C",
"^+	c #2A3033",
"/+	c #4C5960",
"(+	c #464C4F",
"_+	c #3B3C3C",
":+	c #383A3A",
"<+	c #383C3C",
"[+	c #3B3E3E",
"}+	c #3C4041",
"|+	c #414549",
"1+	c #242628",
"2+	c #141617",
"3+	c #525C64",
"4+	c #515962",
"5+	c #3F3938",
"6+	c #41352E",
"7+	c #43342A",
"8+	c #412E25",
"9+	c #483831",
"0+	c #524239",
"a+	c #4B3D36",
"b+	c #504441",
"c+	c #4A4644",
"d+	c #1C1E1B",
"e+	c #2B1A13",
"f+	c #41281D",
"g+	c #462D23",
"h+	c #3B251E",
"i+	c #433027",
"j+	c #4C3931",
"k+	c #4C3C36",
"l+	c #322927",
"m+	c #181818",
"n+	c #4A4F54",
"o+	c #5D5F63",
"p+	c #555759",
"q+	c #454142",
"r+	c #363136",
"s+	c #313033",
"t+	c #2F3033",
"u+	c #343539",
"v+	c #3A3B3E",
"w+	c #4E545A",
"x+	c #3D3E3F",
"y+	c #3B3C39",
"z+	c #404241",
"A+	c #444649",
"B+	c #454546",
"C+	c #42413F",
"D+	c #3D3937",
"E+	c #363233",
"F+	c #383838",
"G+	c #303437",
"H+	c #1A191A",
"I+	c #333435",
"J+	c #4A4F50",
"K+	c #4B5152",
"L+	c #43494C",
"M+	c #3F4648",
"N+	c #424745",
"O+	c #353837",
"P+	c #1D1D1F",
"Q+	c #2A3234",
"R+	c #4B5960",
"S+	c #444C4F",
"T+	c #393B3D",
"U+	c #373B3C",
"V+	c #373B3D",
"W+	c #3A3E3E",
"X+	c #3D4141",
"Y+	c #45484B",
"Z+	c #292A2B",
"`+	c #161819",
" @	c #535B62",
".@	c #443F3C",
"+@	c #3F342E",
"@@	c #3D2E28",
"#@	c #3F302B",
"$@	c #483E38",
"%@	c #504840",
"&@	c #4F4643",
"*@	c #534E4D",
"=@	c #4E4B4D",
"-@	c #222223",
";@	c #30221B",
">@	c #3C281E",
",@	c #3F2C23",
"'@	c #362421",
")@	c #342420",
"!@	c #42322B",
"~@	c #41322D",
"{@	c #2D2624",
"]@	c #191A1A",
"^@	c #585C5E",
"/@	c #4E4F52",
"(@	c #454548",
"_@	c #474647",
":@	c #413D3F",
"<@	c #3C393A",
"[@	c #3B3A3A",
"}@	c #353738",
"|@	c #343639",
"1@	c #36363A",
"2@	c #4A4F58",
"3@	c #3B3C3E",
"4@	c #3F3F3B",
"5@	c #3F3E3C",
"6@	c #414140",
"7@	c #484743",
"8@	c #43403C",
"9@	c #3D3935",
"0@	c #373030",
"a@	c #373435",
"b@	c #313436",
"c@	c #181717",
"d@	c #343635",
"e@	c #474C4E",
"f@	c #454E50",
"g@	c #434B4F",
"h@	c #3F4649",
"i@	c #3F4342",
"j@	c #3F4241",
"k@	c #252424",
"l@	c #2C3335",
"m@	c #4D5B62",
"n@	c #424B4F",
"o@	c #383C3D",
"p@	c #3B3E40",
"q@	c #3E4143",
"r@	c #4B1D57",
"s@	c #78248E",
"t@	c #3E3341",
"u@	c #151818",
"v@	c #545D63",
"w@	c #5A6166",
"x@	c #453E3A",
"y@	c #3E322B",
"z@	c #3E3029",
"A@	c #41332C",
"B@	c #463B37",
"C@	c #47403B",
"D@	c #4B4543",
"E@	c #524F4F",
"F@	c #494749",
"G@	c #1C1C1B",
"H@	c #31241B",
"I@	c #3D2A20",
"J@	c #38261E",
"K@	c #35241E",
"L@	c #362823",
"M@	c #3E302A",
"N@	c #463833",
"O@	c #322C29",
"P@	c #151716",
"Q@	c #41484A",
"R@	c #515355",
"S@	c #4C4B4F",
"T@	c #434344",
"U@	c #404040",
"V@	c #403D3E",
"W@	c #3D393B",
"X@	c #3C3C39",
"Y@	c #363637",
"Z@	c #323337",
"`@	c #313236",
" #	c #4B5158",
".#	c #3A3C3E",
"+#	c #3B3C38",
"@#	c #3E3B38",
"##	c #413E3D",
"$#	c #48433F",
"%#	c #3C3434",
"&#	c #403A37",
"*#	c #3A3B3D",
"=#	c #1A1A16",
"-#	c #2F3131",
";#	c #43474A",
">#	c #3E4648",
",#	c #495354",
"'#	c #464E4F",
")#	c #35383B",
"!#	c #252223",
"~#	c #323A3A",
"{#	c #4F5D62",
"]#	c #414C4F",
"^#	c #373D3E",
"/#	c #3E4141",
"(#	c #39353A",
"_#	c #671B78",
":#	c #A035BB",
"<#	c #4A215C",
"[#	c #161818",
"}#	c #5A6266",
"|#	c #5F6569",
"1#	c #423732",
"2#	c #433329",
"3#	c #443128",
"4#	c #402D28",
"5#	c #463935",
"6#	c #48403C",
"7#	c #4B4544",
"8#	c #4B4747",
"9#	c #434143",
"0#	c #1D1A18",
"a#	c #241914",
"b#	c #2F201A",
"c#	c #271B17",
"d#	c #2E211E",
"e#	c #3B2F29",
"f#	c #352A24",
"g#	c #42362F",
"h#	c #342E2A",
"i#	c #181918",
"j#	c #3C4043",
"k#	c #464749",
"l#	c #414144",
"m#	c #434343",
"n#	c #404240",
"o#	c #393638",
"p#	c #353233",
"q#	c #343332",
"r#	c #343333",
"s#	c #353536",
"t#	c #353435",
"u#	c #4B535A",
"v#	c #393B3F",
"w#	c #393736",
"x#	c #433C3A",
"y#	c #453E3B",
"z#	c #403A39",
"A#	c #424240",
"B#	c #424645",
"C#	c #3D4144",
"D#	c #191916",
"E#	c #2D2D2E",
"F#	c #3E4044",
"G#	c #43484D",
"H#	c #464F50",
"I#	c #434849",
"J#	c #323538",
"K#	c #323335",
"L#	c #252323",
"M#	c #303738",
"N#	c #4B5A5E",
"O#	c #404A4C",
"P#	c #363A3C",
"Q#	c #3D3F41",
"R#	c #717273",
"S#	c #3A1F42",
"T#	c #8D21A4",
"U#	c #DD71EB",
"V#	c #630B83",
"W#	c #4C4252",
"X#	c #939392",
"Y#	c #60656B",
"Z#	c #413833",
"`#	c #46362B",
" $	c #48372E",
".$	c #463630",
"+$	c #443935",
"@$	c #48403F",
"#$	c #494343",
"$$	c #463F42",
"%$	c #423E41",
"&$	c #1E1A18",
"*$	c #1C1514",
"=$	c #211918",
"-$	c #1E1717",
";$	c #231B1A",
">$	c #2D2420",
",$	c #2E2621",
"'$	c #372E27",
")$	c #292320",
"!$	c #393C3E",
"~$	c #3B3D3F",
"{$	c #393A3C",
"]$	c #3D3E3E",
"^$	c #383839",
"/$	c #302E30",
"($	c #2F2D2F",
"_$	c #323030",
":$	c #2F2E2F",
"<$	c #302F30",
"[$	c #2C2B2D",
"}$	c #54595F",
"|$	c #3A3B3F",
"1$	c #373131",
"2$	c #403938",
"3$	c #46413E",
"4$	c #3C4143",
"5$	c #3D4548",
"6$	c #495154",
"7$	c #1D1C19",
"8$	c #2F2E2E",
"9$	c #3B3B3F",
"0$	c #45494B",
"a$	c #373B3B",
"b$	c #343837",
"c$	c #21211F",
"d$	c #2D3132",
"e$	c #3B4449",
"f$	c #3C4344",
"g$	c #3C3F40",
"h$	c #3C3E40",
"i$	c #332639",
"j$	c #8A2AA6",
"k$	c #D967E8",
"l$	c #DA76E7",
"m$	c #6B0E8B",
"n$	c #531369",
"o$	c #939290",
"p$	c #585C63",
"q$	c #473E3A",
"r$	c #4A3B30",
"s$	c #46352E",
"t$	c #473935",
"u$	c #463F3A",
"v$	c #4C4541",
"w$	c #494442",
"x$	c #464042",
"y$	c #464243",
"z$	c #221C19",
"A$	c #1A1413",
"B$	c #141010",
"C$	c #151113",
"D$	c #211C1D",
"E$	c #261F1D",
"F$	c #221B19",
"G$	c #211A19",
"H$	c #1B1617",
"I$	c #121112",
"J$	c #2C2D2F",
"K$	c #2E2E30",
"L$	c #29282A",
"M$	c #2C2C2E",
"N$	c #2E2D2E",
"O$	c #2A292B",
"P$	c #2C2B2B",
"Q$	c #262427",
"R$	c #222023",
"S$	c #201E20",
"T$	c #4F5359",
"U$	c #424143",
"V$	c #3A3837",
"W$	c #3E3A35",
"X$	c #433D39",
"Y$	c #403E3E",
"Z$	c #434648",
"`$	c #414648",
" %	c #404649",
".%	c #444A4E",
"+%	c #414447",
"@%	c #1F1D1A",
"#%	c #2B2A2A",
"$%	c #404142",
"%%	c #414445",
"&%	c #444A4A",
"*%	c #3E4546",
"=%	c #3A4043",
"-%	c #2B2E31",
";%	c #1F1F1E",
">%	c #1F2022",
",%	c #33383C",
"'%	c #383C3E",
")%	c #393C3D",
"!%	c #6F7172",
"~%	c #38223F",
"{%	c #AD39D0",
"]%	c #F38AF8",
"^%	c #D978E5",
"/%	c #670C8C",
"(%	c #70148F",
"_%	c #503E5B",
":%	c #53585F",
"<%	c #45413F",
"[%	c #453D37",
"}%	c #453C37",
"|%	c #484240",
"1%	c #42403F",
"2%	c #403F3E",
"3%	c #464847",
"4%	c #4C4C4D",
"5%	c #474446",
"6%	c #1B1713",
"7%	c #141110",
"8%	c #120E10",
"9%	c #161215",
"0%	c #1B1717",
"a%	c #171412",
"b%	c #171415",
"c%	c #181414",
"d%	c #171314",
"e%	c #131213",
"f%	c #191717",
"g%	c #1A1918",
"h%	c #1D1D1D",
"i%	c #1E1E1C",
"j%	c #181817",
"k%	c #161618",
"l%	c #191819",
"m%	c #161515",
"n%	c #110F10",
"o%	c #110F11",
"p%	c #484747",
"q%	c #3D3B38",
"r%	c #3C3835",
"s%	c #3F3B39",
"t%	c #3D3E40",
"u%	c #434848",
"v%	c #434949",
"w%	c #414649",
"x%	c #404549",
"y%	c #3A3D41",
"z%	c #1C1B18",
"A%	c #2A2B2B",
"B%	c #3F4142",
"C%	c #454A49",
"D%	c #444B49",
"E%	c #394041",
"F%	c #383D40",
"G%	c #323436",
"H%	c #212120",
"I%	c #1C1C1D",
"J%	c #303338",
"K%	c #34363A",
"L%	c #3B3C3D",
"M%	c #3E4040",
"N%	c #29232C",
"O%	c #9C1EC7",
"P%	c #BB48E1",
"Q%	c #F698F9",
"R%	c #E880F1",
"S%	c #8E28AD",
"T%	c #660C88",
"U%	c #5A1176",
"V%	c #2E193E",
"W%	c #404041",
"X%	c #413F3E",
"Y%	c #454240",
"Z%	c #414142",
"`%	c #3D4244",
" &	c #3F4647",
".&	c #46494B",
"+&	c #404044",
"@&	c #171411",
"#&	c #110E0D",
"$&	c #161213",
"%&	c #171213",
"&&	c #1C1714",
"*&	c #1A1716",
"=&	c #141213",
"-&	c #141013",
";&	c #191517",
">&	c #1E1B1B",
",&	c #1E1D1D",
"'&	c #18181A",
")&	c #141414",
"!&	c #10100F",
"~&	c #111010",
"{&	c #0E0E0F",
"]&	c #121211",
"^&	c #171616",
"/&	c #1A1B1B",
"(&	c #151415",
"_&	c #46484D",
":&	c #3D3D3E",
"<&	c #3A3634",
"[&	c #373432",
"}&	c #3C3B3A",
"|&	c #3E4242",
"1&	c #424545",
"2&	c #414546",
"3&	c #414345",
"4&	c #1E1E19",
"5&	c #2C2B2C",
"6&	c #3B3C40",
"7&	c #3B3C3F",
"8&	c #3B3F41",
"9&	c #32383A",
"0&	c #383E3F",
"a&	c #36393B",
"b&	c #1B191D",
"c&	c #202222",
"d&	c #383F41",
"e&	c #3B3F40",
"f&	c #3F403F",
"g&	c #3C3A3E",
"h&	c #531969",
"i&	c #A829D4",
"j&	c #D56DE7",
"k&	c #ED82F3",
"l&	c #F891FA",
"m&	c #AD44C7",
"n&	c #660B88",
"o&	c #6B118C",
"p&	c #3D1951",
"q&	c #4E4952",
"r&	c #44403E",
"s&	c #403F3D",
"t&	c #394044",
"u&	c #3A4045",
"v&	c #393B40",
"w&	c #151412",
"x&	c #161210",
"y&	c #1C1512",
"z&	c #1D1615",
"A&	c #1C1413",
"B&	c #1A1516",
"C&	c #171313",
"D&	c #1D1919",
"E&	c #1B1719",
"F&	c #2E2A2A",
"G&	c #2E2B2B",
"H&	c #272324",
"I&	c #221E1D",
"J&	c #1C1A1A",
"K&	c #1E1E1F",
"L&	c #232629",
"M&	c #293032",
"N&	c #272C2F",
"O&	c #222225",
"P&	c #45454A",
"Q&	c #39383C",
"R&	c #393837",
"S&	c #3C3C3B",
"T&	c #3B3D3D",
"U&	c #3E4243",
"V&	c #424646",
"W&	c #404445",
"X&	c #464A4B",
"Y&	c #1C1C17",
"Z&	c #2C2C2C",
"`&	c #3F4043",
" *	c #3E3F43",
".*	c #323236",
"+*	c #2F3334",
"@*	c #373C3A",
"#*	c #363A3A",
"$*	c #202020",
"%*	c #262828",
"&*	c #3E4647",
"**	c #3B4041",
"=*	c #3F413F",
"-*	c #4F1865",
";*	c #9821BF",
">*	c #AA31D3",
",*	c #F386F8",
"'*	c #E76CF0",
")*	c #EF83F4",
"!*	c #AD43C8",
"~*	c #660B87",
"{*	c #6C0F8F",
"]*	c #5C1479",
"^*	c #311940",
"/*	c #3E3938",
"(*	c #3F3634",
"_*	c #3E3634",
":*	c #393536",
"<*	c #3B3A3D",
"[*	c #404246",
"}*	c #3A3D43",
"|*	c #38393F",
"1*	c #111211",
"2*	c #17100F",
"3*	c #201614",
"4*	c #1B1311",
"5*	c #1E1614",
"6*	c #261D1C",
"7*	c #1D1614",
"8*	c #201815",
"9*	c #241E1C",
"0*	c #1C1A18",
"a*	c #2A2221",
"b*	c #251C1C",
"c*	c #211818",
"d*	c #2B231F",
"e*	c #221C1B",
"f*	c #241F1F",
"g*	c #2C2D2E",
"h*	c #343A3A",
"i*	c #2D3234",
"j*	c #26282C",
"k*	c #1F1F22",
"l*	c #47494D",
"m*	c #3E4042",
"n*	c #3E4142",
"o*	c #3C4142",
"p*	c #3F4446",
"q*	c #43494B",
"r*	c #454A4D",
"s*	c #484C50",
"t*	c #45474A",
"u*	c #1D1B17",
"v*	c #2D2D2B",
"w*	c #3D3F42",
"x*	c #3D4043",
"y*	c #2E2F32",
"z*	c #282929",
"A*	c #313331",
"B*	c #333432",
"C*	c #1B1918",
"D*	c #262929",
"E*	c #393F43",
"F*	c #393D40",
"G*	c #291F29",
"H*	c #7E1B9F",
"I*	c #AF26DD",
"J*	c #A82FCE",
"K*	c #F077F6",
"L*	c #E869F2",
"M*	c #EA74F3",
"N*	c #B345CB",
"O*	c #640C85",
"P*	c #610D80",
"Q*	c #620D83",
"R*	c #4C1762",
"S*	c #2C1835",
"T*	c #463B36",
"U*	c #3E3332",
"V*	c #3C3333",
"W*	c #3F3836",
"X*	c #443F40",
"Y*	c #433D40",
"Z*	c #131110",
"`*	c #120C0E",
" =	c #1E1515",
".=	c #1D1514",
"+=	c #261C18",
"@=	c #2B221F",
"#=	c #1F1716",
"$=	c #241B1A",
"%=	c #27201E",
"&=	c #1B1819",
"*=	c #251C1F",
"==	c #201716",
"-=	c #1D1413",
";=	c #231A1A",
">=	c #201A18",
",=	c #191312",
"'=	c #24201E",
")=	c #2B2B2A",
"!=	c #282728",
"~=	c #2A2928",
"{=	c #211F1F",
"]=	c #3F4246",
"^=	c #414346",
"/=	c #3C3D3F",
"(=	c #3D4245",
"_=	c #454B4E",
":=	c #45494D",
"<=	c #414244",
"[=	c #262726",
"}=	c #37393C",
"|=	c #2E3033",
"1=	c #292829",
"2=	c #2B292B",
"3=	c #272528",
"4=	c #1A1717",
"5=	c #2E3233",
"6=	c #485458",
"7=	c #41494D",
"8=	c #6E2283",
"9=	c #B132D9",
"0=	c #AB28DC",
"a=	c #C03BE5",
"b=	c #EF70F5",
"c=	c #E564F0",
"d=	c #E86DF1",
"e=	c #DE66EA",
"f=	c #670D86",
"g=	c #5C0D7C",
"h=	c #5B0D7A",
"i=	c #60127C",
"j=	c #4B2B5A",
"k=	c #423935",
"l=	c #3A3230",
"m=	c #453B37",
"n=	c #453832",
"o=	c #483933",
"p=	c #51443F",
"q=	c #4B4240",
"r=	c #161211",
"s=	c #150F11",
"t=	c #191012",
"u=	c #1F1416",
"v=	c #291D19",
"w=	c #271D1A",
"x=	c #221816",
"y=	c #211816",
"z=	c #1F1918",
"A=	c #161514",
"B=	c #1D1817",
"C=	c #261E1A",
"D=	c #2C2420",
"E=	c #251A19",
"F=	c #241916",
"G=	c #1F1613",
"H=	c #221916",
"I=	c #201B1A",
"J=	c #211E1E",
"K=	c #282623",
"L=	c #211E1D",
"M=	c #45484D",
"N=	c #424547",
"O=	c #434644",
"P=	c #3D3F40",
"Q=	c #3B3F42",
"R=	c #414448",
"S=	c #3C3F42",
"T=	c #181714",
"U=	c #292A29",
"V=	c #38393A",
"W=	c #3B3E3D",
"X=	c #313332",
"Y=	c #262626",
"Z=	c #272526",
"`=	c #1B1818",
" -	c #2A3132",
".-	c #4F5E64",
"+-	c #291325",
"@-	c #752292",
"#-	c #B83CE5",
"$-	c #AE38DF",
"%-	c #DF6BEF",
"&-	c #EC6DF5",
"*-	c #E561F1",
"=-	c #E463EF",
"--	c #E261ED",
";-	c #680D88",
">-	c #5D0D7C",
",-	c #611180",
"'-	c #5C1679",
")-	c #34223F",
"!-	c #383538",
"~-	c #413D3C",
"{-	c #423632",
"]-	c #483731",
"^-	c #50403B",
"/-	c #4B3F3E",
"(-	c #161414",
"_-	c #141211",
":-	c #171212",
"<-	c #181012",
"[-	c #271B19",
"}-	c #241A18",
"|-	c #211717",
"1-	c #1C1516",
"2-	c #141314",
"3-	c #1D1B19",
"4-	c #2D2520",
"5-	c #372E2A",
"6-	c #271C1B",
"7-	c #251817",
"8-	c #281D1B",
"9-	c #201918",
"0-	c #201919",
"a-	c #28211F",
"b-	c #201B19",
"c-	c #45464A",
"d-	c #3E3D3F",
"e-	c #3E3E3D",
"f-	c #403D3C",
"g-	c #3D3A39",
"h-	c #3F3E3B",
"i-	c #3E3D3C",
"j-	c #3A3A3A",
"k-	c #404346",
"l-	c #171714",
"m-	c #282828",
"n-	c #373838",
"o-	c #393938",
"p-	c #353533",
"q-	c #2B2928",
"r-	c #2B282A",
"s-	c #2F2E2D",
"t-	c #1C1A19",
"u-	c #2D3435",
"v-	c #4E5D64",
"w-	c #8F2AAC",
"x-	c #B933E3",
"y-	c #B232E3",
"z-	c #C458E3",
"A-	c #F07AF5",
"B-	c #E666F0",
"C-	c #E762F2",
"D-	c #E561F0",
"E-	c #E35DEE",
"F-	c #6B0F8B",
"G-	c #5C0D7D",
"H-	c #5E0D7E",
"I-	c #5D0E7D",
"J-	c #5F117E",
"K-	c #491660",
"L-	c #393435",
"M-	c #3E3637",
"N-	c #4A3834",
"O-	c #48342E",
"P-	c #493732",
"Q-	c #4A3B3A",
"R-	c #0E0E0D",
"S-	c #151110",
"T-	c #1C1314",
"U-	c #1A1112",
"V-	c #191110",
"W-	c #1D1A1D",
"X-	c #302B2C",
"Y-	c #39312E",
"Z-	c #372F2B",
"`-	c #191112",
" ;	c #1D1616",
".;	c #201817",
"+;	c #2E2521",
"@;	c #251F1D",
"#;	c #424145",
"$;	c #3E3B3C",
"%;	c #403C3B",
"&;	c #3D3736",
"*;	c #403B39",
"=;	c #3C3938",
"-;	c #363433",
";;	c #393A39",
">;	c #404547",
",;	c #191816",
"';	c #242527",
");	c #333335",
"!;	c #373637",
"~;	c #2E2C2E",
"{;	c #2E2C2A",
"];	c #211E20",
"^;	c #201E1F",
"/;	c #323637",
"(;	c #4F1861",
"_;	c #9D26C0",
":;	c #C02FED",
"<;	c #AE2AE2",
"[;	c #D57BEB",
"};	c #F082F6",
"|;	c #E763F1",
"1;	c #E760F1",
"2;	c #E55BEF",
"3;	c #8821A1",
"4;	c #5C0B7C",
"5;	c #600E81",
"6;	c #5F0E80",
"7;	c #611183",
"8;	c #611781",
"9;	c #3E1C4E",
"0;	c #3F3735",
"a;	c #52403A",
"b;	c #533E39",
"c;	c #483632",
"d;	c #443736",
"e;	c #131212",
"f;	c #0F0D0C",
"g;	c #130F10",
"h;	c #181313",
"i;	c #1E1615",
"j;	c #140E11",
"k;	c #151011",
"l;	c #1B1412",
"m;	c #181314",
"n;	c #332F2E",
"o;	c #38312E",
"p;	c #302825",
"q;	c #1F1816",
"r;	c #1D1717",
"s;	c #191414",
"t;	c #1B1514",
"u;	c #1E1817",
"v;	c #48494D",
"w;	c #424347",
"x;	c #424244",
"y;	c #3B3B3B",
"z;	c #3C3C3C",
"A;	c #414041",
"B;	c #3B3B3D",
"C;	c #363839",
"D;	c #3A4041",
"E;	c #434A4E",
"F;	c #252325",
"G;	c #302F32",
"H;	c #383737",
"I;	c #2B2929",
"J;	c #23221F",
"K;	c #747473",
"L;	c #3C3240",
"M;	c #7D2399",
"N;	c #BF2FE8",
"O;	c #BB2CEB",
"P;	c #B542DE",
"Q;	c #E077EF",
"R;	c #E273F2",
"S;	c #DB5FEE",
"T;	c #E164EF",
"U;	c #E865F3",
"V;	c #E357EF",
"W;	c #B545C3",
"X;	c #5F0D7F",
"Y;	c #600C81",
"Z;	c #620F85",
"`;	c #8125AF",
" >	c #6A2390",
".>	c #462F52",
"+>	c #4F3D35",
"@>	c #503C37",
"#>	c #4B3934",
"$>	c #473A38",
"%>	c #151513",
"&>	c #100C0A",
"*>	c #120C0C",
"=>	c #141011",
"->	c #191514",
";>	c #161013",
">>	c #231D1B",
",>	c #1E191A",
"'>	c #131012",
")>	c #23201D",
"!>	c #2B2523",
"~>	c #2F2623",
"{>	c #2A211E",
"]>	c #211C18",
"^>	c #17110F",
"/>	c #1D1612",
"(>	c #1E1716",
"_>	c #171312",
":>	c #464A4F",
"<>	c #3E4041",
"[>	c #3F4040",
"}>	c #3F4343",
"|>	c #3B434A",
"1>	c #3B4347",
"2>	c #303133",
"3>	c #2F2F2E",
"4>	c #2F2F2C",
"5>	c #242427",
"6>	c #8E918D",
"7>	c #79787B",
"8>	c #551B6B",
"9>	c #9122B6",
"0>	c #AE27D8",
"a>	c #AA26DA",
"b>	c #CD61E3",
"c>	c #DF6AEF",
"d>	c #D65BEE",
"e>	c #D357EE",
"f>	c #D95FEF",
"g>	c #E363F1",
"h>	c #E663EE",
"i>	c #C257CA",
"j>	c #5D0C7E",
"k>	c #5F0D81",
"l>	c #9B22C3",
"m>	c #BF31ED",
"n>	c #B736EA",
"o>	c #6E2491",
"p>	c #4F4257",
"q>	c #4E3831",
"r>	c #503D36",
"s>	c #4D403C",
"t>	c #151410",
"u>	c #110C09",
"v>	c #170F0F",
"w>	c #151010",
"x>	c #0E0B0B",
"y>	c #0D0B0B",
"z>	c #1A1511",
"A>	c #211B17",
"B>	c #1C1717",
"C>	c #161413",
"D>	c #1F1C19",
"E>	c #191412",
"F>	c #1E1B1A",
"G>	c #181413",
"H>	c #241C16",
"I>	c #201916",
"J>	c #231E1C",
"K>	c #1B1A19",
"L>	c #494D50",
"M>	c #444749",
"N>	c #3C3D3E",
"O>	c #3B3939",
"P>	c #3B3837",
"Q>	c #393637",
"R>	c #3C3B3C",
"S>	c #3B3E41",
"T>	c #40464B",
"U>	c #40464A",
"V>	c #252525",
"W>	c #313435",
"X>	c #303232",
"Y>	c #303130",
"Z>	c #343432",
"`>	c #232326",
" ,	c #888B89",
".,	c #3F2549",
"+,	c #7C199D",
"@,	c #961DBE",
"#,	c #A325D1",
"$,	c #9F22CE",
"%,	c #CC62E2",
"&,	c #DD66F1",
"*,	c #D254ED",
"=,	c #D154ED",
"-,	c #D155EC",
";,	c #D85DED",
">,	c #EC7DF0",
",,	c #C859CF",
"',	c #660E85",
"),	c #650E88",
"!,	c #A624CF",
"~,	c #A02BE8",
"{,	c #9431EE",
"],	c #9B34EC",
"^,	c #A733E8",
"/,	c #521F6B",
"(,	c #5C545E",
"_,	c #4E3F3D",
":,	c #4D4444",
"<,	c #12120F",
"[,	c #0B0805",
"},	c #150F0F",
"|,	c #0D090B",
"1,	c #0E0B0D",
"2,	c #181310",
"3,	c #100D0D",
"4,	c #1C1716",
"5,	c #141012",
"6,	c #161314",
"7,	c #151514",
"8,	c #14100F",
"9,	c #251C19",
"0,	c #2B211C",
"a,	c #2D2723",
"b,	c #24211F",
"c,	c #434549",
"d,	c #3E3E40",
"e,	c #3A3937",
"f,	c #3A3838",
"g,	c #3F3D3D",
"h,	c #3F3E40",
"i,	c #44474A",
"j,	c #414548",
"k,	c #171611",
"l,	c #242322",
"m,	c #2F3030",
"n,	c #2B2C2B",
"o,	c #282827",
"p,	c #1F1D21",
"q,	c #615F64",
"r,	c #9128B1",
"s,	c #A01EC8",
"t,	c #981BC1",
"u,	c #A122D0",
"v,	c #A328D0",
"w,	c #D460E7",
"x,	c #DB5EF0",
"y,	c #D050ED",
"z,	c #DB5BEE",
"A,	c #DE4FE1",
"B,	c #9726A9",
"C,	c #B32AE1",
"D,	c #A027E3",
"E,	c #982AEA",
"F,	c #942FEF",
"G,	c #952FEE",
"H,	c #9E2FE8",
"I,	c #9830C0",
"J,	c #381448",
"K,	c #463D3E",
"L,	c #101110",
"M,	c #0E0C0A",
"N,	c #17120F",
"O,	c #16110F",
"P,	c #100B0B",
"Q,	c #1B1716",
"R,	c #1C1816",
"S,	c #141312",
"T,	c #100E0D",
"U,	c #221F1D",
"V,	c #242020",
"W,	c #201D1D",
"X,	c #231C1B",
"Y,	c #241819",
"Z,	c #302422",
"`,	c #372A25",
" '	c #312623",
".'	c #424548",
"+'	c #3D3A38",
"@'	c #3B3737",
"#'	c #393636",
"$'	c #3E3A3A",
"%'	c #403C3C",
"&'	c #3F3D3C",
"*'	c #454446",
"='	c #191815",
"-'	c #242325",
";'	c #565059",
">'	c #541B70",
",'	c #9C1FC7",
"''	c #981AC1",
")'	c #991BC3",
"!'	c #9E1DCD",
"~'	c #B73FD9",
"{'	c #E663F6",
"]'	c #D049ED",
"^'	c #D04DEC",
"/'	c #D04FEC",
"('	c #D253EC",
"_'	c #D254EB",
":'	c #DE5CF0",
"<'	c #EA5DEE",
"['	c #AF32C7",
"}'	c #AF2CE6",
"|'	c #8F24E0",
"1'	c #952AEE",
"2'	c #942BEF",
"3'	c #942CEF",
"4'	c #962BEF",
"5'	c #9F2EEE",
"6'	c #781FA7",
"7'	c #25182E",
"8'	c #616261",
"9'	c #6D6F6D",
"0'	c #100C0D",
"a'	c #130F0C",
"b'	c #110C0A",
"c'	c #16100E",
"d'	c #140F0A",
"e'	c #201A15",
"f'	c #201B17",
"g'	c #2F2C28",
"h'	c #2F2A26",
"i'	c #241D1C",
"j'	c #241D1D",
"k'	c #362D29",
"l'	c #3C312A",
"m'	c #322621",
"n'	c #352723",
"o'	c #312421",
"p'	c #322723",
"q'	c #29211E",
"r'	c #3C3A3B",
"s'	c #403E3C",
"t'	c #3C3939",
"u'	c #3F3C3D",
"v'	c #3F3D3B",
"w'	c #3A3B38",
"x'	c #3F4041",
"y'	c #1C1918",
"z'	c #23201F",
"A'	c #1F1B1B",
"B'	c #201F20",
"C'	c #292B29",
"D'	c #523A5D",
"E'	c #9A27B8",
"F'	c #A724CB",
"G'	c #8E17B6",
"H'	c #9218BC",
"I'	c #9A1CC9",
"J'	c #B33FD5",
"K'	c #E767F5",
"L'	c #D049EC",
"M'	c #CE49EA",
"N'	c #D450ED",
"O'	c #DF5AF0",
"P'	c #C845DB",
"Q'	c #C437D6",
"R'	c #CA39E6",
"S'	c #A82DE1",
"T'	c #9123E0",
"U'	c #952AEF",
"V'	c #952AF0",
"W'	c #952BF0",
"X'	c #942AEF",
"Y'	c #922AED",
"Z'	c #A029E4",
"`'	c #411558",
" )	c #535258",
".)	c #727272",
"+)	c #6E6F6E",
"@)	c #120C0B",
"#)	c #0F0C0B",
"$)	c #171211",
"%)	c #17120E",
"&)	c #241E19",
"*)	c #211B19",
"=)	c #292624",
"-)	c #2A2423",
";)	c #261F1E",
">)	c #25201F",
",)	c #302B29",
"')	c #2D2623",
"))	c #2A201E",
"!)	c #332822",
"~)	c #2F241E",
"{)	c #2F231E",
"])	c #271D1C",
"^)	c #3F4345",
"/)	c #3F3F3E",
"()	c #3F3E3D",
"_)	c #3E3B3B",
":)	c #3C3B3D",
"<)	c #373938",
"[)	c #3B3F43",
"})	c #191615",
"|)	c #191617",
"1)	c #19151B",
"2)	c #78208E",
"3)	c #AE2DC7",
"4)	c #B329D0",
"5)	c #A324C3",
"6)	c #A525C6",
"7)	c #9B26C4",
"8)	c #E36EED",
"9)	c #E96EF4",
"0)	c #DE58EF",
"a)	c #DC55ED",
"b)	c #E55DF0",
"c)	c #D054DE",
"d)	c #8C23A4",
"e)	c #590976",
"f)	c #570874",
"g)	c #9A21B5",
"h)	c #C737E5",
"i)	c #9824DC",
"j)	c #9427EE",
"k)	c #952AF1",
"l)	c #9428EF",
"m)	c #9227EF",
"n)	c #A92EEB",
"o)	c #9F29D6",
"p)	c #431B51",
"q)	c #5A5A5C",
"r)	c #737473",
"s)	c #110E0A",
"t)	c #0E0B07",
"u)	c #16130D",
"v)	c #18140F",
"w)	c #14100D",
"x)	c #18130E",
"y)	c #151210",
"z)	c #0C0B0C",
"A)	c #181614",
"B)	c #211B18",
"C)	c #2B2420",
"D)	c #221E1A",
"E)	c #1E1C17",
"F)	c #1F1B19",
"G)	c #221E1C",
"H)	c #26201C",
"I)	c #1F1713",
"J)	c #424344",
"K)	c #3E3E3E",
"L)	c #3C3A39",
"M)	c #3D3C3C",
"N)	c #3D3E41",
"O)	c #414347",
"P)	c #131210",
"Q)	c #1F1C1C",
"R)	c #181715",
"S)	c #151312",
"T)	c #211A21",
"U)	c #450D5E",
"V)	c #5F117C",
"W)	c #8D22A3",
"X)	c #9B29B0",
"Y)	c #AE2EC5",
"Z)	c #C43DDB",
"`)	c #F16CF6",
" !	c #EC6EF4",
".!	c #EF70F6",
"+!	c #DB58E5",
"@!	c #8C28A2",
"#!	c #5F0E7D",
"$!	c #560A73",
"%!	c #540A72",
"&!	c #550A76",
"*!	c #560879",
"=!	c #9F25B9",
"-!	c #BD2FE4",
";!	c #9224E4",
">!	c #9529EF",
",!	c #9428F0",
"'!	c #9327EF",
")!	c #B232F2",
"!!	c #AB37E9",
"~!	c #8B26AA",
"{!	c #4A424F",
"]!	c #555556",
"^!	c #110D0A",
"/!	c #140F0C",
"(!	c #1B1611",
"_!	c #17110E",
":!	c #120D0D",
"<!	c #0E0909",
"[!	c #0E0D0C",
"}!	c #0E0D0D",
"|!	c #141413",
"1!	c #181412",
"2!	c #1D1716",
"3!	c #201C1A",
"4!	c #1C1715",
"5!	c #1A1613",
"6!	c #13110F",
"7!	c #1A1411",
"8!	c #211916",
"9!	c #1F1815",
"0!	c #3D3C3D",
"a!	c #3C3B3B",
"b!	c #3D3D3C",
"c!	c #3F3F41",
"d!	c #454649",
"e!	c #3C3F41",
"f!	c #11110F",
"g!	c #1D1A19",
"h!	c #252120",
"i!	c #1B1917",
"j!	c #141111",
"k!	c #171615",
"l!	c #311C3F",
"m!	c #61147F",
"n!	c #4F1167",
"o!	c #510F6D",
"p!	c #61117D",
"q!	c #AE31C6",
"r!	c #EA5BF2",
"s!	c #ED67F6",
"t!	c #BC4BCB",
"u!	c #701A8E",
"v!	c #580C79",
"w!	c #570D78",
"x!	c #570C78",
"y!	c #5E0C80",
"z!	c #630E86",
"A!	c #590B7C",
"B!	c #570A78",
"C!	c #A724C7",
"D!	c #B22BE8",
"E!	c #9826EB",
"F!	c #9428EE",
"G!	c #9429F1",
"H!	c #9329F0",
"I!	c #9129F0",
"J!	c #AE37F1",
"K!	c #B334CF",
"L!	c #741D8C",
"M!	c #281F2E",
"N!	c #140F0D",
"O!	c #1A1311",
"P!	c #120D0B",
"Q!	c #100E0C",
"R!	c #0C0A09",
"S!	c #161517",
"T!	c #121416",
"U!	c #141517",
"V!	c #232322",
"W!	c #2D2A2A",
"X!	c #2C2A29",
"Y!	c #171716",
"Z!	c #1A1917",
"`!	c #292523",
" ~	c #211C1A",
".~	c #3E3F41",
"+~	c #39393A",
"@~	c #3D3B39",
"#~	c #424144",
"$~	c #3A393A",
"%~	c #1E1B19",
"&~	c #282322",
"*~	c #151313",
"=~	c #2D2731",
"-~	c #5F137E",
";~	c #51116B",
">~	c #551070",
",~	c #5A0F78",
"'~	c #5F0F7F",
")~	c #A825C0",
"!~	c #C635DC",
"~~	c #7E1D9C",
"{~	c #5E0D82",
"]~	c #5C0D7E",
"^~	c #5B0E7B",
"/~	c #590D7A",
"(~	c #610D85",
"_~	c #5D0E80",
":~	c #5A0D7D",
"<~	c #590C7B",
"[~	c #5A0C7B",
"}~	c #BC2ADE",
"|~	c #AD28E7",
"1~	c #9124E9",
"2~	c #932AF1",
"3~	c #8B25E6",
"4~	c #BD3CEF",
"5~	c #B025C7",
"6~	c #7C1D94",
"7~	c #220F2A",
"8~	c #3C3639",
"9~	c #383637",
"0~	c #3E3B3D",
"a~	c #343435",
"b~	c #2E2E2F",
"c~	c #242424",
"d~	c #0A0705",
"e~	c #1B1B1E",
"f~	c #191A1D",
"g~	c #242425",
"h~	c #33302F",
"i~	c #232323",
"j~	c #222423",
"k~	c #2F2C2A",
"l~	c #393838",
"m~	c #383635",
"n~	c #3B3839",
"o~	c #3D3B3C",
"p~	c #3A393B",
"q~	c #403D3F",
"r~	c #3A3839",
"s~	c #13120F",
"t~	c #120E11",
"u~	c #191614",
"v~	c #28222A",
"w~	c #5E127E",
"x~	c #591276",
"y~	c #61137F",
"z~	c #7810A0",
"A~	c #680F8C",
"B~	c #7D1996",
"C~	c #C331DA",
"D~	c #6D0F8E",
"E~	c #5E0D80",
"F~	c #5E0D7F",
"G~	c #5D0E7E",
"H~	c #5B0E7E",
"I~	c #5B0E7D",
"J~	c #590D7C",
"K~	c #5B0C7D",
"L~	c #5C0B7E",
"M~	c #6D118F",
"N~	c #C32DE9",
"O~	c #AA2BEC",
"P~	c #9E2AED",
"Q~	c #B137F2",
"R~	c #A836E7",
"S~	c #AA36D0",
"T~	c #4B1260",
"U~	c #3D0F4F",
"V~	c #211026",
"W~	c #3E3638",
"X~	c #3D373A",
"Y~	c #474141",
"Z~	c #433F40",
"`~	c #373638",
" {	c #3F4042",
".{	c #0E0B09",
"+{	c #100F0C",
"@{	c #151413",
"#{	c #1B1A1A",
"${	c #242323",
"%{	c #212121",
"&{	c #242627",
"*{	c #2A2C2E",
"={	c #2B2E2F",
"-{	c #2C2F30",
";{	c #282A2C",
">{	c #444446",
",{	c #3D3B3D",
"'{	c #393738",
"){	c #3C3838",
"!{	c #3E3939",
"~{	c #3C3837",
"{{	c #3C383A",
"]{	c #3D3837",
"^{	c #393534",
"/{	c #14120D",
"({	c #221C18",
"_{	c #271F1D",
":{	c #141112",
"<{	c #191818",
"[{	c #481760",
"}{	c #611181",
"|{	c #630F84",
"1{	c #770FA0",
"2{	c #6C0F91",
"3{	c #7F1B9B",
"4{	c #BF31D7",
"5{	c #690E8B",
"6{	c #5C0E7F",
"7{	c #5D0F80",
"8{	c #5B0E7F",
"9{	c #5B0D7D",
"0{	c #5C0C7F",
"a{	c #6E0D95",
"b{	c #5D0A80",
"c{	c #8D1CB5",
"d{	c #B229E1",
"e{	c #B32BDD",
"f{	c #8D20B1",
"g{	c #601679",
"h{	c #56126E",
"i{	c #4E1362",
"j{	c #3E1F4F",
"k{	c #352F3A",
"l{	c #403636",
"m{	c #443837",
"n{	c #493F3A",
"o{	c #48413E",
"p{	c #3A363A",
"q{	c #2A2B2E",
"r{	c #0A0500",
"s{	c #263138",
"t{	c #313D49",
"u{	c #38444F",
"v{	c #445159",
"w{	c #465259",
"x{	c #445056",
"y{	c #4D5960",
"z{	c #536169",
"A{	c #4C5C65",
"B{	c #4B5B64",
"C{	c #4B565D",
"D{	c #423F42",
"E{	c #3F3936",
"F{	c #3D3632",
"G{	c #3F3734",
"H{	c #413834",
"I{	c #3C342F",
"J{	c #393533",
"K{	c #0D100B",
"L{	c #1F1917",
"M{	c #27201F",
"N{	c #1B1817",
"O{	c #131112",
"P{	c #23152D",
"Q{	c #75119E",
"R{	c #790FA3",
"S{	c #7B10A5",
"T{	c #730F9C",
"U{	c #811B9D",
"V{	c #B82FD0",
"W{	c #620E84",
"X{	c #5C0F7D",
"Y{	c #5A0E7C",
"Z{	c #5C0F80",
"`{	c #5D0F82",
" ]	c #5E0F81",
".]	c #5D0E7F",
"+]	c #610D86",
"@]	c #730D9C",
"#]	c #600B84",
"$]	c #8716B1",
"%]	c #941DBE",
"&]	c #610E80",
"*]	c #4D0B67",
"=]	c #540E6E",
"-]	c #5B1175",
";]	c #641880",
">]	c #3F3248",
",]	c #292324",
"']	c #382C2D",
")]	c #433635",
"!]	c #433531",
"~]	c #3C3431",
"{]	c #343236",
"]]	c #27292C",
"^]	c #0B0600",
"/]	c #333F47",
"(]	c #35414B",
"_]	c #363F48",
":]	c #40484E",
"<]	c #3C4248",
"[]	c #3F4447",
"}]	c #4A5257",
"|]	c #434D53",
"1]	c #3E474E",
"2]	c #3D4347",
"3]	c #433D41",
"4]	c #3E3736",
"5]	c #3C3331",
"6]	c #3C322F",
"7]	c #3E332F",
"8]	c #40342F",
"9]	c #3A2F2A",
"0]	c #3A3535",
"a]	c #0C0E0E",
"b]	c #1A1616",
"c]	c #261F20",
"d]	c #1C1818",
"e]	c #181617",
"f]	c #291932",
"g]	c #7912A3",
"h]	c #8014A9",
"i]	c #6E0E94",
"j]	c #6C0E92",
"k]	c #81199D",
"l]	c #B72ECE",
"m]	c #70148C",
"n]	c #6A178A",
"o]	c #580E79",
"p]	c #5F0F82",
"q]	c #620E87",
"r]	c #6C0F95",
"s]	c #6F0C9A",
"t]	c #6B0D94",
"u]	c #710F98",
"v]	c #8617AF",
"w]	c #741398",
"x]	c #500B6D",
"y]	c #520D6E",
"z]	c #570E74",
"A]	c #5C1079",
"B]	c #61147D",
"C]	c #311E39",
"D]	c #2A2628",
"E]	c #3B3237",
"F]	c #3E3437",
"G]	c #382E2E",
"H]	c #36302E",
"I]	c #373738",
"J]	c #37393E",
"K]	c #222527",
"L]	c #0A0600",
"M]	c #2F373C",
"N]	c #343B40",
"O]	c #333639",
"P]	c #303030",
"Q]	c #282321",
"R]	c #2D2823",
"S]	c #292422",
"T]	c #333331",
"U]	c #2E2E2C",
"V]	c #272625",
"W]	c #464040",
"X]	c #3F3635",
"Y]	c #3D3430",
"Z]	c #3D332E",
"`]	c #3D312D",
" ^	c #3C2F2C",
".^	c #3F3130",
"+^	c #40322E",
"@^	c #423630",
"#^	c #453732",
"$^	c #382F2F",
"%^	c #090A0A",
"&^	c #1D1718",
"*^	c #292021",
"=^	c #1D1918",
"-^	c #161312",
";^	c #191613",
">^	c #191716",
",^	c #3C3642",
"'^	c #6D1B90",
")^	c #8D1BB7",
"!^	c #6D1091",
"~^	c #69108D",
"{^	c #6E128F",
"]^	c #A928BE",
"^^	c #9620AD",
"/^	c #660E8B",
"(^	c #650E8C",
"_^	c #670E8F",
":^	c #6A0F91",
"<^	c #6D1095",
"[^	c #750FA2",
"}^	c #7A0FA8",
"|^	c #780EA6",
"1^	c #700E9B",
"2^	c #8215AD",
"3^	c #7F15A6",
"4^	c #570C76",
"5^	c #520B6F",
"6^	c #550C73",
"7^	c #571073",
"8^	c #581373",
"9^	c #392C3E",
"0^	c #322D2F",
"a^	c #3A3234",
"b^	c #2E2524",
"c^	c #2D2828",
"d^	c #3B393B",
"e^	c #242626",
"f^	c #090401",
"g^	c #2C333B",
"h^	c #313943",
"i^	c #3A4247",
"j^	c #2C2927",
"k^	c #1F1C1D",
"l^	c #242225",
"m^	c #2B2C2C",
"n^	c #2A2A2A",
"o^	c #494242",
"p^	c #40332D",
"q^	c #3E322D",
"r^	c #3F332E",
"s^	c #473932",
"t^	c #52453F",
"u^	c #4A3E39",
"v^	c #382F2D",
"w^	c #0C0D0E",
"x^	c #292121",
"y^	c #1C1819",
"z^	c #191817",
"A^	c #1C1B1A",
"B^	c #452059",
"C^	c #911BBE",
"D^	c #711396",
"E^	c #67118B",
"F^	c #68128A",
"G^	c #A127B7",
"H^	c #9922B3",
"I^	c #690E91",
"J^	c #690F91",
"K^	c #6A0F92",
"L^	c #6E1097",
"M^	c #7710A3",
"N^	c #7810A6",
"O^	c #770FA6",
"P^	c #780FA7",
"Q^	c #7C12AB",
"R^	c #8918B6",
"S^	c #7915A0",
"T^	c #530B72",
"U^	c #570D76",
"V^	c #570E76",
"W^	c #560E75",
"X^	c #631283",
"Y^	c #30203D",
"Z^	c #1C1D1B",
"`^	c #312B29",
" /	c #3A302E",
"./	c #302722",
"+/	c #291F1D",
"@/	c #2E2928",
"#/	c #3B393A",
"$/	c #464548",
"%/	c #313132",
"&/	c #2D373E",
"*/	c #2F3A44",
"=/	c #384247",
"-/	c #373C3E",
";/	c #343430",
">/	c #211D1B",
",/	c #2B2826",
"'/	c #323032",
")/	c #353636",
"!/	c #383A38",
"~/	c #333433",
"{/	c #4B4444",
"]/	c #3E3734",
"^/	c #3C312D",
"//	c #40332F",
"(/	c #3E312D",
"_/	c #3D322E",
":/	c #3E3531",
"</	c #483D38",
"[/	c #4E4441",
"}/	c #483C38",
"|/	c #3A322E",
"1/	c #0F1010",
"2/	c #201C19",
"3/	c #281F1D",
"4/	c #141515",
"5/	c #161615",
"6/	c #151515",
"7/	c #421E55",
"8/	c #8F1ABE",
"9/	c #6E1292",
"0/	c #66118A",
"a/	c #671189",
"b/	c #A228B7",
"c/	c #9921B3",
"d/	c #690F93",
"e/	c #710F9B",
"f/	c #790FA7",
"g/	c #7810A7",
"h/	c #8014AE",
"i/	c #921BC0",
"j/	c #75149D",
"k/	c #580E77",
"l/	c #570F76",
"m/	c #26222C",
"n/	c #191A16",
"o/	c #2B2524",
"p/	c #362C29",
"q/	c #372E2B",
"r/	c #302626",
"s/	c #35312E",
"t/	c #353534",
"u/	c #2B2C2F",
"v/	c #0B0A04",
"w/	c #323D42",
"x/	c #3B464E",
"y/	c #374146",
"z/	c #2F3336",
"A/	c #2C2B27",
"B/	c #231F1C",
"C/	c #332F2D",
"D/	c #404140",
"E/	c #494342",
"F/	c #433A35",
"G/	c #42352E",
"H/	c #40332E",
"I/	c #3E322E",
"J/	c #3A302D",
"K/	c #4B413C",
"L/	c #4E403B",
"M/	c #413734",
"N/	c #0C0D0C",
"O/	c #1E1816",
"P/	c #29201D",
"Q/	c #121212",
"R/	c #141212",
"S/	c #131113",
"T/	c #1D1B1C",
"U/	c #3A1C4A",
"V/	c #861AAF",
"W/	c #7F18A4",
"X/	c #69118B",
"Y/	c #A428B9",
"Z/	c #6B0F93",
"`/	c #780EA4",
" (	c #770EA3",
".(	c #780FA5",
"+(	c #7910A7",
"@(	c #7911A7",
"#(	c #7910A8",
"$(	c #8315B2",
"%(	c #8B1BB6",
"&(	c #661189",
"*(	c #5C0E7D",
"=(	c #5A0F7A",
"-(	c #570F77",
";(	c #4C1567",
">(	c #221E26",
",(	c #1A1A17",
"'(	c #2F2A28",
")(	c #352D2A",
"!(	c #2D2724",
"~(	c #39332F",
"{(	c #413F3C",
"](	c #2E2F2E",
"^(	c #282D2E",
"/(	c #1D2023",
"((	c #0A0903",
"_(	c #2F3A3E",
":(	c #3D484F",
"<(	c #3E474C",
"[(	c #2C2A24",
"}(	c #32302E",
"|(	c #3B3B39",
"1(	c #363838",
"2(	c #383A3C",
"3(	c #47403F",
"4(	c #493D39",
"5(	c #483A32",
"6(	c #42332C",
"7(	c #3E312B",
"8(	c #3E322C",
"9(	c #3C302C",
"0(	c #463933",
"a(	c #493933",
"b(	c #3C302B",
"c(	c #080A09",
"d(	c #1E1715",
"e(	c #2F2422",
"f(	c #161313",
"g(	c #151311",
"h(	c #1E1C1C",
"i(	c #1D1A1B",
"j(	c #54196C",
"k(	c #871BAE",
"l(	c #6C1290",
"m(	c #6B128D",
"n(	c #A427BB",
"o(	c #A728C0",
"p(	c #8213AF",
"q(	c #7E10AC",
"r(	c #7C10A9",
"s(	c #7810A5",
"t(	c #7911A8",
"u(	c #8818B6",
"v(	c #731498",
"w(	c #5C0F7E",
"x(	c #580F7A",
"y(	c #6A158A",
"z(	c #241F2A",
"A(	c #241E1D",
"B(	c #161717",
"C(	c #232222",
"D(	c #2C2928",
"E(	c #272423",
"F(	c #332C2A",
"G(	c #3E3A38",
"H(	c #343436",
"I(	c #2A2E32",
"J(	c #202428",
"K(	c #0B0905",
"L(	c #2C3336",
"M(	c #33383D",
"N(	c #323638",
"O(	c #252422",
"P(	c #403D3B",
"Q(	c #424341",
"R(	c #4A4140",
"S(	c #463936",
"T(	c #47372F",
"U(	c #42302A",
"V(	c #3B2B24",
"W(	c #3C2E27",
"X(	c #473B33",
"Y(	c #3F302A",
"Z(	c #3E2E27",
"`(	c #342A25",
" _	c #090C0B",
"._	c #2B201D",
"+_	c #251D19",
"@_	c #181212",
"#_	c #161110",
"$_	c #1E1C1A",
"%_	c #4E1468",
"&_	c #7F18A9",
"*_	c #6D1291",
"=_	c #6F1491",
"-_	c #8118A0",
";_	c #C337DC",
">_	c #8E1BB8",
",_	c #7E10AD",
"'_	c #7C10AA",
")_	c #7A10A8",
"!_	c #7B12A8",
"~_	c #7912A6",
"{_	c #8B18BA",
"]_	c #8E1ABC",
"^_	c #5A0C78",
"/_	c #5E0E80",
"(_	c #5E1080",
"__	c #5F1182",
":_	c #6F1890",
"<_	c #2C252F",
"[_	c #151715",
"}_	c #1D1C1B",
"|_	c #1F1B1D",
"1_	c #332D2B",
"2_	c #3D3734",
"3_	c #363332",
"4_	c #2F3135",
"5_	c #100E07",
"6_	c #323133",
"7_	c #312F32",
"8_	c #2F2F2F",
"9_	c #2F2F2D",
"0_	c #383735",
"a_	c #3C3D3B",
"b_	c #3E403E",
"c_	c #3D3F3F",
"d_	c #4B4140",
"e_	c #443734",
"f_	c #44342D",
"g_	c #413029",
"h_	c #3B2A24",
"i_	c #3A2A26",
"j_	c #3C2E29",
"k_	c #41332D",
"l_	c #3C2E2A",
"m_	c #3C2D29",
"n_	c #372D2A",
"o_	c #0E1110",
"p_	c #1E1819",
"q_	c #231B19",
"r_	c #191513",
"s_	c #0F0E0D",
"t_	c #120E0D",
"u_	c #171413",
"v_	c #181615",
"w_	c #151414",
"x_	c #4B1166",
"y_	c #8016AC",
"z_	c #731497",
"A_	c #6F1493",
"B_	c #721396",
"C_	c #C33CDB",
"D_	c #951FBE",
"E_	c #7F11AD",
"F_	c #8515B3",
"G_	c #931BC1",
"H_	c #8315B1",
"I_	c #8214B0",
"J_	c #7F14AC",
"K_	c #971CC4",
"L_	c #8618B3",
"M_	c #570C74",
"N_	c #5E0E7F",
"O_	c #5E0F7F",
"P_	c #5F0F81",
"Q_	c #741699",
"R_	c #571871",
"S_	c #58545B",
"T_	c #525458",
"U_	c #1D1F1D",
"V_	c #272320",
"W_	c #2C2622",
"X_	c #292221",
"Y_	c #36302B",
"Z_	c #342F2E",
"`_	c #111009",
" :	c #3B383A",
".:	c #383537",
"+:	c #2F2F31",
"@:	c #353535",
"#:	c #373939",
"$:	c #393B3C",
"%:	c #4A4343",
"&:	c #453B38",
"*:	c #3E302B",
"=:	c #3C2F2B",
"-:	c #3B302C",
";:	c #3A2E2A",
">:	c #3C322D",
",:	c #382C28",
"':	c #37302E",
"):	c #0E1211",
"!:	c #221D1C",
"~:	c #0D0D0D",
"{:	c #0E0E0E",
"]:	c #1D1E1E",
"^:	c #202121",
"/:	c #403C43",
"(:	c #661288",
"_:	c #7D16A3",
"::	c #75169A",
"<:	c #7A179D",
"[:	c #C840DF",
"}:	c #9721C0",
"|:	c #8C18B9",
"1:	c #8D18B9",
"2:	c #8B19B8",
"3:	c #8516B3",
"4:	c #911CBF",
"5:	c #6C1490",
"6:	c #5F0E81",
"7:	c #611084",
"8:	c #601082",
"9:	c #851CAA",
"0:	c #2C1732",
"a:	c #565356",
"b:	c #1D201E",
"c:	c #2D2725",
"d:	c #382F2B",
"e:	c #39322F",
"f:	c #3D3A3A",
"g:	c #3A3D3D",
"h:	c #2D3233",
"i:	c #0C0C07",
"j:	c #393537",
"k:	c #3C3737",
"l:	c #353131",
"m:	c #3C3A3A",
"n:	c #3A383A",
"o:	c #363736",
"p:	c #393B3B",
"q:	c #494544",
"r:	c #47413F",
"s:	c #423A36",
"t:	c #3F3733",
"u:	c #3F3934",
"v:	c #393633",
"w:	c #3A3531",
"x:	c #3F3B37",
"y:	c #393433",
"z:	c #0C100E",
"A:	c #111313",
"B:	c #111111",
"C:	c #262622",
"D:	c #651286",
"E:	c #8518AD",
"F:	c #79199E",
"G:	c #7C189F",
"H:	c #CB42E2",
"I:	c #9F23C5",
"J:	c #941AC0",
"K:	c #941CC0",
"L:	c #921BBF",
"M:	c #901ABE",
"N:	c #901BBD",
"O:	c #931BC0",
"P:	c #A022CE",
"Q:	c #69118C",
"R:	c #611184",
"S:	c #611083",
"T:	c #6D1490",
"U:	c #861CAC",
"V:	c #261829",
"W:	c #464442",
"X:	c #1C1F1B",
"Y:	c #372D29",
"Z:	c #38302C",
"`:	c #3D3830",
" <	c #3C3637",
".<	c #36383A",
"+<	c #252A2D",
"@<	c #0A0B08",
"#<	c #373333",
"$<	c #403937",
"%<	c #3D3936",
"&<	c #3D3B3E",
"*<	c #383938",
"=<	c #393B3A",
"-<	c #383738",
";<	c #333133",
"><	c #433F41",
",<	c #423D3D",
"'<	c #433F39",
")<	c #413C35",
"!<	c #3F3A36",
"~<	c #313131",
"{<	c #464444",
"]<	c #3B3836",
"^<	c #0E0F0D",
"/<	c #1A1514",
"(<	c #131111",
"_<	c #131211",
":<	c #313130",
"<<	c #1F1D1D",
"[<	c #4D1966",
"}<	c #8119A5",
"|<	c #7C18A0",
"1<	c #A228C2",
"2<	c #D441ED",
"3<	c #971CC1",
"4<	c #981DC3",
"5<	c #981EC3",
"6<	c #9A1EC5",
"7<	c #9C20C7",
"8<	c #9B1FC8",
"9<	c #9C21C9",
"0<	c #660F8A",
"a<	c #661289",
"b<	c #621184",
"c<	c #611182",
"d<	c #851AA9",
"e<	c #4D1765",
"f<	c #444545",
"g<	c #434544",
"h<	c #3F4245",
"i<	c #212423",
"j<	c #322E2C",
"k<	c #342E29",
"l<	c #2D2523",
"m<	c #382F2A",
"n<	c #332A25",
"o<	c #383331",
"p<	c #272B2D",
"q<	c #10120F",
"r<	c #38322F",
"s<	c #3B3330",
"t<	c #383634",
"u<	c #373635",
"v<	c #3E3D3E",
"w<	c #373636",
"x<	c #454143",
"y<	c #3F3832",
"z<	c #413831",
"A<	c #3F3834",
"B<	c #393735",
"C<	c #383A39",
"D<	c #454242",
"E<	c #3A3533",
"F<	c #13120E",
"G<	c #121012",
"H<	c #0F0E10",
"I<	c #171414",
"J<	c #323232",
"K<	c #343434",
"L<	c #535157",
"M<	c #7C1AA1",
"N<	c #891AAF",
"O<	c #7A17A0",
"P<	c #8618AD",
"Q<	c #D642ED",
"R<	c #971DBF",
"S<	c #9B1FC4",
"T<	c #A021CC",
"U<	c #A121CC",
"V<	c #901DBA",
"W<	c #6B1091",
"X<	c #6C1191",
"Y<	c #621085",
"Z<	c #7F16A3",
"`<	c #331541",
" [	c #434A49",
".[	c #404746",
"+[	c #3D4345",
"@[	c #33302B",
"#[	c #36302A",
"$[	c #302826",
"%[	c #2A1F1E",
"&[	c #382D27",
"*[	c #423C35",
"=[	c #40413E",
"-[	c #323634",
";[	c #161712",
">[	c #3A2F2B",
",[	c #3F322E",
"'[	c #373533",
")[	c #383C3A",
"![	c #333636",
"~[	c #343535",
"{[	c #383836",
"][	c #383734",
"^[	c #392C28",
"/[	c #3B2B28",
"([	c #382E2B",
"_[	c #413D3A",
":[	c #403A3A",
"<[	c #393331",
"[[	c #181713",
"}[	c #231C1A",
"|[	c #121010",
"1[	c #1D1917",
"2[	c #30312F",
"3[	c #2B3130",
"4[	c #202220",
"5[	c #5B5A5C",
"6[	c #7B1C9F",
"7[	c #851BAC",
"8[	c #75159B",
"9[	c #8317A8",
"0[	c #CF3BE7",
"a[	c #9E22C4",
"b[	c #9E21C7",
"c[	c #A022CB",
"d[	c #A322CE",
"e[	c #A625D2",
"f[	c #AD2BD8",
"g[	c #7C16A3",
"h[	c #69108C",
"i[	c #711397",
"j[	c #711294",
"k[	c #7B16A0",
"l[	c #7A149F",
"m[	c #2A1437",
"n[	c #4B4E4F",
"o[	c #424846",
"p[	c #3A403F",
"q[	c #191D1A",
"r[	c #2C2A25",
"s[	c #28241F",
"t[	c #1E1917",
"u[	c #1B1516",
"v[	c #2D231F",
"w[	c #423B36",
"x[	c #484643",
"y[	c #373836",
"z[	c #131613",
"A[	c #3A2D2B",
"B[	c #433632",
"C[	c #3E3A37",
"D[	c #363635",
"E[	c #333736",
"F[	c #313433",
"G[	c #353634",
"H[	c #393A37",
"I[	c #4D4A49",
"J[	c #3C3634",
"K[	c #392F2D",
"L[	c #3B2F2D",
"M[	c #3D3332",
"N[	c #413E3B",
"O[	c #41413F",
"P[	c #3E3C3A",
"Q[	c #3F3A39",
"R[	c #131513",
"S[	c #241C1A",
"T[	c #2C221F",
"U[	c #1D1714",
"V[	c #241F1B",
"W[	c #2B2A2B",
"X[	c #181C1B",
"Y[	c #4F4C50",
"Z[	c #6A2087",
"`[	c #851CA9",
" }	c #77169C",
".}	c #77159D",
"+}	c #D339E9",
"@}	c #B72ED7",
"#}	c #A223CA",
"$}	c #A323CD",
"%}	c #AA27D6",
"&}	c #AA29D4",
"*}	c #78159E",
"=}	c #79159F",
"-}	c #7A14A1",
";}	c #741298",
">}	c #8417AA",
",}	c #4F1267",
"'}	c #4C4C50",
")}	c #4D4D50",
"!}	c #414343",
"~}	c #1E1E1D",
"{}	c #1D1A1A",
"]}	c #1A1618",
"^}	c #2E2724",
"/}	c #433C38",
"(}	c #434040",
"_}	c #313232",
":}	c #121412",
"<}	c #3F322F",
"[}	c #443530",
"}}	c #3F3835",
"|}	c #353332",
"1}	c #39393B",
"2}	c #3B3A3C",
"3}	c #343534",
"4}	c #474242",
"5}	c #403B3A",
"6}	c #433834",
"7}	c #443A35",
"8}	c #3D332F",
"9}	c #453834",
"0}	c #3C2E2C",
"a}	c #3C2E2D",
"b}	c #383130",
"c}	c #0F1514",
"d}	c #2E231F",
"e}	c #3D2D26",
"f}	c #3B2D26",
"g}	c #2A1F1C",
"h}	c #231D1A",
"i}	c #373633",
"j}	c #2A2828",
"k}	c #181D1C",
"l}	c #3A484D",
"m}	c #57575B",
"n}	c #881BA9",
"o}	c #78169D",
"p}	c #74149A",
"q}	c #D53BE8",
"r}	c #C032DE",
"s}	c #A323CC",
"t}	c #A424CD",
"u}	c #A422CE",
"v}	c #B22CDA",
"w}	c #AD2CD8",
"x}	c #711295",
"y}	c #8618AE",
"z}	c #7A13A1",
"A}	c #77139D",
"B}	c #8816AE",
"C}	c #4D1464",
"D}	c #3C403D",
"E}	c #484949",
"F}	c #4C4B50",
"G}	c #1F211F",
"H}	c #1B1B1B",
"I}	c #1A1A1A",
"J}	c #21201E",
"K}	c #231E1E",
"L}	c #392F2A",
"M}	c #444141",
"N}	c #2B2C2D",
"O}	c #131311",
"P}	c #453833",
"Q}	c #3F3633",
"R}	c #393939",
"S}	c #353637",
"T}	c #3A3C3B",
"U}	c #474041",
"V}	c #443E3D",
"W}	c #413A35",
"X}	c #423029",
"Y}	c #463128",
"Z}	c #442D26",
"`}	c #412D25",
" |	c #412D27",
".|	c #372C29",
"+|	c #0D1514",
"@|	c #352A25",
"#|	c #433128",
"$|	c #382820",
"%|	c #2B201C",
"&|	c #302D2B",
"*|	c #222727",
"=|	c #415053",
"-|	c #565658",
";|	c #8A1AA9",
">|	c #7C179E",
",|	c #7D18A1",
"'|	c #D643EA",
")|	c #C035DF",
"!|	c #A523CD",
"~|	c #AC29D2",
"{|	c #B52DD9",
"]|	c #B42FDA",
"^|	c #A327CE",
"/|	c #77149D",
"(|	c #931BBD",
"_|	c #941ABF",
":|	c #9C1FC3",
"<|	c #77179A",
"[|	c #473556",
"}|	c #3F4341",
"||	c #404342",
"1|	c #1E1F1B",
"2|	c #1E1D1B",
"3|	c #1B1816",
"4|	c #221818",
"5|	c #342821",
"6|	c #48403B",
"7|	c #434144",
"8|	c #453A37",
"9|	c #493F3B",
"0|	c #413B3A",
"a|	c #3E3C3B",
"b|	c #3E3F3F",
"c|	c #363738",
"d|	c #393A3A",
"e|	c #353739",
"f|	c #433D3F",
"g|	c #45423E",
"h|	c #402F28",
"i|	c #413028",
"j|	c #43342B",
"k|	c #42352C",
"l|	c #3F3029",
"m|	c #45352D",
"n|	c #3D3230",
"o|	c #111818",
"p|	c #362924",
"q|	c #46332A",
"r|	c #3F2F27",
"s|	c #2D221C",
"t|	c #262625",
"u|	c #221F1F",
"v|	c #2B2F30",
"w|	c #49565A",
"x|	c #545355",
"y|	c #671382",
"z|	c #7C179B",
"A|	c #8018A1",
"B|	c #D649EA",
"C|	c #AE2BD5",
"D|	c #A928CF",
"E|	c #BE34DC",
"F|	c #C439DE",
"G|	c #BF34DE",
"H|	c #8B1FAF",
"I|	c #9F22C8",
"J|	c #A326CC",
"K|	c #9F21C7",
"L|	c #8E1CB3",
"M|	c #591675",
"N|	c #424243",
"O|	c #3D403F",
"P|	c #3D3F3E",
"Q|	c #383B3B",
"R|	c #1A1B18",
"S|	c #201F1E",
"T|	c #282420",
"U|	c #2A1E1A",
"V|	c #463F3D",
"W|	c #433F42",
"X|	c #34302F",
"Y|	c #3A3333",
"Z|	c #383535",
"`|	c #383939",
" 1	c #363638",
".1	c #373A3A",
"+1	c #4A4848",
"@1	c #4A4B49",
"#1	c #454642",
"$1	c #3D2F2B",
"%1	c #423730",
"&1	c #3D322C",
"*1	c #453B39",
"=1	c #151A1A",
"-1	c #2E211D",
";1	c #442F27",
">1	c #46352C",
",1	c #332721",
"'1	c #27201C",
")1	c #332F2B",
"!1	c #2C3030",
"~1	c #4D595D",
"{1	c #818481",
"]1	c #3E264D",
"^1	c #9F23C0",
"/1	c #A928C8",
"(1	c #D84BEC",
"_1	c #AE2DD1",
":1	c #B431D3",
"<1	c #E54FF1",
"[1	c #E54AF3",
"}1	c #8921A7",
"|1	c #9D20C5",
"11	c #A324CB",
"21	c #941EBE",
"31	c #761F98",
"41	c #47424C",
"51	c #3F4141",
"61	c #3F4140",
"71	c #1A1B17",
"81	c #282A2B",
"91	c #373937",
"01	c #373631",
"a1	c #4C4C4B",
"b1	c #4D4B4C",
"c1	c #151512",
"d1	c #2A2B2C",
"e1	c #3A3735",
"f1	c #393836",
"g1	c #373639",
"h1	c #38383A",
"i1	c #4F4A4A",
"j1	c #484445",
"k1	c #3D3939",
"l1	c #3B3331",
"m1	c #3A312E",
"n1	c #362E2C",
"o1	c #3F3431",
"p1	c #3E3631",
"q1	c #3D3732",
"r1	c #433A37",
"s1	c #403939",
"t1	c #161B1A",
"u1	c #2E221F",
"v1	c #3E2B25",
"w1	c #3A2A24",
"x1	c #271D19",
"y1	c #241C18",
"z1	c #2C2421",
"A1	c #231D1F",
"B1	c #1B1718",
"C1	c #292E2D",
"D1	c #474E53",
"E1	c #342740",
"F1	c #811AA1",
"G1	c #B236CF",
"H1	c #D952EB",
"I1	c #F46EF9",
"J1	c #F369F9",
"K1	c #E459F0",
"L1	c #BC3AD3",
"M1	c #A129C0",
"N1	c #9A23BF",
"O1	c #A123C8",
"P1	c #951FBF",
"Q1	c #781A9E",
"R1	c #463D4D",
"S1	c #332D2E",
"T1	c #3E3D3D",
"U1	c #404343",
"V1	c #47494A",
"W1	c #454749",
"X1	c #1B1D19",
"Y1	c #292D2D",
"Z1	c #343334",
"`1	c #414242",
" 2	c #535556",
".2	c #121310",
"+2	c #303336",
"@2	c #343739",
"#2	c #3B3A39",
"$2	c #3C3D3D",
"%2	c #363939",
"&2	c #37383B",
"*2	c #443E3E",
"=2	c #423D3C",
"-2	c #3E3836",
";2	c #403936",
">2	c #343232",
",2	c #353333",
"'2	c #353537",
")2	c #121818",
"!2	c #332927",
"~2	c #3D2D2A",
"{2	c #2E2120",
"]2	c #211B1C",
"^2	c #1E1A1A",
"/2	c #282323",
"(2	c #2A2829",
"_2	c #252C2C",
":2	c #47545A",
"<2	c #393C3F",
"[2	c #5D2378",
"}2	c #931EB7",
"|2	c #AE31CB",
"12	c #F874FB",
"22	c #E75CF5",
"32	c #E14EF2",
"42	c #EB5AF7",
"52	c #B52FCF",
"62	c #9820BD",
"72	c #9022B8",
"82	c #7F1DA6",
"92	c #3E3547",
"02	c #7F7D7E",
"a2	c #322A29",
"b2	c #31302E",
"c2	c #383F42",
"d2	c #181B18",
"e2	c #2C2F2F",
"f2	c #3E413F",
"g2	c #3C3E3B",
"h2	c #404242",
"i2	c #44484B",
"j2	c #4B4E50",
"k2	c #363837",
"l2	c #191A18",
"m2	c #35383A",
"n2	c #333738",
"o2	c #333537",
"p2	c #393434",
"q2	c #3D3835",
"r2	c #3E3935",
"s2	c #3A3736",
"t2	c #3D3E3C",
"u2	c #424242",
"v2	c #323235",
"w2	c #131717",
"x2	c #322825",
"y2	c #2D221F",
"z2	c #211D1D",
"A2	c #211C1B",
"B2	c #30302D",
"C2	c #252C2D",
"D2	c #4B5A5F",
"E2	c #444D53",
"F2	c #352C41",
"G2	c #821AA3",
"H2	c #A728C8",
"I2	c #D454E3",
"J2	c #E458F3",
"K2	c #E150F2",
"L2	c #E960F4",
"M2	c #A428C4",
"N2	c #9221B6",
"O2	c #7E1DA2",
"P2	c #3E1854",
"Q2	c #757472",
"R2	c #8C8B88",
"S2	c #393737",
"T2	c #414547",
"U2	c #3A3F42",
"V2	c #343A3C",
"W2	c #333A3D",
"X2	c #1B1C1B",
"Y2	c #3F3F3D",
"Z2	c #3F403C",
"`2	c #444846",
" 3	c #41474A",
".3	c #42464A",
"+3	c #343637",
"@3	c #3A3C3F",
"#3	c #3A3B3C",
"$3	c #36373A",
"%3	c #37383A",
"&3	c #363739",
"*3	c #3B3838",
"=3	c #3D3B3A",
"-3	c #3F3B3A",
";3	c #3D3D3B",
">3	c #3D3B3B",
",3	c #393839",
"'3	c #191B18",
")3	c #28201D",
"!3	c #322623",
"~3	c #2E2420",
"{3	c #241D1A",
"]3	c #211B1A",
"^3	c #2B2421",
"/3	c #302F29",
"(3	c #222322",
"_3	c #282E30",
":3	c #4F5D63",
"<3	c #4A5258",
"[3	c #434049",
"}3	c #6E3088",
"|3	c #9C21BE",
"13	c #B93DD2",
"23	c #DD56EE",
"33	c #F06DF7",
"43	c #ED70F3",
"53	c #921FB6",
"63	c #8B22AE",
"73	c #651B83",
"83	c #372E3C",
"93	c #8A8B84",
"03	c #312C2C",
"a3	c #363333",
"b3	c #3E4245",
"c3	c #3B4143",
"d3	c #30302F",
"e3	c #363533",
"f3	c #3C3B38",
"g3	c #3B3D40",
"h3	c #2E2C2C",
"i3	c #1D1C17",
"j3	c #373737",
"k3	c #38393B",
"l3	c #383B3C",
"m3	c #373A3B",
"n3	c #3A3A3C",
"o3	c #414141",
"p3	c #3F4244",
"q3	c #3C3C3E",
"r3	c #1B1D1A",
"s3	c #322724",
"t3	c #332A26",
"u3	c #27211E",
"v3	c #241F1C",
"w3	c #2B2825",
"x3	c #1F1E1F",
"y3	c #262A2C",
"z3	c #48545A",
"A3	c #464E51",
"B3	c #4A3F51",
"C3	c #8F1DAF",
"D3	c #B63ECE",
"E3	c #DD58EE",
"F3	c #F376F8",
"G3	c #E26AEB",
"H3	c #9021B6",
"I3	c #701E8F",
"J3	c #39194B",
"K3	c #353335",
"L3	c #322C2A",
"M3	c #312B2B",
"N3	c #373332",
"O3	c #424648",
"P3	c #3C4243",
"Q3	c #181916",
"R3	c #282726",
"S3	c #32302F",
"T3	c #353231",
"U3	c #3A3737",
"V3	c #3C3E3F",
"W3	c #313031",
"X3	c #383A3B",
"Y3	c #3D4044",
"Z3	c #3F4144",
"`3	c #434445",
" 4	c #454746",
".4	c #393A3D",
"+4	c #191A19",
"@4	c #302724",
"#4	c #3A2C28",
"$4	c #2C231F",
"%4	c #2A211B",
"&4	c #2B2522",
"*4	c #1E1C1E",
"=4	c #444B4F",
"-4	c #575459",
";4	c #63157A",
">4	c #A433BE",
",4	c #DF5EEF",
"'4	c #F273F6",
")4	c #AA33C7",
"!4	c #7C1E9C",
"~4	c #4D1B64",
"{4	c #494A49",
"]4	c #363536",
"^4	c #313639",
"/4	c #2A2727",
"(4	c #2D2829",
"_4	c #393635",
":4	c #404141",
"<4	c #292B2C",
"[4	c #1F1E1D",
"}4	c #363535",
"|4	c #383638",
"14	c #343437",
"24	c #333236",
"34	c #424549",
"44	c #454949",
"54	c #41464A",
"64	c #3C4144",
"74	c #434748",
"84	c #474A4D",
"94	c #3E4145",
"04	c #1B1C1C",
"a4	c #291F1C",
"b4	c #3D2D27",
"c4	c #3D2F29",
"d4	c #3B2E27",
"e4	c #3A2E25",
"f4	c #19181B",
"g4	c #272B2B",
"h4	c #4A555A",
"i4	c #454B50",
"j4	c #353737",
"k4	c #373837",
"l4	c #291034",
"m4	c #972AB3",
"n4	c #DC5BEC",
"o4	c #E169E9",
"p4	c #9A26BA",
"q4	c #5B1873",
"r4	c #747479",
"s4	c #4A4A49",
"t4	c #312E2C",
"u4	c #343433",
"v4	c #353638",
"w4	c #33373A",
"x4	c #2C2F31",
"y4	c #272A2D",
"z4	c #191919",
"A4	c #222120",
"B4	c #3D3C3B",
"C4	c #282A2D",
"D4	c #1C1C1C",
"E4	c #333336",
"F4	c #3E3F3E",
"G4	c #313537",
"H4	c #323338",
"I4	c #44494C",
"J4	c #464B4B",
"K4	c #454648",
"L4	c #464A4C",
"M4	c #434749",
"N4	c #42484B",
"O4	c #43484C",
"P4	c #3A4044",
"Q4	c #1A1C1D",
"R4	c #2D2220",
"S4	c #392925",
"T4	c #372B29",
"U4	c #322624",
"V4	c #2F241D",
"W4	c #221B17",
"X4	c #1E1F1F",
"Y4	c #1A1A1C",
"Z4	c #252727",
"`4	c #656365",
" 5	c #721E88",
".5	c #CC52DC",
"+5	c #CA50D9",
"@5	c #6F1A86",
"#5	c #4F415C",
"$5	c #7F7F82",
"%5	c #2C282A",
"&5	c #2F2B2C",
"*5	c #2C2A2B",
"=5	c #2E2D2F",
"-5	c #2E2F31",
";5	c #2D3030",
">5	c #1E1D1A",
",5	c #21201F",
"'5	c #41403D",
")5	c #40403F",
"!5	c #2D2F32",
"~5	c #363639",
"{5	c #333536",
"]5	c #323136",
"^5	c #42454A",
"/5	c #464647",
"(5	c #444546",
"_5	c #404244",
":5	c #3D4042",
"<5	c #36383C",
"[5	c #2D2321",
"}5	c #322523",
"|5	c #2A2122",
"15	c #261D1F",
"25	c #28231F",
"35	c #222224",
"45	c #3B434B",
"55	c #8B8C8A",
"65	c #868684",
"75	c #370949",
"85	c #B138C5",
"95	c #8D2AA1",
"05	c #422755",
"a5	c #080B0A",
"b5	c #232829",
"c5	c #3D3B36",
"d5	c #2C2726",
"e5	c #2C2827",
"f5	c #2F2929",
"g5	c #3B3D3C",
"h5	c #1C1D17",
"i5	c #2A2A28",
"j5	c #3C3B39",
"k5	c #474B4D",
"l5	c #484C4E",
"m5	c #373739",
"n5	c #3C3C40",
"o5	c #303032",
"p5	c #2F2D30",
"q5	c #2C2B2F",
"r5	c #44474C",
"s5	c #484C4F",
"t5	c #454A4A",
"u5	c #424241",
"v5	c #444343",
"w5	c #3F3F40",
"x5	c #2C241F",
"y5	c #2B2322",
"z5	c #211A1B",
"A5	c #281F1C",
"B5	c #2A2521",
"C5	c #222425",
"D5	c #3F484F",
"E5	c #3A3A39",
"F5	c #898988",
"G5	c #898987",
"H5	c #817F7E",
"I5	c #691183",
"J5	c #581C6F",
"K5	c #1F2325",
"L5	c #0B0C0D",
"M5	c #2A2E30",
"N5	c #35393D",
"O5	c #3A3936",
"P5	c #2C2826",
"Q5	c #2D2928",
"R5	c #3B4141",
"S5	c #3A3D3C",
"T5	c #302E2E",
"U5	c #3B3B3A",
"V5	c #373537",
"W5	c #484B4D",
"X5	c #474D4F",
"Y5	c #1F1E1E",
"Z5	c #3C3C3D",
"`5	c #302F31",
" 6	c #505558",
".6	c #4C5152",
"+6	c #494949",
"@6	c #4C4B4C",
"#6	c #261E1C",
"$6	c #2D211E",
"%6	c #2D2422",
"&6	c #29201B",
"*6	c #26201D",
"=6	c #1C1B1B",
"-6	c #1B1F20",
";6	c #394247",
">6	c #3F4242",
",6	c #8C8D8B",
"'6	c #888887",
")6	c #838480",
"!6	c #646963",
"~6	c #3F454A",
"{6	c #262A2D",
"]6	c #0F100F",
"^6	c #383F3F",
"/6	c #454C4E",
"(6	c #3D3F43",
"_6	c #333334",
":6	c #292626",
"<6	c #231F1F",
"[6	c #2D2A29",
"}6	c #3F4445",
"|6	c #1F1E1A",
"16	c #393936",
"26	c #4C4F4F",
"36	c #4B4F52",
"46	c #1D1C1C",
"56	c #464645",
"66	c #3F3E3E",
"76	c #383739",
"86	c #41403F",
"96	c #3B3C3B",
"06	c #4F5253",
"a6	c #474B4C",
"b6	c #3E4043",
"c6	c #39383B",
"d6	c #2F3137",
"e6	c #35373A",
"f6	c #1B1D1D",
"g6	c #2A2220",
"h6	c #2B2422",
"i6	c #251F1E",
"j6	c #211D1A",
"k6	c #1C2021",
"l6	c #353D41",
"m6	c #333333",
"n6	c #4A555B",
"o6	c #2D3538",
"p6	c #0D0E0E",
"q6	c #353A3D",
"r6	c #42484D",
"s6	c #3A3D42",
"t6	c #242121",
"u6	c #2B2829",
"v6	c #3F4143",
"w6	c #1D1F1B",
"x6	c #282829",
"y6	c #312F31",
"z6	c #353433",
"A6	c #383436",
"B6	c #4E4F4E",
"C6	c #4C4E50",
"D6	c #353334",
"E6	c #343233",
"F6	c #312F30",
"G6	c #353434",
"H6	c #38383B",
"I6	c #3E403F",
"J6	c #333437",
"K6	c #393C3C",
"L6	c #343738",
"M6	c #171718",
"N6	c #231E1D",
"O6	c #292321",
"P6	c #26221F",
"Q6	c #231F1D",
"R6	c #1E1B18",
"S6	c #1F1C18",
"T6	c #22211E",
"U6	c #242526",
"V6	c #2B2F32",
"W6	c #2D2D2F",
"X6	c #353633",
"Y6	c #3E454A",
"Z6	c #23282B",
"`6	c #0B0C0C",
" 7	c #303235",
".7	c #3A3D40",
"+7	c #2A292A",
"@7	c #1E1D1C",
"#7	c #23211F",
"$7	c #272524",
"%7	c #333234",
"&7	c #333235",
"*7	c #2C2B2E",
"=7	c #262728",
"-7	c #363431",
";7	c #303132",
">7	c #1D1E1D",
",7	c #333535",
"'7	c #323131",
")7	c #323231",
"!7	c #2D2C2D",
"~7	c #353437",
"{7	c #343336",
"]7	c #2E2E2E",
"^7	c #2B2B2C",
"/7	c #282627",
"(7	c #232324",
"_7	c #191714",
":7	c #1B1A18",
"<7	c #1B1A1C",
"[7	c #181A1A",
"}7	c #222221",
"|7	c #242422",
"17	c #262523",
"27	c #262425",
"37	c #212122",
"47	c #1A1B1A",
"57	c #1D1D1E",
"67	c #22201E",
"77	c #211F20",
"87	c #252423",
"97	c #292725",
"07	c #2E2A2B",
"a7	c #2D2B2B",
"b7	c #1E1E1E",
"c7	c #181819",
"d7	c #222323",
"e7	c #242123",
"f7	c #252324",
"g7	c #262525",
"h7	c #232223",
"i7	c #222222",
"j7	c #1D1E1F",
"k7	c #18191A",
"l7	c #161919",
"m7	c #151816",
"n7	c #141615",
"o7	c #151616",
"p7	c #171515",
"q7	c #161614",
"r7	c #171717",
"s7	c #161716",
"t7	c #171817",
"u7	c #181716",
"v7	c #191B19",
"w7	c #141514",
"x7	c #151516",
"y7	c #141616",
"z7	c #141715",
"A7	c #151614",
"B7	c #151517",
"C7	c #161619",
"D7	c #171819",
"E7	c #1F1D1E",
"F7	c #242224",
"G7	c #262524",
"H7	c #232122",
"I7	c #232021",
"J7	c #221F20",
"K7	c #201F1F",
"L7	c #20211F",
"M7	c #1F201F",
"  . + @ # $ % & * = - ; > , ' ) ! ~ { ] ^ / ( _ : < [ } | 1 2 3 4 5 6 7 8 9 0 a b c d e f g h i j k l m n o p q r s t u v w x y ",
"z A B C D E F G H I J K L M N O P Q R S T U V W X Y Z `  ...+.3 @.#.$.%.&.*.=.-.;.>.,.'.).!.~.{.].^./.(.3 _.:.<.[.}.|.1.2.> 3.4.",
"5.6.7.8.9.0.a.b.c.d.e.f.g.h.i.j.k.l.m.n.o.p.q.r.Z s.t. .u.v.w.x.y.z.A.B.C.D.E.F.G.H.I.J.K.L.M.N.O.P.Q.R.S.T.U.V.W.X.Y.Z.`. +.+++",
"@+#+$+%+&+*+=+-+$+;+>+,+'+)+9.!+~+{+R ]+^+/+(+_+:+~+<+[+}+|+1+2+3+4+5+6+7+8+9+0+a+b+c+d+e+f+g+h+i+j+k+l+m+n+o+p+#+Y.q+r+s+t+u+v+",
"w+x+y+z+A+B+C+D+E+F+G+H+I+J+K+L+M+N+O+P+Q+R+S+T+U+V+U+W+X+Y+Z+`+3+ @.@+@@@#@$@%@&@*@=@-@;@>@,@'@)@!@~@{@]@! ^@/@(@_@:@<@[@}@|@1@",
"2@3@4@5@6@7@8@9@0@a@b@c@d@e@f@g@h@i@j@k@l@m@n@o@o@V+p@q@r@s@t@u@v@w@x@y@z@A@B@C@D@E@F@G@H@I@J@K@L@M@N@O@P@Q@R@S@T@U@V@W@X@Y@Z@`@",
" #.#+#@###$#%#&#D+W *#=#-#;#>#,#'#)#Y@!#~#{#]#^#t.M /#(#_#:#<#[#}#|#1#2#3#4#5#6#7#8#9#0#a#b#c#d#e#f#g#h#i#j#k#l#m#n#o#p#q#r#s#t#",
"u#v#w#D+x#y#z#A#B#e@C#D#E#F#G#H#I#J#K#L#M#N#O#P#u.Q#R#S#T#U#V#W#X#Y#Z#`# $.$+$@$#$$$%$&$*$=$-$;$>$,$'$)$,+!$~${$]$^$/$($_$:$<$[$",
"}$|$w#1$2$3$-+4$5$6$L+7$8$9$w 0$U+a$b$c$d$e$f$g$u.h$i$j$k$l$m$n$o$p$q$r$s$t$u$v$w$x$y$z$A$B$C$D$E$F$G$H$I$J$K$L$M$N$L$O$P$Q$R$S$",
"T$U$V$W$X$Y$Z$`$ %.%+%@%#%$%%%&%*%=%-%;%>%,%'%)%g$!%~%{%]%^%/%(%_%:%<%[%}%|%1%2%3%4%5%6%7%8%9%0%a%b%c%d%e%f%g%h%i%j%e%k%l%m%n%o%",
"U.p%q%r%s%t%u%v%w%x%y%z%A%B%C%D%E%F%G%H%I%J%K%L%M%N%O%P%Q%R%S%T%U%V%W%X%Y%Z%j#`% &.&+&@&#&$&%&&&*&=&-&;&b%>&,&'&)&!&~&{&]&^&/&(&",
"_&:&<&[&}&c.|&1&..2&3&4&5&6&7&8&9&0&a&b&c&d&e&f&g&h&i&j&k&l&m&n&o&p&q&}&r&s& .8&t&u&v&w&x&y&z&A&B&C&D&E&=&F&G&H&I&J&K&L&M&N&-%O&",
"P&Q&R&S&$+T&U&V&W&X&6.Y&Z&`& *.*+*@*#*$*%*&***=*-*;*>*,*'*)*!*~*{*]*^*/*(*_*:*<*[*}*|*1*2*3*4*5*6*7*8*9*0*a*b*c*d*e*f*g*h*i*j*k*",
"l*m*/#/#n*o*p*q*r*s*t*u*v*w*x*y*z*A*B*C*D*E*F*G*H*I*J*K*L*M*N*O*P*Q*R*S*T*U*V*W*2$X*Y*Z*`* =.=+=@=#=$=%=&=*===-=;=>=,='=)=!=~={=",
"]=^=3./=t%h$F*(=_=:=<=u*[=}=C#|=1=2=3=4=5=6=7=8=9=0=a=b=c=d=e=f=g=h=i=j=k=l=m=n=o=p=q=r=s=t=u=v=w=x=y=z=A=B=C=D=E=F=G=H=I=J=K=L=",
"M=N=O=-+7.P=n*}+Q=R=S=T=U=V=W=X=Y=Z=P$`= -.-+-@-#-$-%-&-*-=---;->->-,-'-)-!-~-{-]-^-/-(-_-:-<-[-}-E=|-1-2-3-4-5-6-7-8-C=9-0-a-b-",
"c-d-e-f-g-h-i-j-Y@3&k-l-m-n-o-p-q-r-s-t-u-v-w-x-y-z-A-B-C-D-E-F-G-H-I-J-K-L-M-N-O-P-Q-A=R-S-7*x=T-U-V-:-W-X-Y-Z-A&`- ;.;7*y=+;@;",
"#;$;%;/*&;*;=;-;;;2&>;,;';);!;~;{;];^;E&/;(;_;:;<;[;};B-|;1;2;3;4;5;6;7;8;9;0;a;b;c;d;e;f;g;h;i;j;k;l;m;W-n;o;p;q;r;C&s;t;5*C=u;",
"v;w;x;y;z;A;B;C;D;E;5$T=F;G;H;I;J;S.h%K;L;M;N;O;P;Q;R;S;T;U;V;W;4;X;Y;Z;`; >.>+>@>#>$>%>&>*>=>->;>1->>,>'>)>!>~>{>]>x&^>/>i;(>_>",
"n+:>v.<>W%[>m*}>t&|>1>T=U=2>R 3>4>5>6>7>8>9>0>a>b>c>d>e>f>g>h>i>Y;j>k>l>m>n>o>p>q>r>s>t>u>v>w>x>y>z>A>B>C>D>E>C&F>t-G>5*H>I>J>K>",
"L>M>N>O>P>Q>R>]$S>T>U>T=V>W>X>Y>Z>`> ,.,+,@,#,$,%,&,*,=,-,;,>,,,',),!,~,{,],^,/,(,_,:,<,[,v>},|,1,->2,3,G>4,5,6,j%7,8,7*9,0,a,b,",
"c,d,S&e,=;f,}&g,h,i,j,k,l,m,`>n,o,p,q,r,s,t,u,v,w,x,y,y,=,-,z,A,B,C,D,E,F,G,H,I,J,$>K,L,M,N,O,P,g;Q,R,S,T,F>U,V,W,X,=$Y,Z,`, 'X,",
".'r.f,+'@'#'$'%'&'*'&+='t-!#^;o,-';'>',''')'!'~'{']'^'/'('_':'<'['}'|'1'2'3'4'5'6'7'8'9'0'^>a'b'c'd'e'f'a%g'h'i'j'k'l'm'n'o'p'q'",
"N=y;r's'g-t'u'v'w'x'[*='y'z'A'B'C'D'E'F'G'H'I'J'K'L'M'N'O'*-P'Q'R'S'T'U'V'W'X'Y'Z'`' ).)+)@)#)$)2,%)&)*)_-=)-);)>),)')))!)~){)])",
"^)N>/)()_)O>:)S&<)Q#[)C>})W,b%|)1)2)3)4)5)6)7)8)9)0)a)b)c)d)e)f)g)h)i)j)k)k)l)m)n)o)p)q)r)s)t)u)v)w)x)y)z)A)B)C)D)E)F)G)H)8*I).;",
"J)7.K)L)=;L)M)/)N)O)Q=P)->Q)R)S)T)U)V)W)X)Y)Z)`) !.!+!@!#!$!%!&!*!=!-!;!>!V',!'!)!!!~!{!]!^!/!(!_!:!<![!}!|!1!2!3!4!5!6!7!8!9!5*",
"0.0!_+j-a!b!S&b!c!d!e!f!g!h!i!j!k!l!m!n!o!p!q!r!s!t!u!v!w!x!y!z!A!B!C!D!E!F!G!H!I!J!K!L!M!N!1!F$O!N!P!Q!R!S!T!U!V!W!X!Y!Z!`!a, ~",
".~*#+~^$W e-i-@~g,#~$~f!%~&~4=*~t-=~-~;~>~,~'~)~!~~~{~]~^~/~(~_~:~<~[~}~|~1~X'2~3~4~5~6~7~8~9~0~a~b~r#c~d~'&e~f~g~l.h~i~j~)=k~h!",
"0.0!l~m~n~o~p~t'r'q~r~s~&$f*b%t~u~v~w~x~y~z~A~B~C~D~E~F~G~H~I~:~J~K~L~M~N~O~P~Q~R~S~T~U~V~W~X~Y~Z~`~ { +.{+{@{#{${k@%{&{*{={-{;{",
">{,{'{){!{~{{{%'){]{^{/{({_{s;:{C><{[{}{|{1{2{3{4{5{]~6{_~7{8{H~9{0{a{b{c{d{e{f{g{h{i{j{k{l{m{n{o{p{9$q{r{s{t{u{v{w{x{y{z{A{B{C{",
"D{u't']{E{F{G{H{I{G{J{K{L{M{N{O{d%^&P{Q{R{S{T{U{V{W{X{Y{Z{`{ ]_~.]+]@]#]$]%]&]*]=]-];]>],]'])]!]~]{]v&]]^]/](]_]:]<][], }]|]1]2]",
"3]A.4]R.5]6]7]8]9]6]0]a]b]c]d]:{b]e]f]g]h]i]j]k]l]m]n]o]7{ ]p]q]r]s]t]u]v]w]x]y]z]A]B]C]D]E]F]G]H]I]J]K]L]M]N]O]P]Q]R]S]X!T]U]V]",
"W]X]Y]Z]`] ^.^+^@^#^$^%^&^*^=^-^;^>^,^'^)^!^~^{^]^^^/^(^_^:^<^[^}^|^1^2^3^4^5^6^6^7^8^9^0^a^$^b^c^d^P=e^f^g^h^i^|=j^U,k^l^m^n^V>",
"o^0;7]p^z@q^r^s^t^u^v^w^I=x^y^k!T=z^A^B^C^D^E^F^G^H^I^J^K^L^M^N^O^P^Q^R^S^T^U^V^W^X^Y^Z^`^ /./+/@/#/$/%/L]&/*/=/-/;/>/,/'/)/!/~/",
"{/]/^///(/_/:/</[/}/|/1/2/3/b]4/5/6/#{7/8/9/0/a/b/c/K^d/r]e/f/N^N^g/h/i/j/U^k/l/V^'~m/n/o/p/q/r/s/t/v+u/v/w/x/y/z/A/B/C/a@F+D/$+",
"E/F/G/H/I/J/ /F/K/L/M/N/O/P/L{Q/R/S/T/U/V/W/X/F^Y/H^Z/L^`/ (.(+(@(#($(%(&(*(=(-(J-;(>(,('()(!(~({(](^(/(((_(:(<(-#[(}(|(1(2(c.W ",
"3(4(5(6(7(8(9(+@0(a(b(c(d(e(_{f(g(b%h(i(j(k(l(m(n(o(p(q(r(+(s(N^@(t(u(v(.] ]w(x(y(z(A(B(C(D(E(F(G(H(I(J(K(L(M(N(O(s/P(Q(g$M c.$~",
"R(S(T(U(V(W(g#X(Y(Z(`( _z&._+_@_#_Q,$_&=%_&_*_=_-_;_>_,_'_)_+(!_~_{_]_^_/_(_ ]__:_<_e^[_}_Q)|_1_2_3_4_j*5_6_7_8_9_0_a_b_.+u.c_X ",
"d_e_f_g_h_i_j_k_l_m_n_o_p_q_r_s_t_u_v_w_x_y_z_A_B_C_D_E_F_G_H_I_J_K_L_M_N_O_P_Q_R_S_T_U_V_W_X_O@Y_Z_I]'+`_ :.:+:H(@:@:#:$:g$/#` ",
"%:&:B.*:=:-:;:>:,:`]':):D$!:e;~:{:S,]:^:/:(:_:::<:[:}:|:1:C^2:R^3:4:5:6:7:8:8:9:0:a:< b:c:d:F{e:9@f:g:h:i:j:k:l:m:n:o:<)p:L%` t#",
"q:r:s:t:u:v:s/w:x:*;y:z:=^z=S,A:B:,&I]m^C:D:E:F:G:H:I:J:K:L:M:N:O:P:Q:8:R:S:T:U:V:W:X X:{@Y:Z:`:e: <.<+<@<#<$<%<v'&<*<=<1(> -<;<",
"><,<'<)<!<a~^ ~<:&{<]<^<A$/<(<e;_<m-P=:<<<[<W/}<|<1<2<3<4<5<6<7<8<9<0<a<b<c<d<e<f<g<h<i<j<k<l<m<n<o<V=p<q<r<s<t<u<W v<c.T+Y@w<r#",
"x<!{y<z<A<B<O+C<U@D<E<F<O/r;G<H<I<J<}+K<C(L<M<N<O<P<Q<R<S<,'T<U<T<V<W<X<l(Y<Z<`< [.[+[i<@[#[$[%[&[*[=[-[;[>[,[E<'[a_[>)[![~[{[][",
"E/R.^[/[/[([y:J{_[:[<[[[}[u;:{|[1[2[3[4[4[5[6[7[8[9[0[a[b[c[d[e[f[g[h[i[j[k[l[m[n[o[p[q[r[s[t[u[v[w[x[y[z[A[B[C[D[.+N>E[F[G[H[e,",
"I[J[K[L[M[N[O[P[C[Q[]{R[S[T[q'U[V[{[L%W[X[Y[Z[`[ }.}+}@}#}$}$}%}&}*}=}-};}>},}f<'})}!}q[~}K>{}]}^}/}(}_}:}<}[}}}|}1}2}s#3}@:*<G[",
"4}5}s:6}+$7}8}9}0}a}b}c}d}e}f}g}h}i}S&j}k}l}m}n}o}p}q}r}s}t}u}v}w}x}y}z}A}B}C}D}E}F}$/G}H}I}J}K}L}%.M}N}O}P}o=Q}t'Y R}> S}T}x+ +",
"U}V}W}H/X}Y}Z}`} |U(.|+|@|#|$|%|9*&|~=}_*|=|-|;|>|,|'|)|!|~|{|]|^|/|(|_|:|<|[|W=}|||/=1|2|3|&$4|5|6|7|'+6/8|9|0|a|]$b|j-c|d|*#e|",
"f|M}g|r^h|i|j|k|l|m|n|o|p|q|r|s|({j^t|u|v|w|x|y|z|A|B|C|D|E|F|G|H|I|J|K|L|M|N| {O|P|Q|R|S|T|w=U|8(V|W|6_k!X|Y|/*Z|!;K)`| 1^$_+.1",
"+1@1#1:/$1;:%1&1L}P}*1=1-1;1>1,1'1)1X!L=!1~1{1]1^1/1(1_1:1Z)<1[1}1|111213141i.x'5161g:71819101o;s%a1b1s#c1d1<$e1f1R}R}g1h1<)d|V=",
"i1j1k1l1m1n1o1p1q1r1s1t1u1v1w1x1y1z1A1B1C1~1D1E1F1G1H1I1J1K1L1M1N1O1P1Q1R1S1T1U1V1W1o*X1Y1.1`|Z1`1 2-|o-.2+2@2*<s&#2w<W $21(%2&2",
"*2=2-2;2D+>2,2f,H;r''2)2!2~2{2]2^2/2(2K&_2:2:]<2[2}2|212223242526272829202a2b2<>d.w%c2d2e2=<f2g2h2i2j2k2l2a$'%u.m#h,*<=<.+m2n2o2",
"L-p2q2r2&;s2t2u2Y @:v2w2x2l_y2z2A2S]B2V!C2D2E2<2F2G2H2I2J2K2L2M2N2O2P2Q2R2S2K)T2U2V2W2X2:<$+Y2Z2`2 3.3I+D#+3T+@3x'N>1(`|#3$3%3&3",
"*3O l~=3-3=3;3s'O>>3,3'3)3!3~3{3]3^3/3(3_3:3<37&[3}3|313233343536373839303a35@f&!$b3c3n/d3#2e3f3C+g33@h3i3j3W k3l3m3C;`|j3 1t.n3",
"o3@3p3`1N y;q3U@2%Y$$+r3q's3t3u3>=v3w3x3y3z3A3L%X B3C3D3E3F3G3H3I3J3K3J{L3M3N30_$:O3P3Q3R3S3T3U3m:x+V3W3J}I]R}> X3t.t.Y %3#3_+ 1",
"W1Y3..m#1.7&Z3`3 4`3.4+4@4#4&1$4%4&4k@*4w.x{=4$2Y@-4;4>4,4'4)4!4~4{4:&#'N3w<]4d|N(U+^4j%B'/4(4_4a|:4o@<4[4p~j-}4j-R>a!|414&3#:24",
"34x 44B+>{;#546474849404a4b4c4d4e4^3m-f4g4h4i4r.j4k4l4m4n4o4p4q4r4s4a|t4h~w<u4v4w4x4y4z4j%A4($b!B4*#)#C4D4E4h1F+W d|F4X /;G4+3H4",
"x I4J4K4F )+L4M4N4O4P4Q4R4S4T4U4V4W4X4Y4Z4|]x%p~$~o-`4 5.5+5@5#5$5T}[@T3F&%5&5*5=5-5;5>5,5V]S3'5)5%%C#!5I}t+~5]$Z%c.!}p:{5G%+3]5",
"M=^5N=c.W%/5(5_5n*:5<5/&[5}5|515a425; I%3545=%p:y;556575859505a5b5+3)5c5d5e5f5W!Y>g5.1h5i5u<j5B4c_k5l5+3,&m5h1R>c.n53&L%H(o5p5q5",
"r5s5t5[>o3u5v5w5U@m#N>l2x5@|y5z5A5B5~}B(C5D5C#E5o-F5G5H5I5J5K5L5M5N5[>O5e5P5Q5Z1/;R5S54&T5U5U5V5b|W5X5+3Y5Z5w5a!s.A;U@2}2.`5P]E#",
" 6.62&h1Z5k3!}51+6@6t%j%#6$6%6_{&6*6=66/-6;6>6#2o:,6'6)6!6~6{6]6^6/6(6_6:6<6[6M%U&}6.<|6k.H;16a3()2636G%46)5566676o-E586w5m596S}",
"06a6b6c6M%a&d6e6!}d.!$f6A(g6h6i6j6D><<=6k6l6.#w<m6Y@`|51v.n6o6p6q6r6s6Y@V]t6u6v6.'U&l3w6x6y6z6A6C+B6C6~+;%V=$+D6E6F6N$G676H6$2$~",
"C6&+t%c_I6m3J6S5K6T+L6M6N6O6P6Q6R6S6T6O(U6V6W6P X6y[F+:4p3Y6Z6`6 7.7K#+7@7#7$7%7&7E4*7z4=72[-7Z|a|=+B+;7>7,7~['7)7!7!7d3t#~7m5{7",
"2>o5N$]7^7L$/7)=/7!=(7,+z^g%f%i!A)_7:7,&<7[7I%}7|71727R3R33747|!Y457D4H}z4#{2|6777^;<7S.I%; 8797X!07a7b7c7^:d7k@t|k@e7f7Z=F;g7h7",
"%{%{i~i7b757j7Y5D4I}k7l7m7n7o7Y!p7q7k!r7B(o7s7t7u7Y!s7s7,+r7v7+46/w74/x7o7y7z7A76/(&B7C7D7/&~},5,577E7K&$*%{-@F7G727H7I7J7K7L7M7"};
