/* XPM */
static char * collectible_2_xpm[] = {
"64 64 3164 2",
"  	c #60676D",
". 	c #595E64",
"+ 	c #5A5E63",
"@ 	c #5B5F63",
"# 	c #595E61",
"$ 	c #53585D",
"% 	c #585E61",
"& 	c #585D5E",
"* 	c #5E6366",
"= 	c #5F666B",
"- 	c #545D60",
"; 	c #212221",
"> 	c #373839",
", 	c #5A5556",
"' 	c #666362",
") 	c #696562",
"! 	c #6F6661",
"~ 	c #6E5F5A",
"{ 	c #70584E",
"] 	c #232121",
"^ 	c #2E3132",
"/ 	c #51585D",
"( 	c #54595C",
"_ 	c #4E5052",
": 	c #4A4C4C",
"< 	c #47484B",
"[ 	c #4B4C4E",
"} 	c #525355",
"| 	c #4E5154",
"1 	c #505457",
"2 	c #5A6167",
"3 	c #5D666B",
"4 	c #2E3030",
"5 	c #555452",
"6 	c #4A4547",
"7 	c #544F4C",
"8 	c #5B514A",
"9 	c #655953",
"0 	c #2B2722",
"a 	c #5B453A",
"b 	c #434647",
"c 	c #494E50",
"d 	c #4A5053",
"e 	c #4D5456",
"f 	c #505658",
"g 	c #3F3A3A",
"h 	c #1B1B17",
"i 	c #4A5055",
"j 	c #52585E",
"k 	c #5A6064",
"l 	c #575C60",
"m 	c #5B6066",
"n 	c #4C4F52",
"o 	c #4B4D4E",
"p 	c #505252",
"q 	c #515354",
"r 	c #4A4D4F",
"s 	c #47484A",
"t 	c #555758",
"u 	c #55575A",
"v 	c #53565B",
"w 	c #3B3F44",
"x 	c #1B1D1C",
"y 	c #2F3231",
"z 	c #3C3E41",
"A 	c #3F3F3F",
"B 	c #363435",
"C 	c #313030",
"D 	c #363534",
"E 	c #303131",
"F 	c #1E1C1B",
"G 	c #303334",
"H 	c #4F5960",
"I 	c #464B4D",
"J 	c #3B3A3B",
"K 	c #3A3B3B",
"L 	c #3A3A3B",
"M 	c #3C3D3C",
"N 	c #3A3C3C",
"O 	c #3C3E3E",
"P 	c #404345",
"Q 	c #5D6468",
"R 	c #5B656A",
"S 	c #4E4C4B",
"T 	c #4E4641",
"U 	c #51463E",
"V 	c #4A3C37",
"W 	c #503F39",
"X 	c #574339",
"Y 	c #5B463D",
"Z 	c #5B4C47",
"` 	c #272522",
" .	c #4B3328",
"..	c #5D3E31",
"+.	c #5D4338",
"@.	c #58443A",
"#.	c #4D3C37",
"$.	c #594D48",
"%.	c #544A47",
"&.	c #363130",
"*.	c #1A1C1B",
"=.	c #4A5054",
"-.	c #454748",
";.	c #454444",
">.	c #575E62",
",.	c #484B4C",
"'.	c #3E3E3F",
").	c #414143",
"!.	c #464849",
"~.	c #434345",
"{.	c #434444",
"].	c #464745",
"^.	c #3E3F40",
"/.	c #505258",
"(.	c #353A3C",
"_.	c #131414",
":.	c #282B2E",
"<.	c #404144",
"[.	c #424342",
"}.	c #333231",
"|.	c #2C2B2A",
"1.	c #302F2E",
"2.	c #262729",
"3.	c #1A1919",
"4.	c #303637",
"5.	c #505C63",
"6.	c #464B4F",
"7.	c #3B3B3C",
"8.	c #393A3B",
"9.	c #3A3C3D",
"0.	c #3B3E3F",
"a.	c #404448",
"b.	c #585F67",
"c.	c #59636A",
"d.	c #403B3C",
"e.	c #463A34",
"f.	c #504034",
"g.	c #4C3A30",
"h.	c #534138",
"i.	c #544036",
"j.	c #4A3530",
"k.	c #534440",
"l.	c #1A1C1C",
"m.	c #37231B",
"n.	c #543729",
"o.	c #553A2D",
"p.	c #472F27",
"q.	c #473129",
"r.	c #4C3932",
"s.	c #51433E",
"t.	c #3B3432",
"u.	c #181718",
"v.	c #44474F",
"w.	c #4F5154",
"x.	c #505253",
"y.	c #505050",
"z.	c #494848",
"A.	c #39373A",
"B.	c #323034",
"C.	c #333436",
"D.	c #3B3D3E",
"E.	c #53595F",
"F.	c #434446",
"G.	c #3D3D3D",
"H.	c #3E3E41",
"I.	c #424447",
"J.	c #3E3E42",
"K.	c #424041",
"L.	c #424141",
"M.	c #555759",
"N.	c #5D5F63",
"O.	c #35393B",
"P.	c #161616",
"Q.	c #2D2F30",
"R.	c #474A4C",
"S.	c #393A3E",
"T.	c #37393B",
"U.	c #3E3F3C",
"V.	c #1C1B1C",
"W.	c #2A3033",
"X.	c #4C5960",
"Y.	c #464C4F",
"Z.	c #3B3C3C",
"`.	c #383A3A",
" +	c #383C3C",
".+	c #3B3E3E",
"++	c #3C4041",
"@+	c #414549",
"#+	c #515962",
"$+	c #525C64",
"%+	c #3F3938",
"&+	c #41352E",
"*+	c #43342A",
"=+	c #412E25",
"-+	c #483831",
";+	c #524239",
">+	c #4B3D36",
",+	c #504441",
"'+	c #1C1E1B",
")+	c #2B1A13",
"!+	c #41281D",
"~+	c #462D23",
"{+	c #3B251E",
"]+	c #433027",
"^+	c #4C3931",
"/+	c #4C3C36",
"(+	c #322927",
"_+	c #181818",
":+	c #4A4F54",
"<+	c #454142",
"[+	c #363136",
"}+	c #313033",
"|+	c #2F3033",
"1+	c #343539",
"2+	c #4E545A",
"3+	c #3D3E3F",
"4+	c #3B3C39",
"5+	c #404241",
"6+	c #444649",
"7+	c #454546",
"8+	c #42413F",
"9+	c #3D3937",
"0+	c #363233",
"a+	c #585C5E",
"b+	c #303437",
"c+	c #1A191A",
"d+	c #333435",
"e+	c #4A4F50",
"f+	c #4B5152",
"g+	c #43494C",
"h+	c #3F4648",
"i+	c #424745",
"j+	c #353837",
"k+	c #1D1D1F",
"l+	c #2A3234",
"m+	c #4B5960",
"n+	c #444C4F",
"o+	c #393B3D",
"p+	c #373B3C",
"q+	c #373B3D",
"r+	c #3A3E3E",
"s+	c #3D4141",
"t+	c #45484B",
"u+	c #535B62",
"v+	c #443F3C",
"w+	c #3F342E",
"x+	c #3D2E28",
"y+	c #3F302B",
"z+	c #483E38",
"A+	c #504840",
"B+	c #4F4643",
"C+	c #534E4D",
"D+	c #222223",
"E+	c #30221B",
"F+	c #3C281E",
"G+	c #3F2C23",
"H+	c #362421",
"I+	c #342420",
"J+	c #2D2624",
"K+	c #191A1A",
"L+	c #4E4F52",
"M+	c #454548",
"N+	c #474647",
"O+	c #413D3F",
"P+	c #3C393A",
"Q+	c #3B3A3A",
"R+	c #353738",
"S+	c #343639",
"T+	c #4A4F58",
"U+	c #3B3C3E",
"V+	c #3F3F3B",
"W+	c #3F3E3C",
"X+	c #414140",
"Y+	c #484743",
"Z+	c #43403C",
"`+	c #3D3935",
" @	c #373030",
".@	c #373435",
"+@	c #313436",
"@@	c #181717",
"#@	c #343635",
"$@	c #474C4E",
"%@	c #454E50",
"&@	c #434B4F",
"*@	c #3F4649",
"=@	c #3F4342",
"-@	c #3F4241",
";@	c #252424",
">@	c #2C3335",
",@	c #4D5B62",
"'@	c #424B4F",
")@	c #383C3D",
"!@	c #3B3E40",
"~@	c #3E4143",
"{@	c #3D4243",
"]@	c #46494B",
"^@	c #5A6166",
"/@	c #545D63",
"(@	c #78248E",
"_@	c #4B1D57",
":@	c #3E3029",
"<@	c #41332C",
"[@	c #463B37",
"}@	c #47403B",
"|@	c #4B4543",
"1@	c #524F4F",
"2@	c #1C1C1B",
"3@	c #31241B",
"4@	c #3D2A20",
"5@	c #38261E",
"6@	c #35241E",
"7@	c #362823",
"8@	c #3E302A",
"9@	c #463833",
"0@	c #322C29",
"a@	c #151716",
"b@	c #41484A",
"c@	c #515355",
"d@	c #4C4B4F",
"e@	c #434344",
"f@	c #404040",
"g@	c #403D3E",
"h@	c #3D393B",
"i@	c #3C3C39",
"j@	c #363637",
"k@	c #323337",
"l@	c #4B5158",
"m@	c #3A3C3E",
"n@	c #3B3C38",
"o@	c #3E3B38",
"p@	c #413E3D",
"q@	c #48433F",
"r@	c #3C3434",
"s@	c #403A37",
"t@	c #3A3B3D",
"u@	c #1A1A16",
"v@	c #2F3131",
"w@	c #43474A",
"x@	c #3E4648",
"y@	c #495354",
"z@	c #464E4F",
"A@	c #35383B",
"B@	c #252223",
"C@	c #323A3A",
"D@	c #4F5D62",
"E@	c #414C4F",
"F@	c #373D3E",
"G@	c #3E4141",
"H@	c #3F4243",
"I@	c #3C4141",
"J@	c #424648",
"K@	c #5F6569",
"L@	c #5A6266",
"M@	c #4A215C",
"N@	c #A035BB",
"O@	c #671B78",
"P@	c #443128",
"Q@	c #402D28",
"R@	c #463935",
"S@	c #48403C",
"T@	c #4B4544",
"U@	c #4B4747",
"V@	c #1D1A18",
"W@	c #241914",
"X@	c #2F201A",
"Y@	c #271B17",
"Z@	c #2E211E",
"`@	c #352A24",
" #	c #42362F",
".#	c #342E2A",
"+#	c #181918",
"@#	c #3C4043",
"##	c #464749",
"$#	c #414144",
"%#	c #434343",
"&#	c #404240",
"*#	c #393638",
"=#	c #353233",
"-#	c #343332",
";#	c #343333",
">#	c #353536",
",#	c #4B535A",
"'#	c #393B3F",
")#	c #393736",
"!#	c #433C3A",
"~#	c #453E3B",
"{#	c #403A39",
"]#	c #424240",
"^#	c #424645",
"/#	c #3D4144",
"(#	c #191916",
"_#	c #2D2D2E",
":#	c #3E4044",
"<#	c #43484D",
"[#	c #464F50",
"}#	c #434849",
"|#	c #323538",
"1#	c #323335",
"2#	c #252323",
"3#	c #303738",
"4#	c #4B5A5E",
"5#	c #404A4C",
"6#	c #363A3C",
"7#	c #3D3F41",
"8#	c #3F4041",
"9#	c #404346",
"0#	c #60656B",
"a#	c #939392",
"b#	c #4C4252",
"c#	c #630B83",
"d#	c #DD71EB",
"e#	c #8D21A4",
"f#	c #3A1F42",
"g#	c #717273",
"h#	c #443935",
"i#	c #48403F",
"j#	c #494343",
"k#	c #463F42",
"l#	c #1E1A18",
"m#	c #1C1514",
"n#	c #211918",
"o#	c #1E1717",
"p#	c #231B1A",
"q#	c #2E2621",
"r#	c #372E27",
"s#	c #292320",
"t#	c #393C3E",
"u#	c #3B3D3F",
"v#	c #393A3C",
"w#	c #3D3E3E",
"x#	c #383839",
"y#	c #302E30",
"z#	c #2F2D2F",
"A#	c #323030",
"B#	c #2F2E2F",
"C#	c #302F30",
"D#	c #54595F",
"E#	c #3A3B3F",
"F#	c #373131",
"G#	c #403938",
"H#	c #46413E",
"I#	c #3C4143",
"J#	c #3D4548",
"K#	c #495154",
"L#	c #1D1C19",
"M#	c #2F2E2E",
"N#	c #3B3B3F",
"O#	c #3F4044",
"P#	c #45494B",
"Q#	c #373B3B",
"R#	c #343837",
"S#	c #21211F",
"T#	c #2D3132",
"U#	c #3B4449",
"V#	c #3C4344",
"W#	c #3C3F40",
"X#	c #3C3E40",
"Y#	c #3D3F40",
"Z#	c #3F4140",
"`#	c #3D3F3F",
" $	c #444648",
".$	c #585C63",
"+$	c #939290",
"@$	c #531369",
"#$	c #6B0E8B",
"$$	c #DA76E7",
"%$	c #D967E8",
"&$	c #8A2AA6",
"*$	c #332639",
"=$	c #463F3A",
"-$	c #4C4541",
";$	c #494442",
">$	c #464042",
",$	c #464243",
"'$	c #221C19",
")$	c #1A1413",
"!$	c #141010",
"~$	c #151113",
"{$	c #211C1D",
"]$	c #261F1D",
"^$	c #221B19",
"/$	c #211A19",
"($	c #1B1617",
"_$	c #121112",
":$	c #2C2D2F",
"<$	c #29282A",
"[$	c #2C2C2E",
"}$	c #2E2D2E",
"|$	c #2A292B",
"1$	c #2C2B2B",
"2$	c #262427",
"3$	c #222023",
"4$	c #110F11",
"5$	c #110F10",
"6$	c #3A3837",
"7$	c #3E3A35",
"8$	c #433D39",
"9$	c #403E3E",
"0$	c #434648",
"a$	c #414648",
"b$	c #404649",
"c$	c #444A4E",
"d$	c #414447",
"e$	c #1F1D1A",
"f$	c #2B2A2A",
"g$	c #404142",
"h$	c #414445",
"i$	c #444A4A",
"j$	c #3E4546",
"k$	c #3A4043",
"l$	c #2B2E31",
"m$	c #1F1F1E",
"n$	c #1F2022",
"o$	c #33383C",
"p$	c #383C3E",
"q$	c #393C3D",
"r$	c #3E4040",
"s$	c #3D4040",
"t$	c #484A4C",
"u$	c #53585F",
"v$	c #503E5B",
"w$	c #70148F",
"x$	c #670C8C",
"y$	c #D978E5",
"z$	c #F38AF8",
"A$	c #AD39D0",
"B$	c #38223F",
"C$	c #6F7172",
"D$	c #403F3E",
"E$	c #464847",
"F$	c #4C4C4D",
"G$	c #474446",
"H$	c #1B1713",
"I$	c #141110",
"J$	c #120E10",
"K$	c #161215",
"L$	c #1B1717",
"M$	c #171412",
"N$	c #171415",
"O$	c #181414",
"P$	c #171314",
"Q$	c #131213",
"R$	c #191717",
"S$	c #1A1918",
"T$	c #1D1D1D",
"U$	c #1E1E1C",
"V$	c #181817",
"W$	c #161618",
"X$	c #191819",
"Y$	c #161515",
"Z$	c #4F5359",
"`$	c #484747",
" %	c #3D3B38",
".%	c #3C3835",
"+%	c #3F3B39",
"@%	c #3D3E40",
"#%	c #434848",
"$%	c #434949",
"%%	c #414649",
"&%	c #404549",
"*%	c #3A3D41",
"=%	c #1C1B18",
"-%	c #2A2B2B",
";%	c #141013",
">%	c #454A49",
",%	c #444B49",
"'%	c #394041",
")%	c #383D40",
"!%	c #323436",
"~%	c #212120",
"{%	c #1C1C1D",
"]%	c #303338",
"^%	c #34363A",
"/%	c #3B3C3D",
"(%	c #4D4E50",
"_%	c #2E193E",
":%	c #5A1176",
"<%	c #660C88",
"[%	c #8E28AD",
"}%	c #E880F1",
"|%	c #F698F9",
"1%	c #BB48E1",
"2%	c #9C1EC7",
"3%	c #29232C",
"4%	c #3D4244",
"5%	c #3F4647",
"6%	c #404044",
"7%	c #171411",
"8%	c #110E0D",
"9%	c #161213",
"0%	c #171213",
"a%	c #1C1714",
"b%	c #1A1716",
"c%	c #141213",
"d%	c #191517",
"e%	c #1E1B1B",
"f%	c #1E1D1D",
"g%	c #18181A",
"h%	c #141414",
"i%	c #10100F",
"j%	c #111010",
"k%	c #0E0E0F",
"l%	c #121211",
"m%	c #171616",
"n%	c #1A1B1B",
"o%	c #46484D",
"p%	c #3D3D3E",
"q%	c #3A3634",
"r%	c #373432",
"s%	c #3C3B3A",
"t%	c #3E4242",
"u%	c #424545",
"v%	c #414546",
"w%	c #414345",
"x%	c #1E1E19",
"y%	c #2C2B2C",
"z%	c #3B3C40",
"A%	c #3B3C3F",
"B%	c #3B3F41",
"C%	c #32383A",
"D%	c #383E3F",
"E%	c #36393B",
"F%	c #1B191D",
"G%	c #202222",
"H%	c #383F41",
"I%	c #3B3F40",
"J%	c #3F403F",
"K%	c #3C3D3F",
"L%	c #3C3F41",
"M%	c #3E4243",
"N%	c #4A4B4D",
"O%	c #3D1951",
"P%	c #6B118C",
"Q%	c #660B88",
"R%	c #AD44C7",
"S%	c #F891FA",
"T%	c #ED82F3",
"U%	c #D56DE7",
"V%	c #A829D4",
"W%	c #531969",
"X%	c #394044",
"Y%	c #3A4045",
"Z%	c #393B40",
"`%	c #151412",
" &	c #161210",
".&	c #1C1512",
"+&	c #1D1615",
"@&	c #1C1413",
"#&	c #1A1516",
"$&	c #171313",
"%&	c #1D1919",
"&&	c #1B1719",
"*&	c #2E2A2A",
"=&	c #2E2B2B",
"-&	c #272324",
";&	c #221E1D",
">&	c #1C1A1A",
",&	c #1E1E1F",
"'&	c #232629",
")&	c #293032",
"!&	c #272C2F",
"~&	c #222225",
"{&	c #45454A",
"]&	c #39383C",
"^&	c #393837",
"/&	c #343A3A",
"(&	c #3B3D3D",
"_&	c #424646",
":&	c #404445",
"<&	c #464A4B",
"[&	c #1C1C17",
"}&	c #2C2C2C",
"|&	c #3F4043",
"1&	c #3E3F43",
"2&	c #323236",
"3&	c #2F3334",
"4&	c #373C3A",
"5&	c #363A3A",
"6&	c #202020",
"7&	c #262828",
"8&	c #38393F",
"9&	c #3B4041",
"0&	c #3F413F",
"a&	c #3C3E3F",
"b&	c #3F4242",
"c&	c #3C4140",
"d&	c #311940",
"e&	c #5C1479",
"f&	c #6C0F8F",
"g&	c #660B87",
"h&	c #AD43C8",
"i&	c #EF83F4",
"j&	c #E76CF0",
"k&	c #F386F8",
"l&	c #AA31D3",
"m&	c #9821BF",
"n&	c #4F1865",
"o&	c #404246",
"p&	c #3A3D43",
"q&	c #111211",
"r&	c #17100F",
"s&	c #201614",
"t&	c #1B1311",
"u&	c #1E1614",
"v&	c #261D1C",
"w&	c #1D1614",
"x&	c #201815",
"y&	c #241E1C",
"z&	c #1C1A18",
"A&	c #2A2221",
"B&	c #251C1C",
"C&	c #211818",
"D&	c #2B231F",
"E&	c #221C1B",
"F&	c #241F1F",
"G&	c #2C2D2E",
"H&	c #2D3234",
"I&	c #26282C",
"J&	c #1F1F22",
"K&	c #47494D",
"L&	c #3E4042",
"M&	c #3E4142",
"N&	c #3C4142",
"O&	c #3F4446",
"P&	c #43494B",
"Q&	c #454A4D",
"R&	c #484C50",
"S&	c #45474A",
"T&	c #1D1B17",
"U&	c #2D2D2B",
"V&	c #3D3F42",
"W&	c #3D4043",
"X&	c #2E2F32",
"Y&	c #282929",
"Z&	c #313331",
"`&	c #333432",
" *	c #1B1918",
".*	c #262929",
"+*	c #393F43",
"@*	c #393D40",
"#*	c #3E4041",
"$*	c #424343",
"%*	c #2C1835",
"&*	c #4C1762",
"**	c #620D83",
"=*	c #610D80",
"-*	c #640C85",
";*	c #B345CB",
">*	c #EA74F3",
",*	c #E869F2",
"'*	c #F077F6",
")*	c #A82FCE",
"!*	c #AF26DD",
"~*	c #7E1B9F",
"{*	c #291F29",
"]*	c #443F40",
"^*	c #433D40",
"/*	c #131110",
"(*	c #120C0E",
"_*	c #1E1515",
":*	c #1D1514",
"<*	c #261C18",
"[*	c #2B221F",
"}*	c #1F1716",
"|*	c #241B1A",
"1*	c #27201E",
"2*	c #1B1819",
"3*	c #251C1F",
"4*	c #201716",
"5*	c #1D1413",
"6*	c #231A1A",
"7*	c #201A18",
"8*	c #191312",
"9*	c #24201E",
"0*	c #2B2B2A",
"a*	c #282728",
"b*	c #2A2928",
"c*	c #211F1F",
"d*	c #3F4246",
"e*	c #414346",
"f*	c #424445",
"g*	c #3D4245",
"h*	c #454B4E",
"i*	c #45494D",
"j*	c #414244",
"k*	c #262726",
"l*	c #37393C",
"m*	c #2E3033",
"n*	c #292829",
"o*	c #2B292B",
"p*	c #272528",
"q*	c #1A1717",
"r*	c #2E3233",
"s*	c #485458",
"t*	c #41494D",
"u*	c #393D3F",
"v*	c #41403F",
"w*	c #4B2B5A",
"x*	c #60127C",
"y*	c #5B0D7A",
"z*	c #5C0D7C",
"A*	c #670D86",
"B*	c #DE66EA",
"C*	c #E86DF1",
"D*	c #E564F0",
"E*	c #EF70F5",
"F*	c #C03BE5",
"G*	c #AB28DC",
"H*	c #B132D9",
"I*	c #6E2283",
"J*	c #51443F",
"K*	c #161211",
"L*	c #150F11",
"M*	c #191012",
"N*	c #1F1416",
"O*	c #291D19",
"P*	c #271D1A",
"Q*	c #221816",
"R*	c #211816",
"S*	c #1F1918",
"T*	c #161514",
"U*	c #1D1817",
"V*	c #261E1A",
"W*	c #2C2420",
"X*	c #251A19",
"Y*	c #241916",
"Z*	c #1F1613",
"`*	c #221916",
" =	c #201B1A",
".=	c #211E1E",
"+=	c #282623",
"@=	c #211E1D",
"#=	c #45484D",
"$=	c #424547",
"%=	c #434644",
"&=	c #3B3F42",
"*=	c #414448",
"==	c #3C3F42",
"-=	c #181714",
";=	c #292A29",
">=	c #38393A",
",=	c #3B3E3D",
"'=	c #313332",
")=	c #262626",
"!=	c #272526",
"~=	c #1B1818",
"{=	c #2A3132",
"]=	c #4F5E64",
"^=	c #465257",
"/=	c #3D4246",
"(=	c #383538",
"_=	c #34223F",
":=	c #5C1679",
"<=	c #611180",
"[=	c #5D0D7C",
"}=	c #680D88",
"|=	c #E261ED",
"1=	c #E463EF",
"2=	c #E561F1",
"3=	c #EC6DF5",
"4=	c #DF6BEF",
"5=	c #AE38DF",
"6=	c #B83CE5",
"7=	c #752292",
"8=	c #291325",
"9=	c #161414",
"0=	c #141211",
"a=	c #171212",
"b=	c #181012",
"c=	c #271B19",
"d=	c #241A18",
"e=	c #211717",
"f=	c #1C1516",
"g=	c #141314",
"h=	c #1D1B19",
"i=	c #2D2520",
"j=	c #372E2A",
"k=	c #271C1B",
"l=	c #251817",
"m=	c #281D1B",
"n=	c #201918",
"o=	c #201919",
"p=	c #28211F",
"q=	c #201B19",
"r=	c #45464A",
"s=	c #3E3D3F",
"t=	c #3E3E3D",
"u=	c #403D3C",
"v=	c #3D3A39",
"w=	c #3F3E3B",
"x=	c #3E3D3C",
"y=	c #3A3A3A",
"z=	c #171714",
"A=	c #282828",
"B=	c #373838",
"C=	c #393938",
"D=	c #353533",
"E=	c #2B2928",
"F=	c #2B282A",
"G=	c #2F2E2D",
"H=	c #1C1A19",
"I=	c #2D3435",
"J=	c #4E5D64",
"K=	c #48565B",
"L=	c #3D4347",
"M=	c #3E3B3B",
"N=	c #3B3635",
"O=	c #491660",
"P=	c #5F117E",
"Q=	c #5D0E7D",
"R=	c #5E0D7E",
"S=	c #5C0D7D",
"T=	c #6B0F8B",
"U=	c #E35DEE",
"V=	c #E561F0",
"W=	c #E762F2",
"X=	c #E666F0",
"Y=	c #F07AF5",
"Z=	c #C458E3",
"`=	c #B232E3",
" -	c #B933E3",
".-	c #8F2AAC",
"+-	c #0E0E0D",
"@-	c #151110",
"#-	c #1C1314",
"$-	c #1A1112",
"%-	c #191110",
"&-	c #1D1A1D",
"*-	c #302B2C",
"=-	c #39312E",
"--	c #372F2B",
";-	c #191112",
">-	c #1D1616",
",-	c #201817",
"'-	c #2E2521",
")-	c #251F1D",
"!-	c #424145",
"~-	c #3E3B3C",
"{-	c #403C3B",
"]-	c #3E3938",
"^-	c #3D3736",
"/-	c #403B39",
"(-	c #3C3938",
"_-	c #363433",
":-	c #393A39",
"<-	c #404547",
"[-	c #191816",
"}-	c #242527",
"|-	c #333335",
"1-	c #373637",
"2-	c #2E2C2E",
"3-	c #2E2C2A",
"4-	c #211E20",
"5-	c #201E1F",
"6-	c #323637",
"7-	c #56656A",
"8-	c #4A555A",
"9-	c #3B3737",
"0-	c #3E1C4E",
"a-	c #611781",
"b-	c #611183",
"c-	c #5F0E80",
"d-	c #600E81",
"e-	c #5C0B7C",
"f-	c #8821A1",
"g-	c #E55BEF",
"h-	c #E760F1",
"i-	c #E763F1",
"j-	c #F082F6",
"k-	c #D57BEB",
"l-	c #AE2AE2",
"m-	c #C02FED",
"n-	c #9D26C0",
"o-	c #4F1861",
"p-	c #0F0D0C",
"q-	c #130F10",
"r-	c #181313",
"s-	c #1E1615",
"t-	c #140E11",
"u-	c #151011",
"v-	c #1B1412",
"w-	c #181314",
"x-	c #332F2E",
"y-	c #38312E",
"z-	c #302825",
"A-	c #1F1816",
"B-	c #1D1717",
"C-	c #191414",
"D-	c #1B1514",
"E-	c #1E1817",
"F-	c #48494D",
"G-	c #424347",
"H-	c #424244",
"I-	c #3B3B3B",
"J-	c #17110F",
"K-	c #3B3B3D",
"L-	c #363839",
"M-	c #3A4041",
"N-	c #434A4E",
"O-	c #252325",
"P-	c #302F32",
"Q-	c #383737",
"R-	c #2B2929",
"S-	c #23221F",
"T-	c #2F3335",
"U-	c #536066",
"V-	c #475256",
"W-	c #3F4143",
"X-	c #3D3C3B",
"Y-	c #462F52",
"Z-	c #6A2390",
"`-	c #8125AF",
" ;	c #620F85",
".;	c #600C81",
"+;	c #5F0D7F",
"@;	c #B545C3",
"#;	c #E357EF",
"$;	c #E865F3",
"%;	c #E164EF",
"&;	c #DB5FEE",
"*;	c #E273F2",
"=;	c #E077EF",
"-;	c #B542DE",
";;	c #BB2CEB",
">;	c #BF2FE8",
",;	c #7D2399",
"';	c #3C3240",
");	c #747473",
"!;	c #120C0C",
"~;	c #141011",
"{;	c #191514",
"];	c #161013",
"^;	c #231D1B",
"/;	c #1E191A",
"(;	c #131012",
"_;	c #23201D",
":;	c #2B2523",
"<;	c #2F2623",
"[;	c #2A211E",
"};	c #211C18",
"|;	c #1D1612",
"1;	c #1E1716",
"2;	c #171312",
"3;	c #464A4F",
"4;	c #404041",
"5;	c #3F4040",
"6;	c #3F4343",
"7;	c #3B434A",
"8;	c #3B4347",
"9;	c #303133",
"0;	c #2F2F2E",
"a;	c #2F2F2C",
"b;	c #242427",
"c;	c #2C2D2D",
"d;	c #1B1C1C",
"e;	c #282C2F",
"f;	c #48565E",
"g;	c #434B51",
"h;	c #3D3C3F",
"i;	c #3C3A3B",
"j;	c #6E2491",
"k;	c #B736EA",
"l;	c #BF31ED",
"m;	c #9B22C3",
"n;	c #5F0D81",
"o;	c #5D0C7E",
"p;	c #C257CA",
"q;	c #E663EE",
"r;	c #E363F1",
"s;	c #D95FEF",
"t;	c #D357EE",
"u;	c #D65BEE",
"v;	c #DF6AEF",
"w;	c #CD61E3",
"x;	c #AA26DA",
"y;	c #AE27D8",
"z;	c #9122B6",
"A;	c #551B6B",
"B;	c #79787B",
"C;	c #8E918D",
"D;	c #151010",
"E;	c #0E0B0B",
"F;	c #0D0B0B",
"G;	c #1A1511",
"H;	c #211B17",
"I;	c #1C1717",
"J;	c #161413",
"K;	c #1F1C19",
"L;	c #191412",
"M;	c #1E1B1A",
"N;	c #181413",
"O;	c #241C16",
"P;	c #201916",
"Q;	c #231E1C",
"R;	c #494D50",
"S;	c #444749",
"T;	c #3C3D3E",
"U;	c #3B3939",
"V;	c #3B3837",
"W;	c #14100F",
"X;	c #3C3B3C",
"Y;	c #3B3E41",
"Z;	c #141012",
"`;	c #40464A",
" >	c #252525",
".>	c #313435",
"+>	c #303232",
"@>	c #303130",
"#>	c #343432",
"$>	c #232326",
"%>	c #232426",
"&>	c #1B1A1B",
"*>	c #2E3334",
"=>	c #4A595F",
"->	c #40494E",
";>	c #5C545E",
">>	c #521F6B",
",>	c #A733E8",
"'>	c #9B34EC",
")>	c #9431EE",
"!>	c #A02BE8",
"~>	c #A624CF",
"{>	c #650E88",
"]>	c #660E85",
"^>	c #C859CF",
"/>	c #EC7DF0",
"(>	c #D85DED",
"_>	c #D155EC",
":>	c #D154ED",
"<>	c #D254ED",
"[>	c #DD66F1",
"}>	c #CC62E2",
"|>	c #9F22CE",
"1>	c #A325D1",
"2>	c #961DBE",
"3>	c #7C199D",
"4>	c #3F2549",
"5>	c #888B89",
"6>	c #150F0F",
"7>	c #0D090B",
"8>	c #0E0B0D",
"9>	c #181310",
"0>	c #100D0D",
"a>	c #1C1716",
"b>	c #161314",
"c>	c #151514",
"d>	c #251C19",
"e>	c #2B211C",
"f>	c #2D2723",
"g>	c #24211F",
"h>	c #434549",
"i>	c #3E3E40",
"j>	c #372A25",
"k>	c #3A3937",
"l>	c #3A3838",
"m>	c #3F3D3D",
"n>	c #3F3E40",
"o>	c #44474A",
"p>	c #414548",
"q>	c #171611",
"r>	c #242322",
"s>	c #2F3030",
"t>	c #2B2C2B",
"u>	c #282827",
"v>	c #1F1D21",
"w>	c #232224",
"x>	c #303636",
"y>	c #444D51",
"z>	c #381448",
"A>	c #9830C0",
"B>	c #9E2FE8",
"C>	c #952FEE",
"D>	c #942FEF",
"E>	c #982AEA",
"F>	c #A027E3",
"G>	c #B32AE1",
"H>	c #9726A9",
"I>	c #DE4FE1",
"J>	c #DB5BEE",
"K>	c #D050ED",
"L>	c #DB5EF0",
"M>	c #D460E7",
"N>	c #A328D0",
"O>	c #A122D0",
"P>	c #981BC1",
"Q>	c #A01EC8",
"R>	c #9128B1",
"S>	c #615F64",
"T>	c #16110F",
"U>	c #100B0B",
"V>	c #1B1716",
"W>	c #1C1816",
"X>	c #141312",
"Y>	c #100E0D",
"Z>	c #221F1D",
"`>	c #242020",
" ,	c #201D1D",
".,	c #231C1B",
"+,	c #241819",
"@,	c #302422",
"#,	c #312623",
"$,	c #424548",
"%,	c #3D3A38",
"&,	c #393636",
"*,	c #3E3A3A",
"=,	c #403C3C",
"-,	c #3F3D3C",
";,	c #454446",
">,	c #191815",
",,	c #242325",
"',	c #242425",
"),	c #2D2E2C",
"!,	c #6D6F6D",
"~,	c #616261",
"{,	c #25182E",
"],	c #781FA7",
"^,	c #9F2EEE",
"/,	c #962BEF",
"(,	c #942CEF",
"_,	c #942BEF",
":,	c #952AEE",
"<,	c #8F24E0",
"[,	c #AF2CE6",
"},	c #AF32C7",
"|,	c #EA5DEE",
"1,	c #DE5CF0",
"2,	c #D254EB",
"3,	c #D253EC",
"4,	c #D04FEC",
"5,	c #D04DEC",
"6,	c #D049ED",
"7,	c #E663F6",
"8,	c #B73FD9",
"9,	c #9E1DCD",
"0,	c #991BC3",
"a,	c #981AC1",
"b,	c #9C1FC7",
"c,	c #541B70",
"d,	c #565059",
"e,	c #110C0A",
"f,	c #16100E",
"g,	c #140F0A",
"h,	c #201A15",
"i,	c #201B17",
"j,	c #2F2C28",
"k,	c #2F2A26",
"l,	c #241D1C",
"m,	c #241D1D",
"n,	c #362D29",
"o,	c #3C312A",
"p,	c #322621",
"q,	c #352723",
"r,	c #312421",
"s,	c #322723",
"t,	c #29211E",
"u,	c #403E3C",
"v,	c #3C3939",
"w,	c #3F3C3D",
"x,	c #3F3D3B",
"y,	c #3A3B38",
"z,	c #1C1918",
"A,	c #23201F",
"B,	c #1F1B1B",
"C,	c #201F20",
"D,	c #292B29",
"E,	c #292A2A",
"F,	c #6E6F6E",
"G,	c #727272",
"H,	c #535258",
"I,	c #411558",
"J,	c #A029E4",
"K,	c #922AED",
"L,	c #942AEF",
"M,	c #952BF0",
"N,	c #952AF0",
"O,	c #952AEF",
"P,	c #9123E0",
"Q,	c #A82DE1",
"R,	c #CA39E6",
"S,	c #C437D6",
"T,	c #C845DB",
"U,	c #DF5AF0",
"V,	c #D450ED",
"W,	c #CE49EA",
"X,	c #D049EC",
"Y,	c #E767F5",
"Z,	c #B33FD5",
"`,	c #9A1CC9",
" '	c #9218BC",
".'	c #8E17B6",
"+'	c #A724CB",
"@'	c #9A27B8",
"#'	c #523A5D",
"$'	c #171211",
"%'	c #17120E",
"&'	c #241E19",
"*'	c #211B19",
"='	c #292624",
"-'	c #2A2423",
";'	c #261F1E",
">'	c #25201F",
",'	c #302B29",
"''	c #2D2623",
")'	c #2A201E",
"!'	c #332822",
"~'	c #2F241E",
"{'	c #2F231E",
"]'	c #271D1C",
"^'	c #3F4345",
"/'	c #3F3F3E",
"('	c #3F3E3D",
"_'	c #3C3B3D",
":'	c #3C3C3B",
"<'	c #373938",
"['	c #3B3F43",
"}'	c #191615",
"|'	c #191617",
"1'	c #262725",
"2'	c #252626",
"3'	c #19181B",
"4'	c #737473",
"5'	c #5A5A5C",
"6'	c #431B51",
"7'	c #9F29D6",
"8'	c #A92EEB",
"9'	c #9227EF",
"0'	c #9428EF",
"a'	c #952AF1",
"b'	c #9427EE",
"c'	c #9824DC",
"d'	c #C737E5",
"e'	c #9A21B5",
"f'	c #570874",
"g'	c #590976",
"h'	c #8C23A4",
"i'	c #D054DE",
"j'	c #E55DF0",
"k'	c #DC55ED",
"l'	c #DE58EF",
"m'	c #E96EF4",
"n'	c #E36EED",
"o'	c #9B26C4",
"p'	c #A525C6",
"q'	c #A324C3",
"r'	c #B329D0",
"s'	c #AE2DC7",
"t'	c #78208E",
"u'	c #16130D",
"v'	c #18140F",
"w'	c #14100D",
"x'	c #18130E",
"y'	c #151210",
"z'	c #0C0B0C",
"A'	c #181614",
"B'	c #211B18",
"C'	c #2B2420",
"D'	c #221E1A",
"E'	c #1E1C17",
"F'	c #1F1B19",
"G'	c #221E1C",
"H'	c #26201C",
"I'	c #1F1713",
"J'	c #424344",
"K'	c #3E3E3E",
"L'	c #3C3A39",
"M'	c #13110F",
"N'	c #3D3C3C",
"O'	c #3D3E41",
"P'	c #414347",
"Q'	c #131210",
"R'	c #1F1C1C",
"S'	c #181715",
"T'	c #151312",
"U'	c #1E1E1D",
"V'	c #1A1B1D",
"W'	c #555556",
"X'	c #4A424F",
"Y'	c #8B26AA",
"Z'	c #AB37E9",
"`'	c #B232F2",
" )	c #9327EF",
".)	c #9428F0",
"+)	c #9529EF",
"@)	c #9224E4",
"#)	c #BD2FE4",
"$)	c #9F25B9",
"%)	c #560879",
"&)	c #550A76",
"*)	c #540A72",
"=)	c #560A73",
"-)	c #5F0E7D",
";)	c #8C28A2",
">)	c #DB58E5",
",)	c #EF70F6",
"')	c #EC6EF4",
"))	c #F16CF6",
"!)	c #C43DDB",
"~)	c #AE2EC5",
"{)	c #9B29B0",
"])	c #8D22A3",
"^)	c #5F117C",
"/)	c #450D5E",
"()	c #1B1611",
"_)	c #17110E",
":)	c #120D0D",
"<)	c #0E0909",
"[)	c #0E0D0C",
"})	c #0E0D0D",
"|)	c #141413",
"1)	c #181412",
"2)	c #1D1716",
"3)	c #201C1A",
"4)	c #1C1715",
"5)	c #1A1613",
"6)	c #1A1411",
"7)	c #211916",
"8)	c #1F1815",
"9)	c #3D3C3D",
"0)	c #3C3B3B",
"a)	c #3D3D3C",
"b)	c #3F3F41",
"c)	c #454649",
"d)	c #11110F",
"e)	c #1D1A19",
"f)	c #252120",
"g)	c #1B1917",
"h)	c #141111",
"i)	c #171615",
"j)	c #1C1E1F",
"k)	c #741D8C",
"l)	c #B334CF",
"m)	c #AE37F1",
"n)	c #9129F0",
"o)	c #9329F0",
"p)	c #9429F1",
"q)	c #9428EE",
"r)	c #9826EB",
"s)	c #B22BE8",
"t)	c #A724C7",
"u)	c #570A78",
"v)	c #590B7C",
"w)	c #630E86",
"x)	c #5E0C80",
"y)	c #570C78",
"z)	c #570D78",
"A)	c #580C79",
"B)	c #701A8E",
"C)	c #BC4BCB",
"D)	c #ED67F6",
"E)	c #EA5BF2",
"F)	c #AE31C6",
"G)	c #61117D",
"H)	c #510F6D",
"I)	c #4F1167",
"J)	c #61147F",
"K)	c #311C3F",
"L)	c #1A1311",
"M)	c #140F0D",
"N)	c #120D0B",
"O)	c #100E0C",
"P)	c #0C0A09",
"Q)	c #161517",
"R)	c #121416",
"S)	c #141517",
"T)	c #232322",
"U)	c #2D2A2A",
"V)	c #2C2A29",
"W)	c #171716",
"X)	c #1A1917",
"Y)	c #292523",
"Z)	c #211C1A",
"`)	c #3E3F41",
" !	c #39393A",
".!	c #3D3B39",
"+!	c #424144",
"@!	c #3A393A",
"#!	c #1E1B19",
"$!	c #282322",
"%!	c #151313",
"&!	c #1D1E1F",
"*!	c #220F2A",
"=!	c #7C1D94",
"-!	c #B025C7",
";!	c #BD3CEF",
">!	c #8B25E6",
",!	c #932AF1",
"'!	c #9124E9",
")!	c #AD28E7",
"!!	c #BC2ADE",
"~!	c #5A0C7B",
"{!	c #590C7B",
"]!	c #5A0D7D",
"^!	c #5D0E80",
"/!	c #610D85",
"(!	c #590D7A",
"_!	c #5B0E7B",
":!	c #5C0D7E",
"<!	c #5E0D82",
"[!	c #7E1D9C",
"}!	c #C635DC",
"|!	c #A825C0",
"1!	c #5F0F7F",
"2!	c #5A0F78",
"3!	c #551070",
"4!	c #51116B",
"5!	c #5F137E",
"6!	c #383637",
"7!	c #3E3B3D",
"8!	c #343435",
"9!	c #2E2E2F",
"0!	c #242424",
"a!	c #0A0705",
"b!	c #1B1B1E",
"c!	c #191A1D",
"d!	c #33302F",
"e!	c #232323",
"f!	c #222423",
"g!	c #2F2C2A",
"h!	c #393838",
"i!	c #383635",
"j!	c #3B3839",
"k!	c #3D3B3C",
"l!	c #3A393B",
"m!	c #403D3F",
"n!	c #3A3839",
"o!	c #13120F",
"p!	c #120E11",
"q!	c #191614",
"r!	c #211026",
"s!	c #3D0F4F",
"t!	c #4B1260",
"u!	c #AA36D0",
"v!	c #A836E7",
"w!	c #B137F2",
"x!	c #9E2AED",
"y!	c #AA2BEC",
"z!	c #C32DE9",
"A!	c #6D118F",
"B!	c #5C0B7E",
"C!	c #5B0C7D",
"D!	c #590D7C",
"E!	c #5B0E7D",
"F!	c #5B0E7E",
"G!	c #5D0E7E",
"H!	c #5E0D7F",
"I!	c #5E0D80",
"J!	c #6D0F8E",
"K!	c #C331DA",
"L!	c #7D1996",
"M!	c #680F8C",
"N!	c #7810A0",
"O!	c #61137F",
"P!	c #591276",
"Q!	c #5E127E",
"R!	c #3D373A",
"S!	c #474141",
"T!	c #433F40",
"U!	c #373638",
"V!	c #3F4042",
"W!	c #0E0B09",
"X!	c #100F0C",
"Y!	c #151413",
"Z!	c #1B1A1A",
"`!	c #242323",
" ~	c #212121",
".~	c #242627",
"+~	c #2A2C2E",
"@~	c #2B2E2F",
"#~	c #2C2F30",
"$~	c #282A2C",
"%~	c #444446",
"&~	c #3D3B3D",
"*~	c #393738",
"=~	c #3C3838",
"-~	c #3E3939",
";~	c #3C3837",
">~	c #3C383A",
",~	c #3D3837",
"'~	c #393534",
")~	c #14120D",
"!~	c #221C18",
"~~	c #271F1D",
"{~	c #141112",
"]~	c #191818",
"^~	c #191616",
"/~	c #3E1F4F",
"(~	c #4E1362",
"_~	c #56126E",
":~	c #601679",
"<~	c #8D20B1",
"[~	c #B32BDD",
"}~	c #B229E1",
"|~	c #8D1CB5",
"1~	c #5D0A80",
"2~	c #6E0D95",
"3~	c #5C0C7F",
"4~	c #5B0D7D",
"5~	c #5B0E7F",
"6~	c #5D0F80",
"7~	c #5C0E7F",
"8~	c #690E8B",
"9~	c #BF31D7",
"0~	c #7F1B9B",
"a~	c #6C0F91",
"b~	c #770FA0",
"c~	c #630F84",
"d~	c #611181",
"e~	c #481760",
"f~	c #443837",
"g~	c #493F3A",
"h~	c #48413E",
"i~	c #3A363A",
"j~	c #2A2B2E",
"k~	c #0A0500",
"l~	c #263138",
"m~	c #313D49",
"n~	c #38444F",
"o~	c #445159",
"p~	c #465259",
"q~	c #445056",
"r~	c #4D5960",
"s~	c #536169",
"t~	c #4C5C65",
"u~	c #4B5B64",
"v~	c #4B565D",
"w~	c #423F42",
"x~	c #3F3936",
"y~	c #3D3632",
"z~	c #3F3734",
"A~	c #413834",
"B~	c #3C342F",
"C~	c #393533",
"D~	c #0D100B",
"E~	c #1F1917",
"F~	c #27201F",
"G~	c #1B1817",
"H~	c #131112",
"I~	c #171516",
"J~	c #3F3248",
"K~	c #641880",
"L~	c #5B1175",
"M~	c #540E6E",
"N~	c #4D0B67",
"O~	c #610E80",
"P~	c #941DBE",
"Q~	c #8716B1",
"R~	c #600B84",
"S~	c #730D9C",
"T~	c #610D86",
"U~	c #5D0E7F",
"V~	c #5E0F81",
"W~	c #5D0F82",
"X~	c #5C0F80",
"Y~	c #5A0E7C",
"Z~	c #5C0F7D",
"`~	c #620E84",
" {	c #B82FD0",
".{	c #811B9D",
"+{	c #730F9C",
"@{	c #7B10A5",
"#{	c #790FA3",
"${	c #75119E",
"%{	c #382C2D",
"&{	c #433635",
"*{	c #433531",
"={	c #3C3431",
"-{	c #343236",
";{	c #27292C",
">{	c #0B0600",
",{	c #333F47",
"'{	c #35414B",
"){	c #363F48",
"!{	c #40484E",
"~{	c #3C4248",
"{{	c #3F4447",
"]{	c #474C4F",
"^{	c #4A5257",
"/{	c #434D53",
"({	c #3E474E",
"_{	c #433D41",
":{	c #3E3736",
"<{	c #3C3331",
"[{	c #3C322F",
"}{	c #3E332F",
"|{	c #40342F",
"1{	c #3A2F2A",
"2{	c #3A3535",
"3{	c #0C0E0E",
"4{	c #1A1616",
"5{	c #261F20",
"6{	c #1C1818",
"7{	c #181617",
"8{	c #1E1C1C",
"9{	c #181416",
"0{	c #311E39",
"a{	c #61147D",
"b{	c #5C1079",
"c{	c #570E74",
"d{	c #520D6E",
"e{	c #500B6D",
"f{	c #741398",
"g{	c #8617AF",
"h{	c #710F98",
"i{	c #6B0D94",
"j{	c #6F0C9A",
"k{	c #6C0F95",
"l{	c #620E87",
"m{	c #5F0F82",
"n{	c #580E79",
"o{	c #6A178A",
"p{	c #70148C",
"q{	c #B72ECE",
"r{	c #81199D",
"s{	c #6C0E92",
"t{	c #6E0E94",
"u{	c #8014A9",
"v{	c #7912A3",
"w{	c #3B3237",
"x{	c #3E3437",
"y{	c #382E2E",
"z{	c #36302E",
"A{	c #373738",
"B{	c #37393E",
"C{	c #222527",
"D{	c #0A0600",
"E{	c #2F373C",
"F{	c #343B40",
"G{	c #333639",
"H{	c #303030",
"I{	c #282321",
"J{	c #2D2823",
"K{	c #292422",
"L{	c #333331",
"M{	c #2E2E2C",
"N{	c #272625",
"O{	c #464040",
"P{	c #3F3635",
"Q{	c #3D3430",
"R{	c #3D332E",
"S{	c #3D312D",
"T{	c #3C2F2C",
"U{	c #3F3130",
"V{	c #40322E",
"W{	c #423630",
"X{	c #453732",
"Y{	c #382F2F",
"Z{	c #090A0A",
"`{	c #1D1718",
" ]	c #292021",
".]	c #1D1918",
"+]	c #161312",
"@]	c #191613",
"#]	c #191716",
"$]	c #1C1919",
"%]	c #392C3E",
"&]	c #581373",
"*]	c #571073",
"=]	c #550C73",
"-]	c #520B6F",
";]	c #570C76",
">]	c #7F15A6",
",]	c #8215AD",
"']	c #700E9B",
")]	c #780EA6",
"!]	c #7A0FA8",
"~]	c #750FA2",
"{]	c #6D1095",
"]]	c #6A0F91",
"^]	c #670E8F",
"/]	c #650E8C",
"(]	c #660E8B",
"_]	c #9620AD",
":]	c #A928BE",
"<]	c #6E128F",
"[]	c #69108D",
"}]	c #6D1091",
"|]	c #8D1BB7",
"1]	c #6D1B90",
"2]	c #3C3642",
"3]	c #2E2524",
"4]	c #2D2828",
"5]	c #3B393B",
"6]	c #242626",
"7]	c #090401",
"8]	c #2C333B",
"9]	c #313943",
"0]	c #3A4247",
"a]	c #2C2927",
"b]	c #1F1C1D",
"c]	c #242225",
"d]	c #2B2C2C",
"e]	c #2A2A2A",
"f]	c #494242",
"g]	c #3F3735",
"h]	c #40332D",
"i]	c #3E322D",
"j]	c #3F332E",
"k]	c #473932",
"l]	c #52453F",
"m]	c #4A3E39",
"n]	c #382F2D",
"o]	c #0C0D0E",
"p]	c #292121",
"q]	c #1C1819",
"r]	c #191817",
"s]	c #1C1B1A",
"t]	c #30203D",
"u]	c #631283",
"v]	c #560E75",
"w]	c #570E76",
"x]	c #570D76",
"y]	c #530B72",
"z]	c #7915A0",
"A]	c #8918B6",
"B]	c #7C12AB",
"C]	c #780FA7",
"D]	c #770FA6",
"E]	c #7810A6",
"F]	c #7710A3",
"G]	c #6E1097",
"H]	c #6A0F92",
"I]	c #690F91",
"J]	c #690E91",
"K]	c #9922B3",
"L]	c #A127B7",
"M]	c #68128A",
"N]	c #67118B",
"O]	c #711396",
"P]	c #911BBE",
"Q]	c #452059",
"R]	c #3A302E",
"S]	c #302722",
"T]	c #291F1D",
"U]	c #2E2928",
"V]	c #3B393A",
"W]	c #464548",
"X]	c #313132",
"Y]	c #2D373E",
"Z]	c #2F3A44",
"`]	c #373C3E",
" ^	c #343430",
".^	c #211D1B",
"+^	c #2B2826",
"@^	c #323032",
"#^	c #353636",
"$^	c #383A38",
"%^	c #333433",
"&^	c #4B4444",
"*^	c #3E3734",
"=^	c #3C312D",
"-^	c #40332F",
";^	c #3E312D",
">^	c #3D322E",
",^	c #3E3531",
"'^	c #483D38",
")^	c #4E4441",
"!^	c #3B464E",
"~^	c #3A322E",
"{^	c #0F1010",
"]^	c #201C19",
"^^	c #281F1D",
"/^	c #141515",
"(^	c #161615",
"_^	c #151515",
":^	c #303233",
"<^	c #50575E",
"[^	c #570F76",
"}^	c #580E77",
"|^	c #75149D",
"1^	c #921BC0",
"2^	c #8014AE",
"3^	c #7810A7",
"4^	c #790FA7",
"5^	c #710F9B",
"6^	c #690F93",
"7^	c #9921B3",
"8^	c #A228B7",
"9^	c #671189",
"0^	c #66118A",
"a^	c #6E1292",
"b^	c #8F1ABE",
"c^	c #421E55",
"d^	c #362C29",
"e^	c #372E2B",
"f^	c #302626",
"g^	c #35312E",
"h^	c #353534",
"i^	c #3A3B3E",
"j^	c #2B2C2F",
"k^	c #0B0A04",
"l^	c #323D42",
"m^	c #374146",
"n^	c #2F3336",
"o^	c #2C2B27",
"p^	c #231F1C",
"q^	c #332F2D",
"r^	c #383838",
"s^	c #404140",
"t^	c #494342",
"u^	c #433A35",
"v^	c #42352E",
"w^	c #40332E",
"x^	c #3E322E",
"y^	c #3A302D",
"z^	c #3E474C",
"A^	c #3D484F",
"B^	c #413734",
"C^	c #0C0D0C",
"D^	c #1E1816",
"E^	c #29201D",
"F^	c #121212",
"G^	c #141212",
"H^	c #131113",
"I^	c #1D1B1C",
"J^	c #1D191A",
"K^	c #282725",
"L^	c #4C1567",
"M^	c #570F77",
"N^	c #5A0F7A",
"O^	c #5C0E7D",
"P^	c #661189",
"Q^	c #8B1BB6",
"R^	c #8315B2",
"S^	c #7910A8",
"T^	c #7911A7",
"U^	c #7910A7",
"V^	c #780FA5",
"W^	c #770EA3",
"X^	c #780EA4",
"Y^	c #6B0F93",
"Z^	c #A428B9",
"`^	c #69118B",
" /	c #7F18A4",
"./	c #861AAF",
"+/	c #3A1C4A",
"@/	c #352D2A",
"#/	c #2D2724",
"$/	c #39332F",
"%/	c #413F3C",
"&/	c #2E2F2E",
"*/	c #282D2E",
"=/	c #1D2023",
"-/	c #0A0903",
";/	c #2F3A3E",
">/	c #2C2A24",
",/	c #32302E",
"'/	c #3B3B39",
")/	c #363838",
"!/	c #383A3C",
"~/	c #47403F",
"{/	c #493D39",
"]/	c #483A32",
"^/	c #42332C",
"//	c #3E312B",
"(/	c #3E322C",
"_/	c #3C302C",
":/	c #463933",
"</	c #493933",
"[/	c #3C302B",
"}/	c #080A09",
"|/	c #1E1715",
"1/	c #2F2422",
"2/	c #161313",
"3/	c #151311",
"4/	c #1D1A1B",
"5/	c #171315",
"6/	c #6A158A",
"7/	c #580F7A",
"8/	c #5C0F7E",
"9/	c #731498",
"0/	c #8818B6",
"a/	c #7911A8",
"b/	c #7810A5",
"c/	c #7C10A9",
"d/	c #7E10AC",
"e/	c #8213AF",
"f/	c #A728C0",
"g/	c #A427BB",
"h/	c #6B128D",
"i/	c #6C1290",
"j/	c #871BAE",
"k/	c #54196C",
"l/	c #232222",
"m/	c #2C2928",
"n/	c #272423",
"o/	c #332C2A",
"p/	c #3E3A38",
"q/	c #343436",
"r/	c #2A2E32",
"s/	c #202428",
"t/	c #0B0905",
"u/	c #2C3336",
"v/	c #33383D",
"w/	c #323638",
"x/	c #252422",
"y/	c #403D3B",
"z/	c #424341",
"A/	c #4A4140",
"B/	c #463936",
"C/	c #47372F",
"D/	c #42302A",
"E/	c #3B2B24",
"F/	c #3C2E27",
"G/	c #473B33",
"H/	c #3F302A",
"I/	c #3E2E27",
"J/	c #342A25",
"K/	c #090C0B",
"L/	c #2B201D",
"M/	c #251D19",
"N/	c #181212",
"O/	c #161110",
"P/	c #1E1C1A",
"Q/	c #1A1617",
"R/	c #1E1D1F",
"S/	c #202022",
"T/	c #6F1890",
"U/	c #5F1182",
"V/	c #5E1080",
"W/	c #5E0E80",
"X/	c #5A0C78",
"Y/	c #8E1ABC",
"Z/	c #8B18BA",
"`/	c #7912A6",
" (	c #7B12A8",
".(	c #7A10A8",
"+(	c #7C10AA",
"@(	c #7E10AD",
"#(	c #8E1BB8",
"$(	c #C337DC",
"%(	c #8118A0",
"&(	c #6F1491",
"*(	c #6D1291",
"=(	c #7F18A9",
"-(	c #4E1468",
";(	c #1D1C1B",
">(	c #1F1B1D",
",(	c #332D2B",
"'(	c #3D3734",
")(	c #363332",
"!(	c #2F3135",
"~(	c #100E07",
"{(	c #323133",
"](	c #312F32",
"^(	c #2F2F2F",
"/(	c #2F2F2D",
"((	c #383735",
"_(	c #3C3D3B",
":(	c #3E403E",
"<(	c #4B4140",
"[(	c #443734",
"}(	c #44342D",
"|(	c #413029",
"1(	c #3B2A24",
"2(	c #3A2A26",
"3(	c #3C2E29",
"4(	c #41332D",
"5(	c #3C2E2A",
"6(	c #3C2D29",
"7(	c #372D2A",
"8(	c #0E1110",
"9(	c #1E1819",
"0(	c #231B19",
"a(	c #191513",
"b(	c #0F0E0D",
"c(	c #120E0D",
"d(	c #171413",
"e(	c #181615",
"f(	c #151414",
"g(	c #525458",
"h(	c #58545B",
"i(	c #571871",
"j(	c #741699",
"k(	c #5F0F81",
"l(	c #5E0F7F",
"m(	c #5E0E7F",
"n(	c #570C74",
"o(	c #8618B3",
"p(	c #971CC4",
"q(	c #7F14AC",
"r(	c #8214B0",
"s(	c #8315B1",
"t(	c #931BC1",
"u(	c #8515B3",
"v(	c #7F11AD",
"w(	c #951FBE",
"x(	c #C33CDB",
"y(	c #721396",
"z(	c #6F1493",
"A(	c #731497",
"B(	c #8016AC",
"C(	c #4B1166",
"D(	c #272320",
"E(	c #2C2622",
"F(	c #292221",
"G(	c #36302B",
"H(	c #342F2E",
"I(	c #111009",
"J(	c #3B383A",
"K(	c #383537",
"L(	c #2F2F31",
"M(	c #353535",
"N(	c #373939",
"O(	c #393B3C",
"P(	c #4A4343",
"Q(	c #453B38",
"R(	c #3E302B",
"S(	c #3C2F2B",
"T(	c #3B302C",
"U(	c #3A2E2A",
"V(	c #3C322D",
"W(	c #382C28",
"X(	c #37302E",
"Y(	c #0E1211",
"Z(	c #221D1C",
"`(	c #131212",
" _	c #0D0D0D",
"._	c #0E0E0E",
"+_	c #1D1E1E",
"@_	c #202121",
"#_	c #252524",
"$_	c #4C5155",
"%_	c #565356",
"&_	c #2C1732",
"*_	c #851CAA",
"=_	c #601082",
"-_	c #611084",
";_	c #5F0E81",
">_	c #6C1490",
",_	c #911CBF",
"'_	c #8516B3",
")_	c #8B19B8",
"!_	c #8D18B9",
"~_	c #8C18B9",
"{_	c #9721C0",
"]_	c #C840DF",
"^_	c #7A179D",
"/_	c #75169A",
"(_	c #7D16A3",
"__	c #661288",
":_	c #403C43",
"<_	c #2D2725",
"[_	c #382F2B",
"}_	c #39322F",
"|_	c #3D3A3A",
"1_	c #3A3D3D",
"2_	c #2D3233",
"3_	c #0C0C07",
"4_	c #393537",
"5_	c #3C3737",
"6_	c #353131",
"7_	c #3C3A3A",
"8_	c #3A383A",
"9_	c #363736",
"0_	c #393B3B",
"a_	c #353435",
"b_	c #494544",
"c_	c #47413F",
"d_	c #423A36",
"e_	c #3F3733",
"f_	c #3F3934",
"g_	c #393633",
"h_	c #3A3531",
"i_	c #3F3B37",
"j_	c #393433",
"k_	c #0C100E",
"l_	c #111313",
"m_	c #111111",
"n_	c #262622",
"o_	c #4E555A",
"p_	c #4D5055",
"q_	c #261829",
"r_	c #861CAC",
"s_	c #6D1490",
"t_	c #611083",
"u_	c #611184",
"v_	c #69118C",
"w_	c #A022CE",
"x_	c #931BC0",
"y_	c #901BBD",
"z_	c #901ABE",
"A_	c #921BBF",
"B_	c #941CC0",
"C_	c #941AC0",
"D_	c #9F23C5",
"E_	c #CB42E2",
"F_	c #7C189F",
"G_	c #79199E",
"H_	c #8518AD",
"I_	c #651286",
"J_	c #1C1F1B",
"K_	c #372D29",
"L_	c #38302C",
"M_	c #3D3830",
"N_	c #3C3637",
"O_	c #36383A",
"P_	c #252A2D",
"Q_	c #0A0B08",
"R_	c #373333",
"S_	c #403937",
"T_	c #3D3936",
"U_	c #3D3B3E",
"V_	c #383938",
"W_	c #393B3A",
"X_	c #383738",
"Y_	c #333133",
"Z_	c #433F41",
"`_	c #423D3D",
" :	c #433F39",
".:	c #413C35",
"+:	c #3F3A36",
"@:	c #313131",
"#:	c #464444",
"$:	c #3B3836",
"%:	c #0E0F0D",
"&:	c #1A1514",
"*:	c #131111",
"=:	c #131211",
"-:	c #313130",
";:	c #1F1D1D",
">:	c #404950",
",:	c #444B50",
"':	c #4D1765",
"):	c #851AA9",
"!:	c #611182",
"~:	c #621184",
"{:	c #661289",
"]:	c #660F8A",
"^:	c #9C21C9",
"/:	c #9B1FC8",
"(:	c #9C20C7",
"_:	c #9A1EC5",
"::	c #981EC3",
"<:	c #981DC3",
"[:	c #971CC1",
"}:	c #D441ED",
"|:	c #A228C2",
"1:	c #7C18A0",
"2:	c #8119A5",
"3:	c #4D1966",
"4:	c #212423",
"5:	c #322E2C",
"6:	c #342E29",
"7:	c #2D2523",
"8:	c #382F2A",
"9:	c #332A25",
"0:	c #383331",
"a:	c #272B2D",
"b:	c #10120F",
"c:	c #38322F",
"d:	c #3B3330",
"e:	c #383634",
"f:	c #373635",
"g:	c #3E3D3E",
"h:	c #373636",
"i:	c #454143",
"j:	c #3F3832",
"k:	c #413831",
"l:	c #3F3834",
"m:	c #393735",
"n:	c #383A39",
"o:	c #454242",
"p:	c #3A3533",
"q:	c #13120E",
"r:	c #121012",
"s:	c #0F0E10",
"t:	c #171414",
"u:	c #323232",
"v:	c #343434",
"w:	c #485257",
"x:	c #464E54",
"y:	c #331541",
"z:	c #7F16A3",
"A:	c #621085",
"B:	c #6C1191",
"C:	c #6B1091",
"D:	c #901DBA",
"E:	c #A021CC",
"F:	c #A121CC",
"G:	c #9B1FC4",
"H:	c #971DBF",
"I:	c #D642ED",
"J:	c #8618AD",
"K:	c #7A17A0",
"L:	c #891AAF",
"M:	c #7C1AA1",
"N:	c #3D4345",
"O:	c #33302B",
"P:	c #36302A",
"Q:	c #302826",
"R:	c #2A1F1E",
"S:	c #382D27",
"T:	c #423C35",
"U:	c #40413E",
"V:	c #323634",
"W:	c #161712",
"X:	c #3A2F2B",
"Y:	c #3F322E",
"Z:	c #373533",
"`:	c #383C3A",
" <	c #333636",
".<	c #343535",
"+<	c #383836",
"@<	c #383734",
"#<	c #392C28",
"$<	c #3B2B28",
"%<	c #382E2B",
"&<	c #413D3A",
"*<	c #403A3A",
"=<	c #393331",
"-<	c #181713",
";<	c #231C1A",
"><	c #121010",
",<	c #1D1917",
"'<	c #30312F",
")<	c #2B3130",
"!<	c #202220",
"~<	c #4B5559",
"{<	c #4B5157",
"]<	c #2A1437",
"^<	c #7A149F",
"/<	c #7B16A0",
"(<	c #711294",
"_<	c #711397",
":<	c #69108C",
"<<	c #7C16A3",
"[<	c #AD2BD8",
"}<	c #A625D2",
"|<	c #A322CE",
"1<	c #A022CB",
"2<	c #9E21C7",
"3<	c #9E22C4",
"4<	c #CF3BE7",
"5<	c #8317A8",
"6<	c #75159B",
"7<	c #851BAC",
"8<	c #7B1C9F",
"9<	c #5B5A5C",
"0<	c #191D1A",
"a<	c #2C2A25",
"b<	c #28241F",
"c<	c #1E1917",
"d<	c #1B1516",
"e<	c #2D231F",
"f<	c #423B36",
"g<	c #484643",
"h<	c #373836",
"i<	c #131613",
"j<	c #3A2D2B",
"k<	c #433632",
"l<	c #3E3A37",
"m<	c #363635",
"n<	c #333736",
"o<	c #313433",
"p<	c #353634",
"q<	c #393A37",
"r<	c #4D4A49",
"s<	c #3C3634",
"t<	c #392F2D",
"u<	c #3B2F2D",
"v<	c #3D3332",
"w<	c #413E3B",
"x<	c #41413F",
"y<	c #3E3C3A",
"z<	c #3F3A39",
"A<	c #131513",
"B<	c #241C1A",
"C<	c #2C221F",
"D<	c #1D1714",
"E<	c #241F1B",
"F<	c #2B2A2B",
"G<	c #181C1B",
"H<	c #3E4B51",
"I<	c #444C52",
"J<	c #3C3D41",
"K<	c #35393A",
"L<	c #4F1267",
"M<	c #8417AA",
"N<	c #741298",
"O<	c #7A14A1",
"P<	c #79159F",
"Q<	c #78159E",
"R<	c #AA29D4",
"S<	c #AA27D6",
"T<	c #A323CD",
"U<	c #A223CA",
"V<	c #B72ED7",
"W<	c #D339E9",
"X<	c #77159D",
"Y<	c #77169C",
"Z<	c #851CA9",
"`<	c #6A2087",
" [	c #414343",
".[	c #1B1A19",
"+[	c #1D1A1A",
"@[	c #1A1618",
"#[	c #2E2724",
"$[	c #433C38",
"%[	c #434040",
"&[	c #313232",
"*[	c #121412",
"=[	c #3F322F",
"-[	c #443530",
";[	c #3F3835",
">[	c #353332",
",[	c #39393B",
"'[	c #3B3A3C",
")[	c #343534",
"![	c #474242",
"~[	c #403B3A",
"{[	c #433834",
"][	c #443A35",
"^[	c #3D332F",
"/[	c #453834",
"([	c #3C2E2C",
"_[	c #3C2E2D",
":[	c #383130",
"<[	c #0F1514",
"[[	c #2E231F",
"}[	c #3D2D26",
"|[	c #3B2D26",
"1[	c #2A1F1C",
"2[	c #231D1A",
"3[	c #373633",
"4[	c #2A2828",
"5[	c #181D1C",
"6[	c #3A484D",
"7[	c #3F474C",
"8[	c #4D1464",
"9[	c #8816AE",
"0[	c #77139D",
"a[	c #7A13A1",
"b[	c #8618AE",
"c[	c #711295",
"d[	c #AD2CD8",
"e[	c #B22CDA",
"f[	c #A422CE",
"g[	c #A424CD",
"h[	c #A323CC",
"i[	c #C032DE",
"j[	c #D53BE8",
"k[	c #74149A",
"l[	c #78169D",
"m[	c #881BA9",
"n[	c #4C4B50",
"o[	c #1F211F",
"p[	c #1B1B1B",
"q[	c #1A1A1A",
"r[	c #21201E",
"s[	c #231E1E",
"t[	c #392F2A",
"u[	c #444141",
"v[	c #2B2C2D",
"w[	c #131311",
"x[	c #453833",
"y[	c #483933",
"z[	c #3F3633",
"A[	c #393939",
"B[	c #353637",
"C[	c #3A3C3B",
"D[	c #474041",
"E[	c #443E3D",
"F[	c #413A35",
"G[	c #423029",
"H[	c #463128",
"I[	c #442D26",
"J[	c #412D25",
"K[	c #412D27",
"L[	c #372C29",
"M[	c #0D1514",
"N[	c #352A25",
"O[	c #433128",
"P[	c #382820",
"Q[	c #2B201C",
"R[	c #302D2B",
"S[	c #222727",
"T[	c #415053",
"U[	c #3E464B",
"V[	c #3B393C",
"W[	c #473556",
"X[	c #77179A",
"Y[	c #9C1FC3",
"Z[	c #941ABF",
"`[	c #931BBD",
" }	c #77149D",
".}	c #A327CE",
"+}	c #B42FDA",
"@}	c #B52DD9",
"#}	c #AC29D2",
"$}	c #A523CD",
"%}	c #C035DF",
"&}	c #D643EA",
"*}	c #7D18A1",
"=}	c #7C179E",
"-}	c #8A1AA9",
";}	c #404342",
">}	c #1E1F1B",
",}	c #1E1D1B",
"'}	c #1B1816",
")}	c #221818",
"!}	c #342821",
"~}	c #48403B",
"{}	c #434144",
"]}	c #453A37",
"^}	c #493F3B",
"/}	c #413B3A",
"(}	c #3E3C3B",
"_}	c #3E3F3F",
":}	c #363738",
"<}	c #393A3A",
"[}	c #353739",
"}}	c #433D3F",
"|}	c #45423E",
"1}	c #402F28",
"2}	c #413028",
"3}	c #43342B",
"4}	c #42352C",
"5}	c #3F3029",
"6}	c #45352D",
"7}	c #3D3230",
"8}	c #111818",
"9}	c #362924",
"0}	c #46332A",
"a}	c #3F2F27",
"b}	c #2D221C",
"c}	c #262625",
"d}	c #221F1F",
"e}	c #2B2F30",
"f}	c #49565A",
"g}	c #41484D",
"h}	c #424243",
"i}	c #383639",
"j}	c #591675",
"k}	c #8E1CB3",
"l}	c #9F21C7",
"m}	c #A326CC",
"n}	c #9F22C8",
"o}	c #8B1FAF",
"p}	c #BF34DE",
"q}	c #C439DE",
"r}	c #BE34DC",
"s}	c #A928CF",
"t}	c #AE2BD5",
"u}	c #D649EA",
"v}	c #8018A1",
"w}	c #7C179B",
"x}	c #671382",
"y}	c #3D3F3E",
"z}	c #383B3B",
"A}	c #1A1B18",
"B}	c #201F1E",
"C}	c #282420",
"D}	c #2A1E1A",
"E}	c #463F3D",
"F}	c #433F42",
"G}	c #34302F",
"H}	c #3A3333",
"I}	c #383535",
"J}	c #383939",
"K}	c #363638",
"L}	c #373A3A",
"M}	c #4A4848",
"N}	c #4A4B49",
"O}	c #454642",
"P}	c #3D2F2B",
"Q}	c #423730",
"R}	c #3D322C",
"S}	c #453B39",
"T}	c #151A1A",
"U}	c #2E211D",
"V}	c #442F27",
"W}	c #46352C",
"X}	c #332721",
"Y}	c #27201C",
"Z}	c #332F2B",
"`}	c #2C3030",
" |	c #4D595D",
".|	c #484F53",
"+|	c #3F3F42",
"@|	c #383A3B",
"#|	c #353638",
"$|	c #761F98",
"%|	c #941EBE",
"&|	c #A324CB",
"*|	c #9D20C5",
"=|	c #8921A7",
"-|	c #E54AF3",
";|	c #E54FF1",
">|	c #B431D3",
",|	c #AE2DD1",
"'|	c #D84BEC",
")|	c #A928C8",
"!|	c #9F23C0",
"~|	c #3E264D",
"{|	c #818481",
"]|	c #1A1B17",
"^|	c #282A2B",
"/|	c #373937",
"(|	c #373631",
"_|	c #4C4C4B",
":|	c #4D4B4C",
"<|	c #151512",
"[|	c #2A2B2C",
"}|	c #3A3735",
"||	c #393836",
"1|	c #373639",
"2|	c #38383A",
"3|	c #4F4A4A",
"4|	c #484445",
"5|	c #3D3939",
"6|	c #3B3331",
"7|	c #3A312E",
"8|	c #362E2C",
"9|	c #3F3431",
"0|	c #3E3631",
"a|	c #3D3732",
"b|	c #433A37",
"c|	c #403939",
"d|	c #121310",
"e|	c #2E221F",
"f|	c #565658",
"g|	c #535556",
"h|	c #271D19",
"i|	c #241C18",
"j|	c #2C2421",
"k|	c #231D1F",
"l|	c #1B1718",
"m|	c #292E2D",
"n|	c #474E53",
"o|	c #3C3C3F",
"p|	c #363939",
"q|	c #343537",
"r|	c #463D4D",
"s|	c #781A9E",
"t|	c #951FBF",
"u|	c #A123C8",
"v|	c #9A23BF",
"w|	c #A129C0",
"x|	c #BC3AD3",
"y|	c #E459F0",
"z|	c #F369F9",
"A|	c #F46EF9",
"B|	c #D952EB",
"C|	c #B236CF",
"D|	c #811AA1",
"E|	c #342740",
"F|	c #454749",
"G|	c #1B1D19",
"H|	c #292D2D",
"I|	c #343334",
"J|	c #414242",
"K|	c #303336",
"L|	c #343739",
"M|	c #403F3D",
"N|	c #3B3A39",
"O|	c #3C3D3D",
"P|	c #37383B",
"Q|	c #443E3E",
"R|	c #423D3C",
"S|	c #3E3836",
"T|	c #403936",
"U|	c #343232",
"V|	c #353333",
"W|	c #353537",
"X|	c #121818",
"Y|	c #332927",
"Z|	c #4B4E50",
"`|	c #2E2120",
" 1	c #211B1C",
".1	c #1E1A1A",
"+1	c #282323",
"@1	c #2A2829",
"#1	c #252C2C",
"$1	c #47545A",
"%1	c #393C3F",
"&1	c #373A3B",
"*1	c #38393B",
"=1	c #7F7D7E",
"-1	c #3E3547",
";1	c #7F1DA6",
">1	c #9022B8",
",1	c #9820BD",
"'1	c #B52FCF",
")1	c #EB5AF7",
"!1	c #E14EF2",
"~1	c #E75CF5",
"{1	c #F874FB",
"]1	c #AE31CB",
"^1	c #931EB7",
"/1	c #5D2378",
"(1	c #424647",
"_1	c #383F42",
":1	c #181B18",
"<1	c #2C2F2F",
"[1	c #3E413F",
"}1	c #3C3E3B",
"|1	c #404242",
"11	c #44484B",
"21	c #363837",
"31	c #191A18",
"41	c #35383A",
"51	c #333738",
"61	c #333537",
"71	c #393435",
"81	c #393434",
"91	c #3D3835",
"01	c #3E3935",
"a1	c #3A3736",
"b1	c #3D3E3C",
"c1	c #424242",
"d1	c #323235",
"e1	c #131717",
"f1	c #322825",
"g1	c #2D221F",
"h1	c #211D1D",
"i1	c #211C1B",
"j1	c #30302D",
"k1	c #252C2D",
"l1	c #4B5A5F",
"m1	c #444D53",
"n1	c #36393C",
"o1	c #38393C",
"p1	c #8C8B88",
"q1	c #757472",
"r1	c #3E1854",
"s1	c #7E1DA2",
"t1	c #9221B6",
"u1	c #A428C4",
"v1	c #E960F4",
"w1	c #E150F2",
"x1	c #E458F3",
"y1	c #D454E3",
"z1	c #A728C8",
"A1	c #821AA3",
"B1	c #352C41",
"C1	c #3A3F42",
"D1	c #343A3C",
"E1	c #333A3D",
"F1	c #1B1C1B",
"G1	c #3F3F3D",
"H1	c #3F403C",
"I1	c #444846",
"J1	c #41474A",
"K1	c #42464A",
"L1	c #343637",
"M1	c #3A3C3F",
"N1	c #3A3B3C",
"O1	c #36373A",
"P1	c #37383A",
"Q1	c #363739",
"R1	c #3B3838",
"S1	c #3D3B3A",
"T1	c #3F3B3A",
"U1	c #3D3D3B",
"V1	c #3D3B3B",
"W1	c #393839",
"X1	c #191B18",
"Y1	c #28201D",
"Z1	c #322623",
"`1	c #2E2420",
" 2	c #241D1A",
".2	c #211B1A",
"+2	c #2B2421",
"@2	c #302F29",
"#2	c #222322",
"$2	c #282E30",
"%2	c #4F5D63",
"&2	c #4A5258",
"*2	c #3A3A3C",
"=2	c #3C3C3D",
"-2	c #8A8B84",
";2	c #651B83",
">2	c #8B22AE",
",2	c #921FB6",
"'2	c #ED70F3",
")2	c #F06DF7",
"!2	c #DD56EE",
"~2	c #B93DD2",
"{2	c #9C21BE",
"]2	c #6E3088",
"^2	c #3E4245",
"/2	c #3B4143",
"(2	c #191A16",
"_2	c #30302F",
":2	c #363533",
"<2	c #3C3B38",
"[2	c #3B3D40",
"}2	c #2E2C2C",
"|2	c #1D1C17",
"12	c #373737",
"22	c #383B3C",
"32	c #414141",
"42	c #3F4244",
"52	c #3C3C3E",
"62	c #1B1D1A",
"72	c #322724",
"82	c #332A26",
"92	c #27211E",
"02	c #241F1C",
"a2	c #2B2825",
"b2	c #1F1E1F",
"c2	c #262A2C",
"d2	c #48545A",
"e2	c #464E51",
"f2	c #3C3C3C",
"g2	c #39194B",
"h2	c #701E8F",
"i2	c #9021B6",
"j2	c #E26AEB",
"k2	c #F376F8",
"l2	c #DD58EE",
"m2	c #B63ECE",
"n2	c #8F1DAF",
"o2	c #373332",
"p2	c #3C4243",
"q2	c #181916",
"r2	c #282726",
"s2	c #32302F",
"t2	c #353231",
"u2	c #3A3737",
"v2	c #313031",
"w2	c #3D4044",
"x2	c #3E3C3E",
"y2	c #3F4144",
"z2	c #434445",
"A2	c #454746",
"B2	c #393A3D",
"C2	c #191A19",
"D2	c #302724",
"E2	c #3A2C28",
"F2	c #2C231F",
"G2	c #2A211B",
"H2	c #2B2522",
"I2	c #1E1C1E",
"J2	c #252729",
"K2	c #444B4F",
"L2	c #383739",
"M2	c #373D40",
"N2	c #202427",
"O2	c #4D1B64",
"P2	c #7C1E9C",
"Q2	c #AA33C7",
"R2	c #F273F6",
"S2	c #DF5EEF",
"T2	c #A433BE",
"U2	c #63157A",
"V2	c #363536",
"W2	c #313639",
"X2	c #2A2727",
"Y2	c #2D2829",
"Z2	c #393635",
"`2	c #404141",
" 3	c #292B2C",
".3	c #1F1E1D",
"+3	c #363535",
"@3	c #383638",
"#3	c #343437",
"$3	c #333236",
"%3	c #424549",
"&3	c #43474B",
"*3	c #454949",
"=3	c #41464A",
"-3	c #3C4144",
";3	c #434748",
">3	c #474A4D",
",3	c #3E4145",
"'3	c #291F1C",
")3	c #3D2D27",
"!3	c #3D2F29",
"~3	c #3B2E27",
"{3	c #3A2E25",
"]3	c #272B2B",
"^3	c #454B50",
"/3	c #353737",
"(3	c #373837",
"_3	c #3C4044",
":3	c #23272A",
"<3	c #747479",
"[3	c #5B1873",
"}3	c #9A26BA",
"|3	c #E169E9",
"13	c #DC5BEC",
"23	c #972AB3",
"33	c #291034",
"43	c #343433",
"53	c #33373A",
"63	c #2C2F31",
"73	c #272A2D",
"83	c #191919",
"93	c #222120",
"03	c #282A2D",
"a3	c #1C1C1C",
"b3	c #333336",
"c3	c #3E3F3E",
"d3	c #313537",
"e3	c #323338",
"f3	c #44494C",
"g3	c #464B4B",
"h3	c #454648",
"i3	c #464A4C",
"j3	c #434749",
"k3	c #42484B",
"l3	c #43484C",
"m3	c #3A4044",
"n3	c #1A1C1D",
"o3	c #2D2220",
"p3	c #392925",
"q3	c #372B29",
"r3	c #322624",
"s3	c #2F241D",
"t3	c #221B17",
"u3	c #1E1F1F",
"v3	c #1A1A1C",
"w3	c #252727",
"x3	c #343536",
"y3	c #373739",
"z3	c #3F4347",
"A3	c #25292D",
"B3	c #7F7F82",
"C3	c #4F415C",
"D3	c #6F1A86",
"E3	c #CA50D9",
"F3	c #CC52DC",
"G3	c #721E88",
"H3	c #656365",
"I3	c #2F2B2C",
"J3	c #2C2A2B",
"K3	c #2E2D2F",
"L3	c #2E2F31",
"M3	c #2D3030",
"N3	c #1E1D1A",
"O3	c #21201F",
"P3	c #41403D",
"Q3	c #40403F",
"R3	c #2D2F32",
"S3	c #363639",
"T3	c #414142",
"U3	c #333536",
"V3	c #323136",
"W3	c #42454A",
"X3	c #464647",
"Y3	c #444546",
"Z3	c #404244",
"`3	c #3D4042",
" 4	c #36383C",
".4	c #322523",
"+4	c #2A2122",
"@4	c #261D1F",
"#4	c #28231F",
"$4	c #222224",
"%4	c #3B434B",
"&4	c #202526",
"*4	c #232829",
"=4	c #422755",
"-4	c #8D2AA1",
";4	c #B138C5",
">4	c #370949",
",4	c #2C2827",
"'4	c #2F2929",
")4	c #3B3D3C",
"!4	c #1C1D17",
"~4	c #2A2A28",
"{4	c #3C3B39",
"]4	c #474B4D",
"^4	c #484C4E",
"/4	c #3C3C40",
"(4	c #303032",
"_4	c #2F2D30",
":4	c #2C2B2F",
"<4	c #44474C",
"[4	c #484C4F",
"}4	c #454A4A",
"|4	c #424241",
"14	c #444343",
"24	c #3F3F40",
"34	c #2B2322",
"44	c #211A1B",
"54	c #281F1C",
"64	c #2A2521",
"74	c #161717",
"84	c #222425",
"94	c #3F484F",
"04	c #3A3A39",
"a4	c #383B3F",
"b4	c #1F2325",
"c4	c #0B0C0D",
"d4	c #2A2E30",
"e4	c #35393D",
"f4	c #581C6F",
"g4	c #691183",
"h4	c #2C2826",
"i4	c #2D2928",
"j4	c #3B4141",
"k4	c #3A3D3C",
"l4	c #302E2E",
"m4	c #3B3B3A",
"n4	c #373537",
"o4	c #484B4D",
"p4	c #474D4F",
"q4	c #1F1E1E",
"r4	c #414041",
"s4	c #363538",
"t4	c #302F31",
"u4	c #505558",
"v4	c #4C5152",
"w4	c #3F4141",
"x4	c #494949",
"y4	c #4C4B4C",
"z4	c #2D211E",
"A4	c #2D2422",
"B4	c #29201B",
"C4	c #26201D",
"D4	c #1C1B1B",
"E4	c #1B1F20",
"F4	c #394247",
"G4	c #3F454A",
"H4	c #262A2D",
"I4	c #0F100F",
"J4	c #383F3F",
"K4	c #454C4E",
"L4	c #646963",
"M4	c #292626",
"N4	c #231F1F",
"O4	c #2D2A29",
"P4	c #3F4445",
"Q4	c #1F1E1A",
"R4	c #393936",
"S4	c #363333",
"T4	c #4C4F4F",
"U4	c #4B4F52",
"V4	c #1D1C1C",
"W4	c #464645",
"X4	c #3F3E3E",
"Y4	c #4F5253",
"Z4	c #474B4C",
"`4	c #3E4043",
" 5	c #39383B",
".5	c #2F3137",
"+5	c #35373A",
"@5	c #1B1D1D",
"#5	c #241E1D",
"$5	c #2A2220",
"%5	c #2B2422",
"&5	c #251F1E",
"*5	c #211D1A",
"=5	c #1C2021",
"-5	c #353D41",
";5	c #333333",
">5	c #4A555B",
",5	c #2D3538",
"'5	c #0D0E0E",
")5	c #353A3D",
"!5	c #42484D",
"~5	c #242121",
"{5	c #2B2829",
"]5	c #1D1F1B",
"^5	c #282829",
"/5	c #312F31",
"(5	c #353433",
"_5	c #383436",
":5	c #4E4F4E",
"<5	c #4C4E50",
"[5	c #353334",
"}5	c #343233",
"|5	c #312F30",
"15	c #353434",
"25	c #38383B",
"35	c #3E403F",
"45	c #333437",
"55	c #393C3C",
"65	c #343738",
"75	c #171718",
"85	c #231E1D",
"95	c #292321",
"05	c #26221F",
"a5	c #231F1D",
"b5	c #1E1B18",
"c5	c #1F1C18",
"d5	c #22211E",
"e5	c #242526",
"f5	c #2B2F32",
"g5	c #2D2D2F",
"h5	c #353633",
"i5	c #3E454A",
"j5	c #23282B",
"k5	c #0B0C0C",
"l5	c #303235",
"m5	c #3A3D40",
"n5	c #2A292A",
"o5	c #1E1D1C",
"p5	c #23211F",
"q5	c #272524",
"r5	c #333234",
"s5	c #333235",
"t5	c #2C2B2E",
"u5	c #262728",
"v5	c #363431",
"w5	c #303132",
"x5	c #1D1E1D",
"y5	c #333535",
"z5	c #323131",
"A5	c #323231",
"B5	c #2D2C2D",
"C5	c #353437",
"D5	c #343336",
"E5	c #2E2E2E",
"F5	c #2B2B2C",
"G5	c #282627",
"H5	c #232324",
"I5	c #191714",
"J5	c #1B1A18",
"K5	c #1B1A1C",
"L5	c #181A1A",
"M5	c #222221",
"N5	c #242422",
"O5	c #262523",
"P5	c #262425",
"Q5	c #212122",
"R5	c #1A1B1A",
"S5	c #1D1D1E",
"T5	c #22201E",
"U5	c #211F20",
"V5	c #252423",
"W5	c #292725",
"X5	c #2E2A2B",
"Y5	c #2D2B2B",
"Z5	c #1E1E1E",
"`5	c #181819",
" 6	c #222323",
".6	c #242123",
"+6	c #252324",
"@6	c #262525",
"#6	c #232223",
"$6	c #222222",
"%6	c #18191A",
"&6	c #161919",
"*6	c #151816",
"=6	c #141615",
"-6	c #151616",
";6	c #171515",
">6	c #161614",
",6	c #171717",
"'6	c #161716",
")6	c #171817",
"!6	c #181716",
"~6	c #191B19",
"{6	c #141514",
"]6	c #151516",
"^6	c #141616",
"/6	c #141715",
"(6	c #151614",
"_6	c #151415",
":6	c #151517",
"<6	c #161619",
"[6	c #171819",
"}6	c #1F1D1E",
"|6	c #242224",
"16	c #262524",
"26	c #232122",
"36	c #232021",
"46	c #221F20",
"56	c #201F1F",
"66	c #20211F",
"76	c #1F201F",
"  . + @ # $ % & * = - ; > , ' ) ! ~ { ] ^ / ( _ : < [ } | 1 2 3 3 4 1 5 } 6 7 8 9 ( / 0 a b c d e f , g h i j k l % $ # @ + .   ",
"m n o p q r s t u v w x y z A B C D E F G H I J K L M N O P Q R R Q S T U V W X Y Z H `  ...+.@.#.$.%.&.*.=.v u t -.;.q p > n m ",
">.,.'.).!.~.{.].^./.(._.:.<.[.}.|.1.2.3.4.5.6.7.M 8.9.O 0.a.b.c.c.b.d.e.f.g.h.i.j.k.5.l.m.n.o.p.q.r.s.t.u.v./.w.x.y.z.A.B.C.D.>.",
"E.F.G.H.I.J.K.L.M.N.O.P.Q.R.!.S.T.U.E V.W.X.Y.Z.`.T. +.+++@+#+$+$+#+%+&+*+=+-+;+>+,+X.'+)+!+~+{+]+^+/+(+_+:+N.M.F.z.<+[+}+|+1+E.",
"2+3+4+5+6+7+8+9+0+a+b+c+d+e+f+g+h+i+j+k+l+m+n+o+p+q+p+r+s+t+u+$+$+u+v+w+x+y+z+A+B+C+m+D+E+F+G+H+I+f+e+J+K+d a+L+M+N+O+P+Q+R+S+2+",
"T+U+V+W+X+Y+Z+`+ @.@+@@@#@$@%@&@*@=@-@;@>@,@'@)@)@q+!@~@{@]@^@/@/@^@(@_@:@<@[@}@|@1@,@2@3@4@5@6@7@8@9@0@a@b@c@d@e@f@g@h@i@j@k@T+",
"l@m@n@o@p@q@r@s@9+J t@u@v@w@x@y@z@A@j@B@C@D@E@F@9.z G@H@I@J@K@L@L@M@N@O@P@Q@R@S@T@U@D@V@W@X@Y@Z@y@`@ #.#+#@###$#%#&#*#=#-#;#>#l@",
",#'#)#9+!#~#{#]#^#$@/#(#_#:#<#[#}#|#1#2#3#4#5#6#0.7#8#H@++9#0#a#b#c#d#e#f#g#h#i#j#k#4#l#m#n#o#p#[#q#r#s#P.t#u#v#w#x#y#z#A#B#C#,#",
"D#E#)#F#G#H#L.I#J#K#g+L#M#N#O#P#p+Q#R#S#T#U#V#W#0.X#Y#Z#`# $.$+$@$#$$$%$&$*$=$-$;$>$,$'$)$!$~${$]$^$/$($_$:$K#<$[$}$<$|$1$2$3$D#",
"4$5$6$7$8$9$0$a$b$c$d$e$f$g$h$i$j$k$l$m$n$o$p$q$W#o+O r$s$t$u$v$w$x$y$z$A$B$C$D$E$F$G$H$I$J$K$L$M$N$O$P$Q$R$S$T$U$V$Q$W$X$Y$5$Z$",
"/.`$ %.%+%@%#%$%%%&%*%=%-%;%>%,%'%)%!%~%{%]%^%/%r$D..+H@h$(%_%:%<%[%}%|%1%2%3%4%5%]@6%7%8%9%0%a%b%c%;%d%N$e%f%g%h%i%j%k%l%m%n%/.",
"o%p%q%r%s%^.t%u%P v%w%x%y%z%A%B%C%D%E%F%G%H%I%J%7.K%9.L%M%N%O%P%Q%R%S%T%U%V%W%B%X%Y%Z%`% &.&+&@&#&$&%&&&c%*&=&-&;&>&,&'&)&!&l$~&",
"{&]&^&/&G.(&M%_&:&<&,.[&}&|&1&2&3&4&5&6&7&8&9&0&Z.v#a&b&c&d&e&f&g&h&i&j&k&l&m&n&o&p&8&q&r&s&t&u&v&w&x&y&z&A&B&C&D&E&F&G&/&H&I&J&",
"K&L&G@G@M&N&O&P&Q&R&S&T&U&V&W&X&Y&Z&`& *.*+*@*#*(&a&$*u%%*&***=*-*;*>*,*'*)*!*~*{*]*^*/*(*_*:*<*[*}*|*1*2*3*4*5*6*7*8*9*0*a*b*c*",
"d*e*f*K%@%X#@*g*h*i*j*T&k*l*/#m*n*o*p*q*r*s*t*u*Y#@%[.v*w*x*y*z*A*B*C*D*E*F*G*H*I*J*s*K*L*M*N*O*P*Q*R*S*T*U*V*W*X*Y*Z*`* =.=+=@=",
"#=$=%=L.'.Y#M&++&=*===-=;=>=,='=)=!=1$~={=]=^=/=7#p%(=_=:=<=[=[=}=|=1=2=3=4=5=6=7=8=]=9=0=a=b=c=d=X*e=f=g=h=i=j=k=l=m=V*n=o=p=q=",
"r=s=t=u=v=w=x=y=j@w%9#z=A=B=C=D=E=F=G=H=I=J=K=L=Y#M=N=O=P=Q=R=S=T=U=V=W=X=Y=Z=`= -.-J=T*+-@-w&Q*#-$-%-a=&-*-=---@&;->-,-w&R*'-)-",
"!-~-{-]-^-/-(-_-:-v%<-[-}-|-1-2-3-4-5-&&6-7-8-*%'.9-0-a-b-c-d-e-f-g-h-i-X=j-k-l-m-n-o-6-p-q-r-s-t-u-v-w-&-x-y-z-A-B-$&C-D-u&V*E-",
"F-G-H-I-J- &K-L-M-N-J#-=O-P-Q-R-S-u.T$@@T-U-V-W-X-Y-Z-`- ;.;+;e-@;#;$;%;&;*;=;-;;;>;,;';);!;~;{;];f=^;/;(;_;:;<;[;}; &J-|;s-1;2;",
":+3;a.#*4;5;L&6;X%7;8;-=;=9;E 0;a;b;c;d;e;f;g;h;i;j;k;l;m;n;o;.;p;q;r;s;t;u;v;w;x;y;z;A;B;C;D;E;F;G;H;I;J;K;L;$&M;H=N;u&O;P;Q;:+",
"R;S;T;U;V;W;X;w#Y;Z;`;-= >.>+>@>#>$>%>&>*>=>->;>>>,>'>)>!>~>{>]>^>/>(>_>:><>[>}>|>1>2>3>4>5>6>7>8>{;9>0>N;a>Z;b>V$c>W;w&d>e>f>g>",
"h>i>j>k>(-l>s%m>n>o>p>q>r>s>$>t>u>v>w>u.x>D@y>z>A>B>C>D>E>F>G>H>I>J>_>:>K>K>L>M>N>O>P>Q>R>S>T>U>q-V>W>X>Y>M;Z>`> ,.,n#+,@,j>#,.,",
"$,7.l>%,9-&,*,=,-,;,I.>,H=B@5-u>,,',),f%!,~,{,],^,/,(,_,:,<,[,},|,1,2,3,4,5,6,7,8,9,0,a,b,c,d,e,f,g,h,i,M$j,k,l,m,n,o,p,q,r,s,t,",
"$=I-i;u,v=v,w,x,y,8#o&>,z,A,B,C,D,E,A=F,G,H,I,J,K,L,M,N,O,P,Q,R,S,T,2=U,V,W,X,Y,Z,`, '.'+'@'#'$'9>%'&'*'0=='-';'>',''')'!'~'{']'",
"^'T;/'('M=U;_':'<'7#['J;}' ,N$|'1'2'3'4'5'6'7'8'9'0'a'a'b'c'd'e'f'g'h'i'j'k'l'm'n'o'p'q'r's't'u'v'w'x'y'z'A'B'C'D'E'F'G'H'x&I',-",
"J''.K'L'M'L'N'/'O'P'&=Q'{;R'S'T'U'.*V'W'X'Y'Z'`' ).)N,+)@)#)$)%)&)*)=)-);)>),)')))!)~){)])^)/)()_):)<)[)})|)1)2)3)4)5)M'6)7)8)u&",
"~.9)Z.y=0)a):'a)b)c)L%d)e)f)g)h)i)j)j)J;k)l)m)n)o)p)q)r)s)t)u)v)w)x)y)z)A)B)C)D)E)F)G)H)I)J)K)^$L)M)N)O)P)Q)R)S)T)U)V)W)X)Y)f>Z)",
"`)t@ !x#J t=x=.!m>+!@!d)#!$!q*%!H=&!2'*!=!-!;!>!,!L,'!)!!!~!{!]!^!/!(!_!:!<![!}!|!1!2!3!4!5!6!7!8!9!;#0!a!g%b!c!',1.d!e!f!0*g!f)",
"~.9)h!i!j!k!l!v,i;m!n!o!l#F&N$p!q!S$V.r!s!t!u!v!w!x!y!z!A!B!C!D!]!E!F!G!H!I!J!K!L!M!N!O!P!Q!R!S!T!U!V!C.W!X!Y!Z!`!;@ ~.~+~@~#~$~",
"%~&~*~=~-~;~>~=,=~,~'~)~!~~~C-{~J;]~^~I$/~(~_~:~<~[~}~|~1~2~3~4~F!5~6~^!7~:!8~9~0~a~b~c~d~e~f~g~h~i~N#j~k~l~m~n~o~p~q~r~s~t~u~v~",
"w~w,v,,~x~y~z~A~B~z~C~D~E~F~G~H~P$m%I~!$J~K~L~M~N~O~P~Q~R~S~T~U~^!V~W~X~Y~Z~`~ {.{+{@{#{${%{&{*{={-{Z%;{>{,{'{){!{~{{{]{^{/{({L=",
"_{d.:{t.<{[{}{|{1{[{2{3{4{5{6{{~4{7{8{9{0{a{b{c{d{e{f{g{h{i{j{k{l{m{V~6~n{o{p{q{r{s{t{u{v{w{x{y{z{A{B{C{D{E{F{G{H{I{J{K{V)L{M{N{",
"O{P{Q{R{S{T{U{V{W{X{Y{Z{`{ ].]+]@]#]c*$]%]&]*]=]=]-];]>],]'])]!]~]{]]]^]/](]_]:]<][]}]|]1]2]Y{3]4]5]Y#6]7]8]9]0]m*a]Z>b]c]d]e] >",
"f]g]}{h]:@i]j]k]l]m]n]o] =p]q]i)-=r]s]R$G t]u]v]w]x]y]z]A]B]C]D]E]F]G]H]I]J]K]L]M]N]O]P]Q]R]S]T]U]V]W]X]D{Y]Z]l]`] ^.^+^@^#^$^%^",
"&^*^=^-^;^>^,^'^)^!^~^{^]^^^4{/^(^_^Z!|':^<^1!w][^}^x]|^1^2^3^E]E]4^5^k{6^H]7^8^9^0^a^b^c^d^e^f^g^h^i^j^k^l^!^m^n^o^p^q^.@r^s^G.",
"t^u^v^w^x^y^R]u^z^A^B^C^D^E^E~F^G^H^I^J^K^W&L^P=M^N^O^P^Q^R^S^T^U^V^W^X^G]Y^K]Z^M]`^ /./+/@/#/$/%/&/*/=/-/;/A^z^v@>/,/'/)/!/^.J ",
"~/{/]/^///(/_/w+:/</[/}/|/1/~~2/3/N$8{4/5/m%2*6/7/8/V~U~9/0/a/T^E]b/U^c/d/e/f/g/h/i/j/k/l/m/n/o/p/q/r/s/t/u/v/w/x/g^y/z/W#z ^.@!",
"A/B/C/D/E/F/ #G/H/I/J/K/+&L/M/N/O/V>P/2*Q/R/S/T/U/V~V/W/X/Y/Z/`/ (U^.(+(@(#($(%(&(*(=(-(;(R'>(,('()(!(I&~({(](^(/(((_(:(D.0.`#K ",
"<([(}(|(1(2(3(4(5(6(7(8(9(0(a(b(c(d(e(f(C,g(h(i(j(k(l(m(n(o(p(q(r(s(t(u(v(w(x(y(z(A(B(C(D(E(F(0@G(H(A{Q.I(J(K(L(q/M(M(N(O(W#G@N ",
"P(Q(e.R(S(T(U(V(W(S{X(Y({$Z(`( _._X>+_@_#_$_%_&_*_=_=_-_;_>_,_'_A])_P]!_~_{_]_^_/_(___:_<_[_y~}_`+|_1_2_3_4_5_6_7_8_9_<'0_/%N a_",
"b_c_d_e_f_g_g^h_i_/-j_k_.]S*X>l_m_f%A{d]n_o_p_q_r_s_t_u_=_v_w_x_y_z_A_B_C_D_E_F_G_H_I_J_J+K_L_M_}_N_O_P_Q_R_S_T_x,U_V_W_)/> X_Y_",
"Z_`_ :.:+:8!^ @:p%#:$:%:)$&:*:`(=:A=Y#-:;:>:,:i>':):!:~:{:]:^:/:(:_:::<:[:}:|:1:2: /3:4:5:6:7:8:9:0:>=a:b:c:d:e:f:J g:^.o+j@h:;#",
"i:-~j:k:l:m:j+n:f@o:p:q:D^B-r:s:t:u:++v:l/w:x:u*y:z:A:i/B:C:D:E:F:E:b,G:H:I:J:K:L:M:N:4:O:P:Q:R:S:T:U:V:W:X:Y:p:Z:_(5;`: <.<+<@<",
"t^t.#<$<$<%<j_C~&<*<=<-<;<E-{~><,<'<)<!<!<~<{<!@]<^</<(<_<:<<<[<}<|<1<2<3<4<5<6<7<8<9<0<a<b<c<d<e<f<g<h<i<j<k<l<m<D.T;n<o<p<q<k>",
"r<s<t<u<v<w<x<y<l<z<,~A<B<C<t,D<E<+</%F<G<H<I<J<K<L<M<N<O<P<Q<R<S<T<T<U<V<W<X<Y<Z<`< [0<U'.[+[@[#[$[%[&[*[=[-[;[>[,['[>#)[M(V_p<",
"![~[d_{[h#][^[/[([_[:[<[[[}[|[1[2[3[:'4[5[6[7[A%v#8[9[0[a[b[c[d[e[f[g[h[i[j[k[l[m[n[W]o[p[q[r[s[t[T u[v[w[x[y[z[v,L A[> B[C[3+C.",
"D[E[F[w^G[H[I[J[K[D/L[M[N[O[P[Q[y&R[b*;(S[T[U[h;V[W[X[Y[Z[`[ }.}+}@}#}$}%}&}*}=}-};}K%>},}'}l#)}!}~}{}Q._^]}^}/}(}w#_}y=:}<}t@[}",
"}}u[|}j]1}2}3}4}5}6}7}8}9}0}a}b}!~a]c}d}e}f}g}h}l!i}j}k}l}m}n}o}p}q}r}s}t}u}v}w}x}y}z}A}B}C}P*D}(/E}F}{(i)G}H}]-I}1-K'J}K}x#Z.L}",
"M}N}O},^P}U(Q}R}t[x[S}T}U}V}W}X}Y}Z}V)@=`} |.|+|@|#|K}$|%|&|*|=|-|;|!)>|,|'|)|!|~|{|1_]|^|/|(|y-+%_|:|>#<|[|C#}|||A[A[1|2|<'<}>=",
"3|4|5|6|7|8|9|0|a|b|c|d|e|f|g|h|i|j|k|l|m| |n|o|p|q|1|r|s|t|u|v|w|x|y|z|A|B|C|D|E|F|N&G|H|L}J}I|J|g|f|C=d|K|L|V_M|N|h:J O|)/p|P|",
"Q|R|S|T|9+U|V|l>Q-i;W|X|Y|Z|`| 1.1+1@1,&#1$1!{%1&1T.*1=1-1;1>1,1'1)1!1~1{1]1^1/1(1%%_1:1<1W_[1}1|111Z|2131Q#p$0.%#n>V_W_D.415161",
"71819101^-a1b1c1L M(d1e1f15(g1h1i1K{j1T)k1l1m1%1n1'#o1p1q1r1s1t1u1v1w1x1y1z1A1B1C1D1E1F1-:G.G1H1I1J1K1d+(#L1o+M18#T;)/J}N1O1P1Q1",
"R1B h!S1T1S1U1u,U;V1W1X1Y1Z1`1 2.2+2@2#2$2%2&2A%@|*2=23+-2@#;2>2,2'2)2!2~2{2]2J%t#^2/2(2_2N|:2<28+[2U+}2|212J *122&1L-J}12K}9.*2",
"32M142J|A I-52f@D$9$G.62t,7282927*02a2b2c2d2e2/%K f2:'7.P1)%g2h2i2j2k2l2m2n2o2((O(J@p2q2r2s2t2u27_3+a&v2r[A{A[> @|9.9.L P1N1Z.K}",
"F|w2P %#x2A%y2z2A2z2B2C2D2E2R}F2G2H2;@I2J2q~K2O|j@L2@!`.R+M2N2O2P2Q2R2S2T2U2V2<}w/p+W2V$C,X2Y2Z2(}`2)@ 3.3l!y=+3y=X;0)@3#3Q1N($3",
"%3&3*37+%~w@=3-3;3>3,3d;'3)3!3~3{3+2A=3']38-^37./3(3M(#^#^_3:3<3[3}3|313233343#|53637383V$93z#a)X-t@A@03a3b32|r^J <}c3K 6-d3L1e3",
"&3f3g3h3s R.i3j3k3l3m3n3o3p3q3r3s3t3u3v3w3/{&%l!@!C=x3>#y3z3A3B3C3D3E3F3G3H3I3J3K3L3M3N3O3N{s2P3Q3h$/#R3q[|+S3w#T3^. [0_U3!%L1V3",
"#=W3$=^.4;X3Y3Z3M&`3 4n%L1.4+4@4'3#4; {%$4%4k$0_I-J j@x# !@*&4*4*4=4-4;4>4,4'4U)@>)4L}!4~4f:{4X-`#]4^4L1f%y32|X;^./4w%/%q/(4_4:4",
"<4[4}45;32|41424f@%#T;31L1N[34445464U'748494/#04C=5] !>=U!a4b4c4d4e4f4g4,4h4i4I|6-j4k4x%l4m4m4n4_}o4p4L1q4=2240)8.r4f@'[s4t4H{_#",
"u4v4v%2|=2*1 [w4x4y4@%V$!%z4A4~~B4C4D4_^E4F4b&N|9_A[ !<}*1G4H4I4J4K4G4L4M4N4O4r$M%P4O_Q4|.Q-R4S4('T4U4!%V4Q3W4X4L2C=04v*24y3v4u4",
"Y4Z4`4 5r$E%.5+5 [(1t#@5#5$5%5&5*5K;;:D4=5-5m@h:;5j@J}w4a.>5,5'5)5!5>5j@N{~5{5W-$,M%22]5^5/5(5_58+:5<5T.m$>=G.[5}5|5}$15L225O|Y4",
"<5I.@%`#35&145k455o+6575859505a5b5c5d5x/e5f5g5C h5h<r^`242i5j5k5l5m51#n5o5p5q5r5s5b3t583u5'<v5I}(}K.7+w5x5y5.<z5A5B5B5_2a_C5y3D5",
"9;(4}$E5F5<$G50*G5a*H5P.r]S$R$g)A'I5J5f%K5L5{%M5N5O5P5r2r2Q5R5|)v3S5a3p[83Z!,}T5U55-K5u.{%; V5W5V)X5Y5Z5`5@_ 6;@c};@.6+6!=O-@6#6",
" ~ ~e!$6Z5S5&!q4a3q[%6&6*6=6-6W);6>6i),674-6'6)6!6W)'6'6P.,6~6C2_^{6/^]6-6^6/6(6_^_6:6<6[6n%U'O3O3U5}6,&6& ~D+|616P5263646566676"};
