/* XPM */
static char * de_dos_xpm[] = {
"64 64 2984 2",
"  	c #60676D",
". 	c #595E64",
"+ 	c #5A5E63",
"@ 	c #5B5F63",
"# 	c #595E61",
"$ 	c #53585D",
"% 	c #585E61",
"& 	c #575C60",
"* 	c #5A6064",
"= 	c #52585E",
"- 	c #4A5055",
"; 	c #212221",
"> 	c #373839",
", 	c #474C4F",
"' 	c #505658",
") 	c #4D5456",
"! 	c #4A5053",
"~ 	c #494E50",
"{ 	c #434647",
"] 	c #232121",
"^ 	c #2E3132",
"/ 	c #51585D",
"( 	c #54595C",
"_ 	c #4E5052",
": 	c #4A4C4C",
"< 	c #47484B",
"[ 	c #4B4C4E",
"} 	c #525355",
"| 	c #4E5154",
"1 	c #505457",
"2 	c #2E3030",
"3 	c #1A1C1B",
"4 	c #5D666B",
"5 	c #5A6167",
"6 	c #545858",
"7 	c #555452",
"8 	c #4E4B4A",
"9 	c #4A4547",
"0 	c #544F4C",
"a 	c #5B514A",
"b 	c #655953",
"c 	c #5A4E4D",
"d 	c #514947",
"e 	c #2B2722",
"f 	c #5B453A",
"g 	c #70584E",
"h 	c #6E5F5A",
"i 	c #6F6661",
"j 	c #696562",
"k 	c #666362",
"l 	c #5A5556",
"m 	c #3F3A3A",
"n 	c #1B1B17",
"o 	c #545D60",
"p 	c #5F666B",
"q 	c #5E6366",
"r 	c #585D5E",
"s 	c #4B4E52",
"t 	c #4E5051",
"u 	c #4A4C4D",
"v 	c #424446",
"w 	c #3F4044",
"x 	c #43474B",
"y 	c #494A50",
"z 	c #5B6066",
"A 	c #4C4F52",
"B 	c #4B4D4E",
"C 	c #505252",
"D 	c #515354",
"E 	c #4A4D4F",
"F 	c #47484A",
"G 	c #4B4C4D",
"H 	c #4A4A4C",
"I 	c #494C50",
"J 	c #3B3F44",
"K 	c #1B1D1C",
"L 	c #2F3231",
"M 	c #3C3E41",
"N 	c #3F3F3F",
"O 	c #363435",
"P 	c #313030",
"Q 	c #363534",
"R 	c #303131",
"S 	c #1E1C1B",
"T 	c #303334",
"U 	c #4F5960",
"V 	c #464B4D",
"W 	c #3B3A3B",
"X 	c #3A3B3B",
"Y 	c #3A3A3B",
"Z 	c #3C3D3C",
"` 	c #3A3C3C",
" .	c #3C3E3E",
"..	c #404345",
"+.	c #242727",
"@.	c #5B656A",
"#.	c #5D6468",
"$.	c #4E4C4B",
"%.	c #4E4641",
"&.	c #51463E",
"*.	c #4A3C37",
"=.	c #503F39",
"-.	c #574339",
";.	c #5B463D",
">.	c #5B4C47",
",.	c #4F4743",
"'.	c #272522",
").	c #4B3328",
"!.	c #5D3E31",
"~.	c #5D4338",
"{.	c #58443A",
"].	c #4D3C37",
"^.	c #594D48",
"/.	c #544A47",
"(.	c #363130",
"_.	c #4A5054",
":.	c #53565B",
"<.	c #55575A",
"[.	c #555758",
"}.	c #454748",
"|.	c #454444",
"1.	c #3E3C3E",
"2.	c #363538",
"3.	c #424445",
"4.	c #45484C",
"5.	c #575E62",
"6.	c #484B4C",
"7.	c #3E3E3F",
"8.	c #414143",
"9.	c #464849",
"0.	c #434345",
"a.	c #434444",
"b.	c #464745",
"c.	c #3E3F40",
"d.	c #424647",
"e.	c #353A3C",
"f.	c #131414",
"g.	c #282B2E",
"h.	c #404144",
"i.	c #424342",
"j.	c #333231",
"k.	c #2C2B2A",
"l.	c #302F2E",
"m.	c #262729",
"n.	c #1A1919",
"o.	c #303637",
"p.	c #505C63",
"q.	c #464B4F",
"r.	c #3B3B3C",
"s.	c #393A3B",
"t.	c #3A3C3D",
"u.	c #3B3E3F",
"v.	c #404448",
"w.	c #252729",
"x.	c #17191A",
"y.	c #59636A",
"z.	c #585F67",
"A.	c #403B3C",
"B.	c #463A34",
"C.	c #504034",
"D.	c #4C3A30",
"E.	c #534138",
"F.	c #544036",
"G.	c #4A3530",
"H.	c #534440",
"I.	c #494440",
"J.	c #1A1C1C",
"K.	c #37231B",
"L.	c #543729",
"M.	c #553A2D",
"N.	c #472F27",
"O.	c #473129",
"P.	c #4C3932",
"Q.	c #51433E",
"R.	c #3B3432",
"S.	c #181718",
"T.	c #44474F",
"U.	c #505258",
"V.	c #4F5154",
"W.	c #505253",
"X.	c #505050",
"Y.	c #494848",
"Z.	c #39373A",
"`.	c #323034",
" +	c #333436",
".+	c #3B3D3E",
"++	c #414245",
"@+	c #53595F",
"#+	c #434446",
"$+	c #3D3D3D",
"%+	c #3E3E41",
"&+	c #424447",
"*+	c #3E3E42",
"=+	c #424041",
"-+	c #424141",
";+	c #414442",
">+	c #35393B",
",+	c #161616",
"'+	c #2D2F30",
")+	c #474A4C",
"!+	c #393A3E",
"~+	c #37393B",
"{+	c #3E3F3C",
"]+	c #1C1B1C",
"^+	c #2A3033",
"/+	c #4C5960",
"(+	c #464C4F",
"_+	c #3B3C3C",
":+	c #383A3A",
"<+	c #383C3C",
"[+	c #3B3E3E",
"}+	c #3C4041",
"|+	c #414549",
"1+	c #242628",
"2+	c #141617",
"3+	c #525C64",
"4+	c #515962",
"5+	c #3F3938",
"6+	c #41352E",
"7+	c #43342A",
"8+	c #412E25",
"9+	c #483831",
"0+	c #524239",
"a+	c #4B3D36",
"b+	c #504441",
"c+	c #4A4644",
"d+	c #1C1E1B",
"e+	c #2B1A13",
"f+	c #41281D",
"g+	c #462D23",
"h+	c #3B251E",
"i+	c #433027",
"j+	c #4C3931",
"k+	c #4C3C36",
"l+	c #322927",
"m+	c #181818",
"n+	c #4A4F54",
"o+	c #5D5F63",
"p+	c #555759",
"q+	c #454142",
"r+	c #363136",
"s+	c #313033",
"t+	c #2F3033",
"u+	c #343539",
"v+	c #3A3B3E",
"w+	c #4E545A",
"x+	c #3D3E3F",
"y+	c #3B3C39",
"z+	c #404241",
"A+	c #444649",
"B+	c #454546",
"C+	c #42413F",
"D+	c #3D3937",
"E+	c #363233",
"F+	c #383838",
"G+	c #303437",
"H+	c #1A191A",
"I+	c #333435",
"J+	c #4A4F50",
"K+	c #4B5152",
"L+	c #43494C",
"M+	c #3F4648",
"N+	c #424745",
"O+	c #353837",
"P+	c #1D1D1F",
"Q+	c #2A3234",
"R+	c #4B5960",
"S+	c #444C4F",
"T+	c #393B3D",
"U+	c #373B3C",
"V+	c #373B3D",
"W+	c #3A3E3E",
"X+	c #3D4141",
"Y+	c #45484B",
"Z+	c #292A2B",
"`+	c #161819",
" @	c #535B62",
".@	c #443F3C",
"+@	c #3F342E",
"@@	c #3D2E28",
"#@	c #3F302B",
"$@	c #483E38",
"%@	c #504840",
"&@	c #4F4643",
"*@	c #534E4D",
"=@	c #4E4B4D",
"-@	c #222223",
";@	c #30221B",
">@	c #3C281E",
",@	c #3F2C23",
"'@	c #362421",
")@	c #342420",
"!@	c #42322B",
"~@	c #41322D",
"{@	c #2D2624",
"]@	c #191A1A",
"^@	c #585C5E",
"/@	c #4E4F52",
"(@	c #454548",
"_@	c #474647",
":@	c #413D3F",
"<@	c #3C393A",
"[@	c #3B3A3A",
"}@	c #353738",
"|@	c #343639",
"1@	c #36363A",
"2@	c #4A4F58",
"3@	c #3B3C3E",
"4@	c #3F3F3B",
"5@	c #3F3E3C",
"6@	c #414140",
"7@	c #484743",
"8@	c #43403C",
"9@	c #3D3935",
"0@	c #373030",
"a@	c #373435",
"b@	c #313436",
"c@	c #181717",
"d@	c #343635",
"e@	c #474C4E",
"f@	c #454E50",
"g@	c #434B4F",
"h@	c #3F4649",
"i@	c #3F4342",
"j@	c #3F4241",
"k@	c #252424",
"l@	c #2C3335",
"m@	c #4D5B62",
"n@	c #424B4F",
"o@	c #383C3D",
"p@	c #3B3E40",
"q@	c #3E4143",
"r@	c #3D4243",
"s@	c #46494B",
"t@	c #2A2C2C",
"u@	c #151818",
"v@	c #545D63",
"w@	c #5A6166",
"x@	c #453E3A",
"y@	c #3E322B",
"z@	c #3E3029",
"A@	c #41332C",
"B@	c #463B37",
"C@	c #47403B",
"D@	c #4B4543",
"E@	c #524F4F",
"F@	c #494749",
"G@	c #1C1C1B",
"H@	c #31241B",
"I@	c #3D2A20",
"J@	c #38261E",
"K@	c #35241E",
"L@	c #362823",
"M@	c #3E302A",
"N@	c #463833",
"O@	c #322C29",
"P@	c #151716",
"Q@	c #41484A",
"R@	c #515355",
"S@	c #4C4B4F",
"T@	c #434344",
"U@	c #404040",
"V@	c #403D3E",
"W@	c #3D393B",
"X@	c #3C3C39",
"Y@	c #363637",
"Z@	c #323337",
"`@	c #313236",
" #	c #4B5158",
".#	c #3A3C3E",
"+#	c #3B3C38",
"@#	c #3E3B38",
"##	c #413E3D",
"$#	c #48433F",
"%#	c #3C3434",
"&#	c #403A37",
"*#	c #3A3B3D",
"=#	c #1A1A16",
"-#	c #2F3131",
";#	c #43474A",
">#	c #3E4648",
",#	c #495354",
"'#	c #464E4F",
")#	c #35383B",
"!#	c #252223",
"~#	c #323A3A",
"{#	c #4F5D62",
"]#	c #414C4F",
"^#	c #373D3E",
"/#	c #3E4141",
"(#	c #3F4243",
"_#	c #3C4141",
":#	c #424648",
"<#	c #26292A",
"[#	c #161818",
"}#	c #5A6266",
"|#	c #5F6569",
"1#	c #423732",
"2#	c #433329",
"3#	c #443128",
"4#	c #402D28",
"5#	c #463935",
"6#	c #48403C",
"7#	c #4B4544",
"8#	c #4B4747",
"9#	c #434143",
"0#	c #1D1A18",
"a#	c #241914",
"b#	c #2F201A",
"c#	c #271B17",
"d#	c #2E211E",
"e#	c #3B2F29",
"f#	c #352A24",
"g#	c #42362F",
"h#	c #342E2A",
"i#	c #181918",
"j#	c #3C4043",
"k#	c #464749",
"l#	c #414144",
"m#	c #434343",
"n#	c #404240",
"o#	c #393638",
"p#	c #353233",
"q#	c #343332",
"r#	c #343333",
"s#	c #353536",
"t#	c #353435",
"u#	c #4B535A",
"v#	c #393B3F",
"w#	c #393736",
"x#	c #433C3A",
"y#	c #453E3B",
"z#	c #403A39",
"A#	c #424240",
"B#	c #424645",
"C#	c #3D4144",
"D#	c #191916",
"E#	c #2D2D2E",
"F#	c #3E4044",
"G#	c #43484D",
"H#	c #464F50",
"I#	c #434849",
"J#	c #323538",
"K#	c #323335",
"L#	c #252323",
"M#	c #303738",
"N#	c #4B5A5E",
"O#	c #404A4C",
"P#	c #363A3C",
"Q#	c #3D3F41",
"R#	c #3F4041",
"S#	c #5DA5A4",
"T#	c #34B1AB",
"U#	c #23B0AA",
"V#	c #24B1AB",
"W#	c #24B3AC",
"X#	c #24B4AE",
"Y#	c #3CB1AB",
"Z#	c #5A938E",
"`#	c #463630",
" $	c #443935",
".$	c #48403F",
"+$	c #494343",
"@$	c #463F42",
"#$	c #423E41",
"$$	c #1E1A18",
"%$	c #1C1514",
"&$	c #211918",
"*$	c #1E1717",
"=$	c #231B1A",
"-$	c #2D2420",
";$	c #2E2621",
">$	c #372E27",
",$	c #292320",
"'$	c #393C3E",
")$	c #3B3D3F",
"!$	c #393A3C",
"~$	c #3D3E3E",
"{$	c #383839",
"]$	c #302E30",
"^$	c #2F2D2F",
"/$	c #323030",
"($	c #2F2E2F",
"_$	c #302F30",
":$	c #2C2B2D",
"<$	c #54595F",
"[$	c #3A3B3F",
"}$	c #373131",
"|$	c #403938",
"1$	c #46413E",
"2$	c #3C4143",
"3$	c #3D4548",
"4$	c #495154",
"5$	c #1D1C19",
"6$	c #2F2E2E",
"7$	c #3B3B3F",
"8$	c #45494B",
"9$	c #373B3B",
"0$	c #343837",
"a$	c #21211F",
"b$	c #2D3132",
"c$	c #3B4449",
"d$	c #3C4344",
"e$	c #3C3F40",
"f$	c #3C3E40",
"g$	c #3D3F40",
"h$	c #3F4140",
"i$	c #369395",
"j$	c #328C8D",
"k$	c #28B2AB",
"l$	c #27B7B0",
"m$	c #26B5AE",
"n$	c #26B4AE",
"o$	c #27B4B0",
"p$	c #28B2AE",
"q$	c #35807E",
"r$	c #358684",
"s$	c #476D6D",
"t$	c #4C4541",
"u$	c #494442",
"v$	c #464042",
"w$	c #464243",
"x$	c #221C19",
"y$	c #1A1413",
"z$	c #141010",
"A$	c #151113",
"B$	c #211C1D",
"C$	c #261F1D",
"D$	c #221B19",
"E$	c #211A19",
"F$	c #1B1617",
"G$	c #121112",
"H$	c #2C2D2F",
"I$	c #2E2E30",
"J$	c #29282A",
"K$	c #2C2C2E",
"L$	c #2E2D2E",
"M$	c #2A292B",
"N$	c #2C2B2B",
"O$	c #262427",
"P$	c #222023",
"Q$	c #201E20",
"R$	c #4F5359",
"S$	c #424143",
"T$	c #3A3837",
"U$	c #3E3A35",
"V$	c #433D39",
"W$	c #403E3E",
"X$	c #434648",
"Y$	c #414648",
"Z$	c #404649",
"`$	c #444A4E",
" %	c #414447",
".%	c #1F1D1A",
"+%	c #2B2A2A",
"@%	c #404142",
"#%	c #414445",
"$%	c #444A4A",
"%%	c #3E4546",
"&%	c #3A4043",
"*%	c #2B2E31",
"=%	c #1F1F1E",
"-%	c #1F2022",
";%	c #33383C",
">%	c #383C3E",
",%	c #393C3D",
"'%	c #515757",
")%	c #48585A",
"!%	c #41716F",
"~%	c #2F7774",
"{%	c #25A29D",
"]%	c #27A5A1",
"^%	c #27A19E",
"/%	c #299F9C",
"(%	c #28A09C",
"_%	c #26A5A1",
":%	c #346B6A",
"<%	c #3E7776",
"[%	c #455B5C",
"}%	c #434F51",
"|%	c #464847",
"1%	c #4C4C4D",
"2%	c #474446",
"3%	c #1B1713",
"4%	c #141110",
"5%	c #120E10",
"6%	c #161215",
"7%	c #1B1717",
"8%	c #171412",
"9%	c #171415",
"0%	c #181414",
"a%	c #171314",
"b%	c #131213",
"c%	c #191717",
"d%	c #1A1918",
"e%	c #1D1D1D",
"f%	c #1E1E1C",
"g%	c #181817",
"h%	c #161618",
"i%	c #191819",
"j%	c #161515",
"k%	c #110F10",
"l%	c #110F11",
"m%	c #484747",
"n%	c #3D3B38",
"o%	c #3C3835",
"p%	c #3F3B39",
"q%	c #3D3E40",
"r%	c #434848",
"s%	c #434949",
"t%	c #414649",
"u%	c #404549",
"v%	c #3A3D41",
"w%	c #1C1B18",
"x%	c #2A2B2B",
"y%	c #3F4142",
"z%	c #454A49",
"A%	c #444B49",
"B%	c #394041",
"C%	c #383D40",
"D%	c #323436",
"E%	c #212120",
"F%	c #1C1C1D",
"G%	c #303338",
"H%	c #34363A",
"I%	c #3B3C3D",
"J%	c #3E4040",
"K%	c #5B5D5B",
"L%	c #3E4644",
"M%	c #495455",
"N%	c #436563",
"O%	c #30726F",
"P%	c #279894",
"Q%	c #328686",
"R%	c #338180",
"S%	c #337F7D",
"T%	c #327F7D",
"U%	c #259D99",
"V%	c #336867",
"W%	c #3E7674",
"X%	c #475A5B",
"Y%	c #404849",
"Z%	c #58595A",
"`%	c #404044",
" &	c #171411",
".&	c #110E0D",
"+&	c #161213",
"@&	c #171213",
"#&	c #1C1714",
"$&	c #1A1716",
"%&	c #141213",
"&&	c #141013",
"*&	c #191517",
"=&	c #1E1B1B",
"-&	c #1E1D1D",
";&	c #18181A",
">&	c #141414",
",&	c #10100F",
"'&	c #111010",
")&	c #0E0E0F",
"!&	c #121211",
"~&	c #171616",
"{&	c #1A1B1B",
"]&	c #151415",
"^&	c #46484D",
"/&	c #3D3D3E",
"(&	c #3A3634",
"_&	c #373432",
":&	c #3C3B3A",
"<&	c #3E4242",
"[&	c #424545",
"}&	c #414546",
"|&	c #414345",
"1&	c #1E1E19",
"2&	c #2C2B2C",
"3&	c #3B3C40",
"4&	c #3B3C3F",
"5&	c #3B3F41",
"6&	c #32383A",
"7&	c #383E3F",
"8&	c #36393B",
"9&	c #1B191D",
"0&	c #202222",
"a&	c #383F41",
"b&	c #3B3F40",
"c&	c #3F403F",
"d&	c #373938",
"e&	c #393C3B",
"f&	c #434E4D",
"g&	c #445958",
"h&	c #305557",
"i&	c #1E8181",
"j&	c #426361",
"k&	c #465F5E",
"l&	c #446260",
"m&	c #299592",
"n&	c #365656",
"o&	c #405F5E",
"p&	c #425151",
"q&	c #3B4042",
"r&	c #353737",
"s&	c #393B40",
"t&	c #151412",
"u&	c #161210",
"v&	c #1C1512",
"w&	c #1D1615",
"x&	c #1C1413",
"y&	c #1A1516",
"z&	c #171313",
"A&	c #1D1919",
"B&	c #1B1719",
"C&	c #2E2A2A",
"D&	c #2E2B2B",
"E&	c #272324",
"F&	c #221E1D",
"G&	c #1C1A1A",
"H&	c #1E1E1F",
"I&	c #232629",
"J&	c #293032",
"K&	c #272C2F",
"L&	c #222225",
"M&	c #45454A",
"N&	c #39383C",
"O&	c #393837",
"P&	c #3C3C3B",
"Q&	c #3B3D3D",
"R&	c #3E4243",
"S&	c #424646",
"T&	c #404445",
"U&	c #464A4B",
"V&	c #1C1C17",
"W&	c #2C2C2C",
"X&	c #3F4043",
"Y&	c #3E3F43",
"Z&	c #323236",
"`&	c #2F3334",
" *	c #373C3A",
".*	c #363A3A",
"+*	c #202020",
"@*	c #262828",
"#*	c #3E4647",
"$*	c #3B4041",
"%*	c #3F413F",
"&*	c #484847",
"**	c #393A3A",
"=*	c #414A4A",
"-*	c #445656",
";*	c #3A5355",
">*	c #316A6B",
",*	c #435C5D",
"'*	c #465B5C",
")*	c #475C5D",
"!*	c #465D5C",
"~*	c #357472",
"{*	c #3B4E4F",
"]*	c #435857",
"^*	c #414C4C",
"/*	c #414242",
"(*	c #38393F",
"_*	c #111211",
":*	c #17100F",
"<*	c #201614",
"[*	c #1B1311",
"}*	c #1E1614",
"|*	c #261D1C",
"1*	c #1D1614",
"2*	c #201815",
"3*	c #241E1C",
"4*	c #1C1A18",
"5*	c #2A2221",
"6*	c #251C1C",
"7*	c #211818",
"8*	c #2B231F",
"9*	c #221C1B",
"0*	c #241F1F",
"a*	c #2C2D2E",
"b*	c #343A3A",
"c*	c #2D3234",
"d*	c #26282C",
"e*	c #1F1F22",
"f*	c #47494D",
"g*	c #3E4042",
"h*	c #3E4142",
"i*	c #3C4142",
"j*	c #3F4446",
"k*	c #43494B",
"l*	c #454A4D",
"m*	c #484C50",
"n*	c #45474A",
"o*	c #1D1B17",
"p*	c #2D2D2B",
"q*	c #3D3F42",
"r*	c #3D4043",
"s*	c #2E2F32",
"t*	c #282929",
"u*	c #313331",
"v*	c #333432",
"w*	c #1B1918",
"x*	c #262929",
"y*	c #393F43",
"z*	c #393D40",
"A*	c #3E4041",
"B*	c #373A3B",
"C*	c #3B4748",
"D*	c #394D4E",
"E*	c #3C4E4F",
"F*	c #3B4F4F",
"G*	c #3C5051",
"H*	c #3C5152",
"I*	c #3D4F50",
"J*	c #3D4D4C",
"K*	c #3C4A4A",
"L*	c #3B4645",
"M*	c #383939",
"N*	c #404041",
"O*	c #424343",
"P*	c #5E5F5E",
"Q*	c #131110",
"R*	c #120C0E",
"S*	c #1E1515",
"T*	c #1D1514",
"U*	c #261C18",
"V*	c #2B221F",
"W*	c #1F1716",
"X*	c #241B1A",
"Y*	c #27201E",
"Z*	c #1B1819",
"`*	c #251C1F",
" =	c #201716",
".=	c #1D1413",
"+=	c #231A1A",
"@=	c #201A18",
"#=	c #191312",
"$=	c #24201E",
"%=	c #2B2B2A",
"&=	c #282728",
"*=	c #2A2928",
"==	c #211F1F",
"-=	c #3F4246",
";=	c #414346",
">=	c #3C3D3F",
",=	c #3D4245",
"'=	c #454B4E",
")=	c #45494D",
"!=	c #414244",
"~=	c #262726",
"{=	c #37393C",
"]=	c #2E3033",
"^=	c #292829",
"/=	c #2B292B",
"(=	c #272528",
"_=	c #1A1717",
":=	c #2E3233",
"<=	c #485458",
"[=	c #5E5E5D",
"}=	c #2F2F30",
"|=	c #333739",
"1=	c #38494A",
"2=	c #3C5859",
"3=	c #3D5E5F",
"4=	c #3E6361",
"5=	c #405C5B",
"6=	c #3F5D5A",
"7=	c #3F5D5B",
"8=	c #3F5E5B",
"9=	c #3F5D5C",
"0=	c #3F6260",
"a=	c #3F6563",
"b=	c #406161",
"c=	c #3A4F50",
"d=	c #323B3E",
"e=	c #302F31",
"f=	c #363537",
"g=	c #3D3C3D",
"h=	c #150F11",
"i=	c #191012",
"j=	c #1F1416",
"k=	c #291D19",
"l=	c #271D1A",
"m=	c #221816",
"n=	c #211816",
"o=	c #1F1918",
"p=	c #161514",
"q=	c #1D1817",
"r=	c #261E1A",
"s=	c #2C2420",
"t=	c #251A19",
"u=	c #241916",
"v=	c #1F1613",
"w=	c #221916",
"x=	c #201B1A",
"y=	c #211E1E",
"z=	c #282623",
"A=	c #211E1D",
"B=	c #45484D",
"C=	c #424547",
"D=	c #434644",
"E=	c #3B3F42",
"F=	c #414448",
"G=	c #3C3F42",
"H=	c #181714",
"I=	c #292A29",
"J=	c #38393A",
"K=	c #3B3E3D",
"L=	c #313332",
"M=	c #262626",
"N=	c #272526",
"O=	c #1B1818",
"P=	c #2A3132",
"Q=	c #4F5E64",
"R=	c #242323",
"S=	c #2E3434",
"T=	c #323D3D",
"U=	c #364244",
"V=	c #373B3E",
"W=	c #463836",
"X=	c #453834",
"Y=	c #4F3830",
"Z=	c #56382E",
"`=	c #53362D",
" -	c #51362C",
".-	c #50352C",
"+-	c #51362D",
"@-	c #54382F",
"#-	c #483834",
"$-	c #49413E",
"%-	c #494240",
"&-	c #364042",
"*-	c #354547",
"=-	c #354143",
"--	c #2A282A",
";-	c #565557",
">-	c #171212",
",-	c #181012",
"'-	c #271B19",
")-	c #241A18",
"!-	c #211717",
"~-	c #1C1516",
"{-	c #141314",
"]-	c #1D1B19",
"^-	c #2D2520",
"/-	c #372E2A",
"(-	c #271C1B",
"_-	c #251817",
":-	c #281D1B",
"<-	c #201918",
"[-	c #201919",
"}-	c #28211F",
"|-	c #201B19",
"1-	c #45464A",
"2-	c #3E3D3F",
"3-	c #3E3E3D",
"4-	c #403D3C",
"5-	c #3D3A39",
"6-	c #3F3E3B",
"7-	c #3E3D3C",
"8-	c #3A3A3A",
"9-	c #404346",
"0-	c #171714",
"a-	c #282828",
"b-	c #373838",
"c-	c #393938",
"d-	c #353533",
"e-	c #2B2928",
"f-	c #2B282A",
"g-	c #2F2E2D",
"h-	c #1C1A19",
"i-	c #2D3435",
"j-	c #4E5D64",
"k-	c #48565B",
"l-	c #282C2E",
"m-	c #2D2D2D",
"n-	c #332B2B",
"o-	c #2E2828",
"p-	c #292324",
"q-	c #272021",
"r-	c #211F20",
"s-	c #191B1E",
"t-	c #1A1C1F",
"u-	c #1A1B1F",
"v-	c #1D1D20",
"w-	c #222123",
"x-	c #262325",
"y-	c #272525",
"z-	c #2F2727",
"A-	c #302929",
"B-	c #1E2125",
"C-	c #525353",
"D-	c #0E0E0D",
"E-	c #151110",
"F-	c #1C1314",
"G-	c #1A1112",
"H-	c #191110",
"I-	c #1D1A1D",
"J-	c #302B2C",
"K-	c #39312E",
"L-	c #372F2B",
"M-	c #191112",
"N-	c #1D1616",
"O-	c #201817",
"P-	c #2E2521",
"Q-	c #251F1D",
"R-	c #424145",
"S-	c #3E3B3C",
"T-	c #403C3B",
"U-	c #3E3938",
"V-	c #3D3736",
"W-	c #403B39",
"X-	c #3C3938",
"Y-	c #363433",
"Z-	c #393A39",
"`-	c #404547",
" ;	c #191816",
".;	c #242527",
"+;	c #333335",
"@;	c #373637",
"#;	c #2E2C2E",
"$;	c #2E2C2A",
"%;	c #211E20",
"&;	c #201E1F",
"*;	c #52B0B3",
"=;	c #43A4A8",
"-;	c #48A2A7",
";;	c #2C787A",
">;	c #305957",
",;	c #2B4242",
"';	c #1F292B",
");	c #232122",
"!;	c #2C2322",
"~;	c #3E2821",
"{;	c #402922",
"];	c #452C24",
"^;	c #482D26",
"/;	c #472C25",
"(;	c #432B25",
"_;	c #3F2823",
":;	c #242022",
"<;	c #1A1E21",
"[;	c #232728",
"};	c #2C4140",
"|;	c #335453",
"1;	c #268389",
"2;	c #469395",
"3;	c #39A2A2",
"4;	c #2FABAA",
"5;	c #181313",
"6;	c #1E1615",
"7;	c #140E11",
"8;	c #151011",
"9;	c #1B1412",
"0;	c #181314",
"a;	c #332F2E",
"b;	c #38312E",
"c;	c #302825",
"d;	c #1F1816",
"e;	c #1D1717",
"f;	c #191414",
"g;	c #1B1514",
"h;	c #1E1817",
"i;	c #48494D",
"j;	c #424347",
"k;	c #424244",
"l;	c #3B3B3B",
"m;	c #3C3C3C",
"n;	c #414041",
"o;	c #3B3B3D",
"p;	c #363839",
"q;	c #3A4041",
"r;	c #434A4E",
"s;	c #252325",
"t;	c #302F32",
"u;	c #383737",
"v;	c #2B2929",
"w;	c #4FA6A6",
"x;	c #31A7A6",
"y;	c #226D6C",
"z;	c #306A6B",
"A;	c #437775",
"B;	c #476866",
"C;	c #476865",
"D;	c #456662",
"E;	c #426260",
"F;	c #41635E",
"G;	c #446762",
"H;	c #3D5A57",
"I;	c #395653",
"J;	c #3A5652",
"K;	c #3B5753",
"L;	c #3C5753",
"M;	c #3D5754",
"N;	c #3C5754",
"O;	c #3D5755",
"P;	c #426460",
"Q;	c #486D68",
"R;	c #47706A",
"S;	c #407171",
"T;	c #426F6F",
"U;	c #3F6966",
"V;	c #436A67",
"W;	c #3E7270",
"X;	c #3C807D",
"Y;	c #2E5D5A",
"Z;	c #48A29D",
"`;	c #231D1B",
" >	c #1E191A",
".>	c #131012",
"+>	c #23201D",
"@>	c #2B2523",
"#>	c #2F2623",
"$>	c #2A211E",
"%>	c #211C18",
"&>	c #17110F",
"*>	c #1D1612",
"=>	c #1E1716",
"->	c #171312",
";>	c #464A4F",
">>	c #3F4040",
",>	c #3F4343",
"'>	c #394044",
")>	c #3B434A",
"!>	c #3B4347",
"~>	c #303133",
"{>	c #4FB2B4",
"]>	c #439393",
"^>	c #465453",
"/>	c #436562",
"(>	c #426562",
"_>	c #304444",
":>	c #2B3233",
"<>	c #384F50",
"[>	c #405757",
"}>	c #425C5B",
"|>	c #415958",
"1>	c #405E5B",
"2>	c #3F625F",
"3>	c #48706A",
"4>	c #49716B",
"5>	c #466862",
"6>	c #466560",
"7>	c #45635F",
"8>	c #44625F",
"9>	c #44635E",
"0>	c #45625F",
"a>	c #466462",
"b>	c #476B67",
"c>	c #466965",
"d>	c #43605E",
"e>	c #445F5E",
"f>	c #475858",
"g>	c #495C5B",
"h>	c #485755",
"i>	c #435352",
"j>	c #2D3A3A",
"k>	c #272D2F",
"l>	c #3C5553",
"m>	c #3C6764",
"n>	c #3B5854",
"o>	c #3A9190",
"p>	c #1C1717",
"q>	c #161413",
"r>	c #1F1C19",
"s>	c #191412",
"t>	c #1E1B1A",
"u>	c #181413",
"v>	c #241C16",
"w>	c #201916",
"x>	c #231E1C",
"y>	c #1B1A19",
"z>	c #494D50",
"A>	c #444749",
"B>	c #3C3D3E",
"C>	c #3B3939",
"D>	c #3B3837",
"E>	c #393637",
"F>	c #3C3B3C",
"G>	c #3B3E41",
"H>	c #40464B",
"I>	c #40464A",
"J>	c #252525",
"K>	c #3E8E8D",
"L>	c #29898B",
"M>	c #396666",
"N>	c #404546",
"O>	c #404344",
"P>	c #4B4A49",
"Q>	c #342E2E",
"R>	c #18181B",
"S>	c #374242",
"T>	c #3B4647",
"U>	c #3C4749",
"V>	c #3E4A4B",
"W>	c #425E5A",
"X>	c #416561",
"Y>	c #3E5A57",
"Z>	c #405150",
"`>	c #40504F",
" ,	c #3F4E4D",
".,	c #3F4D4C",
"+,	c #3F4D4B",
"@,	c #3E4D4B",
"#,	c #404F4D",
"$,	c #3E504F",
"%,	c #41615E",
"&,	c #45615F",
"*,	c #445554",
"=,	c #414B49",
"-,	c #414A49",
";,	c #414847",
">,	c #3E4545",
",,	c #262728",
"',	c #2A2828",
"),	c #3B3C3A",
"!,	c #384344",
"~,	c #3A494A",
"{,	c #3F6464",
"],	c #2AA0A0",
"^,	c #3FA8A8",
"/,	c #1C1716",
"(,	c #141012",
"_,	c #161314",
":,	c #151514",
"<,	c #14100F",
"[,	c #251C19",
"},	c #2B211C",
"|,	c #2D2723",
"1,	c #24211F",
"2,	c #434549",
"3,	c #3E3E40",
"4,	c #3A3937",
"5,	c #3A3838",
"6,	c #3F3D3D",
"7,	c #3F3E40",
"8,	c #44474A",
"9,	c #414548",
"0,	c #171611",
"a,	c #242322",
"b,	c #495554",
"c,	c #384444",
"d,	c #3B494A",
"e,	c #443F3F",
"f,	c #483A37",
"g,	c #36302F",
"h,	c #191A1D",
"i,	c #19191C",
"j,	c #353D3E",
"k,	c #384C4F",
"l,	c #3E5558",
"m,	c #397B7B",
"n,	c #348989",
"o,	c #345D5F",
"p,	c #333637",
"q,	c #353839",
"r,	c #36393A",
"s,	c #36383A",
"t,	c #353739",
"u,	c #353E3E",
"v,	c #2B7E80",
"w,	c #328989",
"x,	c #3E6765",
"y,	c #3F4C4B",
"z,	c #3F4647",
"A,	c #383B3C",
"B,	c #222224",
"C,	c #342E2D",
"D,	c #433531",
"E,	c #403735",
"F,	c #384244",
"G,	c #3B4648",
"H,	c #415353",
"I,	c #3D5456",
"J,	c #526B6F",
"K,	c #221F1D",
"L,	c #242020",
"M,	c #201D1D",
"N,	c #231C1B",
"O,	c #241819",
"P,	c #302422",
"Q,	c #372A25",
"R,	c #312623",
"S,	c #424548",
"T,	c #3D3A38",
"U,	c #3B3737",
"V,	c #393636",
"W,	c #3E3A3A",
"X,	c #403C3C",
"Y,	c #3F3D3C",
"Z,	c #454446",
"`,	c #191815",
" '	c #39393A",
".'	c #363738",
"+'	c #2D2928",
"@'	c #1F1E21",
"#'	c #2D2C2E",
"$'	c #1C1C20",
"%'	c #2F3436",
"&'	c #2E6569",
"*'	c #298C8F",
"='	c #23969B",
"-'	c #298083",
";'	c #296D6F",
">'	c #363231",
",'	c #81422B",
"''	c #2E3031",
")'	c #393D3E",
"!'	c #683626",
"~'	c #713A29",
"{'	c #333A39",
"]'	c #2A8281",
"^'	c #27A1A1",
"/'	c #2F908D",
"('	c #249D9B",
"_'	c #2F3031",
":'	c #1D1C1E",
"<'	c #272628",
"['	c #232224",
"}'	c #2C2929",
"|'	c #3F3736",
"1'	c #2F2E30",
"2'	c #343334",
"3'	c #363737",
"4'	c #333334",
"5'	c #5D5D5E",
"6'	c #2F2C28",
"7'	c #2F2A26",
"8'	c #241D1C",
"9'	c #241D1D",
"0'	c #362D29",
"a'	c #3C312A",
"b'	c #322621",
"c'	c #352723",
"d'	c #312421",
"e'	c #322723",
"f'	c #29211E",
"g'	c #3C3A3B",
"h'	c #403E3C",
"i'	c #3C3939",
"j'	c #3F3C3D",
"k'	c #3F3D3B",
"l'	c #3A3B38",
"m'	c #404246",
"n'	c #1C1918",
"o'	c #23201F",
"p'	c #1F1B1B",
"q'	c #2B393B",
"r'	c #28282A",
"s'	c #242224",
"t'	c #2F2C2C",
"u'	c #222124",
"v'	c #393838",
"w'	c #262627",
"x'	c #252324",
"y'	c #393534",
"z'	c #2E5655",
"A'	c #303D3E",
"B'	c #334343",
"C'	c #333E3E",
"D'	c #3D3836",
"E'	c #7D4331",
"F'	c #31302F",
"G'	c #363939",
"H'	c #363837",
"I'	c #60362B",
"J'	c #6B3B2E",
"K'	c #2E3536",
"L'	c #3D4B4B",
"M'	c #354141",
"N'	c #2F5453",
"O'	c #304948",
"P'	c #342B29",
"Q'	c #1F1C1E",
"R'	c #393536",
"S'	c #2D2B2C",
"T'	c #252426",
"U'	c #272729",
"V'	c #252527",
"W'	c #555554",
"X'	c #141211",
"Y'	c #292624",
"Z'	c #2A2423",
"`'	c #261F1E",
" )	c #25201F",
".)	c #302B29",
"+)	c #2D2623",
"@)	c #2A201E",
"#)	c #332822",
"$)	c #2F241E",
"%)	c #2F231E",
"&)	c #271D1C",
"*)	c #3F4345",
"=)	c #3F3F3E",
"-)	c #3F3E3D",
";)	c #3E3B3B",
">)	c #3C3B3D",
",)	c #3B3F43",
"')	c #191615",
"))	c #2A7E81",
"!)	c #348688",
"~)	c #372A29",
"{)	c #292A2A",
"])	c #28292A",
"^)	c #363332",
"/)	c #212022",
"()	c #202123",
"_)	c #19191B",
":)	c #2E292A",
"<)	c #302D2E",
"[)	c #42312E",
"})	c #4B3734",
"|)	c #294A4D",
"1)	c #2F5756",
"2)	c #2A5151",
"3)	c #295252",
"4)	c #285050",
"5)	c #284E4D",
"6)	c #274E4E",
"7)	c #303535",
"8)	c #453837",
"9)	c #272B2C",
"0)	c #302D2C",
"a)	c #252122",
"b)	c #171518",
"c)	c #18171A",
"d)	c #1F1E20",
"e)	c #2E2D2F",
"f)	c #363739",
"g)	c #292B2E",
"h)	c #4C3936",
"i)	c #477D81",
"j)	c #379195",
"k)	c #446469",
"l)	c #181614",
"m)	c #211B18",
"n)	c #2B2420",
"o)	c #221E1A",
"p)	c #1E1C17",
"q)	c #1F1B19",
"r)	c #221E1C",
"s)	c #26201C",
"t)	c #1F1713",
"u)	c #424344",
"v)	c #3E3E3E",
"w)	c #3C3A39",
"x)	c #3D3C3C",
"y)	c #3D3E41",
"z)	c #414347",
"A)	c #131210",
"B)	c #191514",
"C)	c #1F1C1C",
"D)	c #354848",
"E)	c #2C2628",
"F)	c #373130",
"G)	c #2F2C2D",
"H)	c #222324",
"I)	c #17181A",
"J)	c #161417",
"K)	c #1B171A",
"L)	c #1A181B",
"M)	c #221E1F",
"N)	c #242122",
"O)	c #3B3636",
"P)	c #3E3939",
"Q)	c #323C3E",
"R)	c #303C3E",
"S)	c #2F3C3D",
"T)	c #2F3B3C",
"U)	c #2E3A3B",
"V)	c #2C383A",
"W)	c #2D393A",
"X)	c #1E1A1B",
"Y)	c #1B191B",
"Z)	c #141417",
"`)	c #161619",
" !	c #302C2B",
".!	c #3C3736",
"+!	c #392D2B",
"@!	c #2D4B4F",
"#!	c #616568",
"$!	c #141413",
"%!	c #181412",
"&!	c #1D1716",
"*!	c #201C1A",
"=!	c #1C1715",
"-!	c #1A1613",
";!	c #13110F",
">!	c #1A1411",
",!	c #211916",
"'!	c #1F1815",
")!	c #3C3B3B",
"!!	c #3D3D3C",
"~!	c #3F3F41",
"{!	c #454649",
"]!	c #3C3F41",
"^!	c #11110F",
"/!	c #1D1A19",
"(!	c #465457",
"_!	c #384A4E",
":!	c #2F363A",
"<!	c #292A2C",
"[!	c #2B2B2C",
"}!	c #352D2C",
"|!	c #2D2A2B",
"1!	c #202022",
"2!	c #141418",
"3!	c #191719",
"4!	c #262221",
"5!	c #201D1E",
"6!	c #151517",
"7!	c #262222",
"8!	c #292625",
"9!	c #2C2A2A",
"0!	c #2C2A29",
"a!	c #2A2827",
"b!	c #292828",
"c!	c #292727",
"d!	c #2A2727",
"e!	c #282526",
"f!	c #141519",
"g!	c #1E1C1D",
"h!	c #211D1F",
"i!	c #161517",
"j!	c #161719",
"k!	c #2D2A2A",
"l!	c #2D2E2F",
"m!	c #2A2E2F",
"n!	c #333E40",
"o!	c #304447",
"p!	c #365357",
"q!	c #6B797B",
"r!	c #121416",
"s!	c #141517",
"t!	c #232322",
"u!	c #171716",
"v!	c #1A1917",
"w!	c #292523",
"x!	c #211C1A",
"y!	c #3E3F41",
"z!	c #3D3B39",
"A!	c #424144",
"B!	c #3A393A",
"C!	c #4D5A5E",
"D!	c #314146",
"E!	c #323435",
"F!	c #54382C",
"G!	c #4E352C",
"H!	c #47332D",
"I!	c #29292B",
"J!	c #292729",
"K!	c #1F1F21",
"L!	c #16161A",
"M!	c #18191B",
"N!	c #1A1A1C",
"O!	c #1C1D1F",
"P!	c #1D1E20",
"Q!	c #1E1F21",
"R!	c #1C1E1F",
"S!	c #16191A",
"T!	c #141719",
"U!	c #111417",
"V!	c #141619",
"W!	c #141518",
"X!	c #1F2122",
"Y!	c #202223",
"Z!	c #212223",
"`!	c #191B1C",
" ~	c #171719",
".~	c #1B1A1C",
"+~	c #151719",
"@~	c #131517",
"#~	c #121417",
"$~	c #282A2B",
"%~	c #2F3233",
"&~	c #443933",
"*~	c #50392D",
"=~	c #3D312D",
"-~	c #24292B",
";~	c #273436",
">~	c #3A494C",
",~	c #1B1B1E",
"'~	c #242425",
")~	c #33302F",
"!~	c #232323",
"~~	c #222423",
"{~	c #2F2C2A",
"]~	c #252120",
"^~	c #383635",
"/~	c #3B3839",
"(~	c #3D3B3C",
"_~	c #3A393B",
":~	c #403D3F",
"<~	c #3A3839",
"[~	c #616D71",
"}~	c #28383C",
"|~	c #3D3535",
"1~	c #523731",
"2~	c #57392E",
"3~	c #43322B",
"4~	c #48332B",
"5~	c #4C3127",
"6~	c #1A1A1D",
"7~	c #151619",
"8~	c #151819",
"9~	c #282B2C",
"0~	c #2D2E30",
"a~	c #242626",
"b~	c #1D1E1F",
"c~	c #1B1D1F",
"d~	c #17181B",
"e~	c #1C1E20",
"f~	c #18191C",
"g~	c #1E1E20",
"h~	c #343435",
"i~	c #343434",
"j~	c #18191A",
"k~	c #181A1B",
"l~	c #151718",
"m~	c #141618",
"n~	c #191B1D",
"o~	c #1D1F20",
"p~	c #4B362D",
"q~	c #4A362F",
"r~	c #40312B",
"s~	c #44342D",
"t~	c #45322C",
"u~	c #332C2B",
"v~	c #252B2E",
"w~	c #436267",
"x~	c #1B1A1A",
"y~	c #212121",
"z~	c #242627",
"A~	c #2A2C2E",
"B~	c #2B2E2F",
"C~	c #2C2F30",
"D~	c #282A2C",
"E~	c #444446",
"F~	c #3D3B3D",
"G~	c #393738",
"H~	c #3C3838",
"I~	c #3C3837",
"J~	c #3C383A",
"K~	c #3D3837",
"L~	c #436C6B",
"M~	c #253738",
"N~	c #342928",
"O~	c #483430",
"P~	c #48322D",
"Q~	c #51342D",
"R~	c #42312D",
"S~	c #332726",
"T~	c #1D1A1C",
"U~	c #444547",
"V~	c #5C5D5E",
"W~	c #141F20",
"X~	c #0D7174",
"Y~	c #154C52",
"Z~	c #173941",
"`~	c #173034",
" {	c #1E1F1F",
".{	c #222323",
"+{	c #1F2123",
"@{	c #16181A",
"#{	c #193033",
"${	c #164B4B",
"%{	c #0F605E",
"&{	c #124C49",
"*{	c #172A28",
"={	c #3E3F3F",
"-{	c #595A5B",
";{	c #362926",
">{	c #3C2D29",
",{	c #46332D",
"'{	c #3D2E2B",
"){	c #432F29",
"!{	c #352A29",
"~{	c #25393E",
"{{	c #315E63",
"]{	c #38444F",
"^{	c #445159",
"/{	c #465259",
"({	c #445056",
"_{	c #4D5960",
":{	c #536169",
"<{	c #4C5C65",
"[{	c #4B5B64",
"}{	c #4B565D",
"|{	c #423F42",
"1{	c #3F3936",
"2{	c #3D3632",
"3{	c #3F3734",
"4{	c #413834",
"5{	c #3C342F",
"6{	c #607C82",
"7{	c #344A4C",
"8{	c #333E3F",
"9{	c #28292C",
"0{	c #2E2D30",
"a{	c #2D2B2E",
"b{	c #232427",
"c{	c #1B1D21",
"d{	c #292D30",
"e{	c #707072",
"f{	c #142527",
"g{	c #0D5055",
"h{	c #0A6B70",
"i{	c #114B4E",
"j{	c #19272A",
"k{	c #242526",
"l{	c #27282A",
"m{	c #232425",
"n{	c #252526",
"o{	c #1F2021",
"p{	c #115C59",
"q{	c #0F6E6B",
"r{	c #106463",
"s{	c #143434",
"t{	c #464747",
"u{	c #382C2D",
"v{	c #252628",
"w{	c #2E2829",
"x{	c #25272A",
"y{	c #343C3F",
"z{	c #3A4344",
"A{	c #36676A",
"B{	c #40484E",
"C{	c #3C4248",
"D{	c #3F4447",
"E{	c #4A5257",
"F{	c #434D53",
"G{	c #3E474E",
"H{	c #3D4347",
"I{	c #433D41",
"J{	c #3E3736",
"K{	c #3C3331",
"L{	c #3C322F",
"M{	c #3E332F",
"N{	c #40342F",
"O{	c #3A2F2A",
"P{	c #5C787B",
"Q{	c #36464A",
"R{	c #363B3C",
"S{	c #1E1E21",
"T{	c #232426",
"U{	c #262628",
"V{	c #1B1D20",
"W{	c #333538",
"X{	c #181416",
"Y{	c #2E3234",
"Z{	c #5F5F60",
"`{	c #1A1C1D",
" ]	c #1A1E1F",
".]	c #222425",
"+]	c #27292A",
"@]	c #28292B",
"#]	c #292B2D",
"$]	c #2B2C2E",
"%]	c #333638",
"&]	c #222326",
"*]	c #272A2B",
"=]	c #252626",
"-]	c #232526",
";]	c #3B3237",
">]	c #3E3437",
",]	c #343537",
"']	c #28282B",
")]	c #353535",
"!]	c #3A3B3A",
"~]	c #3C7172",
"{]	c #303030",
"]]	c #282321",
"^]	c #2D2823",
"/]	c #292422",
"(]	c #333331",
"_]	c #2E2E2C",
":]	c #272625",
"<]	c #464040",
"[]	c #3F3635",
"}]	c #3D3430",
"|]	c #3D332E",
"1]	c #3C2F2C",
"2]	c #3F3130",
"3]	c #40322E",
"4]	c #423630",
"5]	c #453732",
"6]	c #4D929B",
"7]	c #384547",
"8]	c #252D32",
"9]	c #293134",
"0]	c #1D2022",
"a]	c #55585B",
"b]	c #DEE3E6",
"c]	c #414344",
"d]	c #203035",
"e]	c #183F46",
"f]	c #154B50",
"g]	c #243539",
"h]	c #2D3134",
"i]	c #303234",
"j]	c #383B3D",
"k]	c #404444",
"l]	c #44494A",
"m]	c #242728",
"n]	c #424848",
"o]	c #3D4344",
"p]	c #3B4140",
"q]	c #333839",
"r]	c #273334",
"s]	c #1B4B49",
"t]	c #1C4142",
"u]	c #1C393B",
"v]	c #161518",
"w]	c #382F2F",
"x]	c #4C4D4E",
"y]	c #1A1D21",
"z]	c #262D32",
"A]	c #273135",
"B]	c #2E3032",
"C]	c #34393A",
"D]	c #393F3F",
"E]	c #2C7678",
"F]	c #2C2927",
"G]	c #1F1C1D",
"H]	c #242225",
"I]	c #2B2C2C",
"J]	c #2A2A2A",
"K]	c #494242",
"L]	c #3F3735",
"M]	c #40332D",
"N]	c #3E322D",
"O]	c #3F332E",
"P]	c #473932",
"Q]	c #52453F",
"R]	c #54A9AC",
"S]	c #4B4F4C",
"T]	c #473A37",
"U]	c #392F2E",
"V]	c #2B2A2B",
"W]	c #312E2F",
"X]	c #202428",
"Y]	c #484A4C",
"Z]	c #C0C2C2",
"`]	c #838587",
" ^	c #26272C",
".^	c #282C30",
"+^	c #2F3235",
"@^	c #36494D",
"#^	c #3F4444",
"$^	c #414747",
"%^	c #434948",
"&^	c #4B5151",
"*^	c #4A5050",
"=^	c #414848",
"-^	c #3D4444",
";^	c #353D3D",
">^	c #2F4C4C",
",^	c #2B2F31",
"'^	c #293335",
")^	c #1A191B",
"!^	c #131314",
"~^	c #19191A",
"{^	c #291F1D",
"]^	c #424245",
"^^	c #202024",
"/^	c #30302F",
"(^	c #322F2F",
"_^	c #3F3433",
":^	c #4D4A46",
"<^	c #1F9EA3",
"[^	c #343430",
"}^	c #211D1B",
"|^	c #2B2826",
"1^	c #323032",
"2^	c #353636",
"3^	c #383A38",
"4^	c #333433",
"5^	c #4B4444",
"6^	c #3E3734",
"7^	c #3C312D",
"8^	c #40332F",
"9^	c #3E312D",
"0^	c #3D322E",
"a^	c #3E3531",
"b^	c #483D38",
"c^	c #4E4441",
"d^	c #483C38",
"e^	c #2B2D2F",
"f^	c #2B3539",
"g^	c #29363A",
"h^	c #293739",
"i^	c #323839",
"j^	c #A1A3A5",
"k^	c #505053",
"l^	c #191B1F",
"m^	c #232528",
"n^	c #292A2E",
"o^	c #2B2C30",
"p^	c #373536",
"q^	c #343839",
"r^	c #3C4040",
"s^	c #3F4443",
"t^	c #404645",
"u^	c #424847",
"v^	c #4C5352",
"w^	c #292C2D",
"x^	c #4E5655",
"y^	c #414748",
"z^	c #3F4545",
"A^	c #3D4343",
"B^	c #3B4040",
"C^	c #363D3C",
"D^	c #2B2C2D",
"E^	c #29292A",
"F^	c #1F1F20",
"G^	c #272828",
"H^	c #302626",
"I^	c #6B6B6C",
"J^	c #373A3D",
"K^	c #222E35",
"L^	c #272F35",
"M^	c #2F3437",
"N^	c #33363A",
"O^	c #2D3136",
"P^	c #2C2E33",
"Q^	c #383A3C",
"R^	c #2C2B27",
"S^	c #231F1C",
"T^	c #332F2D",
"U^	c #404140",
"V^	c #494342",
"W^	c #433A35",
"X^	c #42352E",
"Y^	c #40332E",
"Z^	c #3E322E",
"`^	c #3A302D",
" /	c #3A302E",
"./	c #4B413C",
"+/	c #4E403B",
"@/	c #442F26",
"#/	c #2C2523",
"$/	c #1C2021",
"%/	c #1A1C1E",
"&/	c #141212",
"*/	c #131113",
"=/	c #1D1B1C",
"-/	c #1B1B1F",
";/	c #1C2729",
">/	c #212729",
",/	c #4C4644",
"'/	c #363A39",
")/	c #393D3C",
"!/	c #3C403F",
"~/	c #404544",
"{/	c #414646",
"]/	c #4D5453",
"^/	c #3D4242",
"//	c #393E3F",
"(/	c #313535",
"_/	c #282729",
":/	c #46413F",
"</	c #272727",
"[/	c #1F2121",
"}/	c #1C1C1E",
"|/	c #39332F",
"1/	c #413F3C",
"2/	c #2E2F2E",
"3/	c #202225",
"4/	c #302928",
"5/	c #4C322B",
"6/	c #372F2F",
"7/	c #353537",
"8/	c #2C2A24",
"9/	c #32302E",
"0/	c #3B3B39",
"a/	c #363838",
"b/	c #47403F",
"c/	c #493D39",
"d/	c #483A32",
"e/	c #42332C",
"f/	c #3E312B",
"g/	c #3E322C",
"h/	c #3C302C",
"i/	c #463933",
"j/	c #493933",
"k/	c #3A3736",
"l/	c #332E2D",
"m/	c #1B1D1E",
"n/	c #16181B",
"o/	c #1C1D20",
"p/	c #666668",
"q/	c #1E1C1C",
"r/	c #1A191C",
"s/	c #2C2D30",
"t/	c #4B4443",
"u/	c #2A2B2C",
"v/	c #333535",
"w/	c #3B3F3F",
"x/	c #3A3E3D",
"y/	c #3E4342",
"z/	c #4A5150",
"A/	c #252728",
"B/	c #484F4F",
"C/	c #303333",
"D/	c #262526",
"E/	c #484240",
"F/	c #1C1D1E",
"G/	c #332C2A",
"H/	c #3E3A38",
"I/	c #343436",
"J/	c #201F21",
"K/	c #18181C",
"L/	c #1D1A1E",
"M/	c #2C2524",
"N/	c #343030",
"O/	c #252422",
"P/	c #35312E",
"Q/	c #403D3B",
"R/	c #424341",
"S/	c #4A4140",
"T/	c #463936",
"U/	c #47372F",
"V/	c #42302A",
"W/	c #3B2B24",
"X/	c #3C2E27",
"Y/	c #473B33",
"Z/	c #3F302A",
"`/	c #3E2E27",
" (	c #8E5441",
".(	c #573E34",
"+(	c #2B2B2B",
"@(	c #322A29",
"#(	c #3F3533",
"$(	c #1B1716",
"%(	c #313132",
"&(	c #2C2C2D",
"*(	c #2B2D2D",
"=(	c #48423E",
"-(	c #2F2B2B",
";(	c #313233",
">(	c #323434",
",(	c #343536",
"'(	c #4A504F",
")(	c #323334",
"!(	c #303233",
"~(	c #353838",
"{(	c #303232",
"](	c #393433",
"^(	c #3E3937",
"/(	c #292B2A",
"((	c #1B1C1E",
"_(	c #3D3734",
":(	c #322624",
"<(	c #3F3D3E",
"[(	c #4F3933",
"}(	c #794D3B",
"|(	c #2F2F2D",
"1(	c #383735",
"2(	c #3C3D3B",
"3(	c #3E403E",
"4(	c #3D3F3F",
"5(	c #4B4140",
"6(	c #443734",
"7(	c #413029",
"8(	c #3B2A24",
"9(	c #3A2A26",
"0(	c #3C2E29",
"a(	c #41332D",
"b(	c #3C2E2A",
"c(	c #5B5352",
"d(	c #323332",
"e(	c #1B1C1F",
"f(	c #191513",
"g(	c #342625",
"h(	c #423431",
"i(	c #ACADAE",
"j(	c #1D1D1E",
"k(	c #2E2E2E",
"l(	c #2E2F30",
"m(	c #4A433F",
"n(	c #3A3D3D",
"o(	c #343737",
"p(	c #323535",
"q(	c #313334",
"r(	c #4B5150",
"s(	c #252829",
"t(	c #4C5253",
"u(	c #343636",
"v(	c #333736",
"w(	c #312D2C",
"x(	c #403A38",
"y(	c #36302B",
"z(	c #383232",
"A(	c #352724",
"B(	c #434245",
"C(	c #212123",
"D(	c #534845",
"E(	c #373939",
"F(	c #393B3C",
"G(	c #4A4343",
"H(	c #453B38",
"I(	c #3E302B",
"J(	c #3C2F2B",
"K(	c #3B302C",
"L(	c #3A2E2A",
"M(	c #3C322D",
"N(	c #382C28",
"O(	c #37302E",
"P(	c #3C2F2E",
"Q(	c #2A2526",
"R(	c #4C4B4C",
"S(	c #0D0D0D",
"T(	c #0E0E0E",
"U(	c #4E4E50",
"V(	c #262727",
"W(	c #2F3030",
"X(	c #4D4541",
"Y(	c #393E3D",
"Z(	c #3A3F3E",
"`(	c #383B3B",
" _	c #4E5352",
"._	c #4C5151",
"+_	c #37393A",
"@_	c #393C3C",
"#_	c #383C3B",
"$_	c #312C2C",
"%_	c #413A38",
"&_	c #2A2A2B",
"*_	c #202122",
"=_	c #191A1C",
"-_	c #1A1B1D",
";_	c #4B4B4B",
">_	c #3D3A3A",
",_	c #595556",
"'_	c #362F2F",
")_	c #3D3432",
"!_	c #6E6D6E",
"~_	c #3C3A3A",
"{_	c #3A383A",
"]_	c #363736",
"^_	c #393B3B",
"/_	c #494544",
"(_	c #47413F",
"__	c #423A36",
":_	c #3F3733",
"<_	c #3F3934",
"[_	c #393633",
"}_	c #3A3531",
"|_	c #3F3B37",
"1_	c #0C100E",
"2_	c #4F4E4F",
"3_	c #292425",
"4_	c #111313",
"5_	c #111111",
"6_	c #2B2B2D",
"7_	c #1C1B1D",
"8_	c #353433",
"9_	c #4C433F",
"0_	c #292627",
"a_	c #343535",
"b_	c #333434",
"c_	c #4B4F4F",
"d_	c #494E4E",
"e_	c #3A3D3C",
"f_	c #323433",
"g_	c #423B38",
"h_	c #2A2A2C",
"i_	c #3C3637",
"j_	c #49494B",
"k_	c #383233",
"l_	c #4A4748",
"m_	c #403937",
"n_	c #3D3936",
"o_	c #3D3B3E",
"p_	c #383938",
"q_	c #393B3A",
"r_	c #383738",
"s_	c #333133",
"t_	c #433F41",
"u_	c #423D3D",
"v_	c #433F39",
"w_	c #413C35",
"x_	c #3F3A36",
"y_	c #313131",
"z_	c #464444",
"A_	c #3B3836",
"B_	c #0E0F0D",
"C_	c #1A1514",
"D_	c #131111",
"E_	c #131212",
"F_	c #1B1B1D",
"G_	c #202021",
"H_	c #443C39",
"I_	c #2B2829",
"J_	c #32302F",
"K_	c #474C4C",
"L_	c #464B4B",
"M_	c #383A39",
"N_	c #323333",
"O_	c #2F2F2F",
"P_	c #3A3332",
"Q_	c #373232",
"R_	c #1D1B1E",
"S_	c #1D1C20",
"T_	c #222125",
"U_	c #585859",
"V_	c #272B2D",
"W_	c #10120F",
"X_	c #38322F",
"Y_	c #3B3330",
"Z_	c #383634",
"`_	c #373635",
" :	c #3E3D3E",
".:	c #373636",
"+:	c #454143",
"@:	c #3F3832",
"#:	c #413831",
"$:	c #3F3834",
"%:	c #393735",
"&:	c #454242",
"*:	c #3A3533",
"=:	c #13120E",
"-:	c #1E1816",
";:	c #121012",
">:	c #0F0E10",
",:	c #1B1C1D",
"':	c #252627",
"):	c #473D3B",
"!:	c #292626",
"~:	c #2F2F2E",
"{:	c #3D302C",
"]:	c #444948",
"^:	c #333636",
"/:	c #343130",
"(:	c #372E2D",
"_:	c #2E2E2D",
"::	c #3B3433",
"<:	c #383333",
"[:	c #212124",
"}:	c #1C1B1F",
"|:	c #4C4B4D",
"1:	c #40413E",
"2:	c #323634",
"3:	c #161712",
"4:	c #3A2F2B",
"5:	c #3F322E",
"6:	c #373533",
"7:	c #383C3A",
"8:	c #383836",
"9:	c #383734",
"0:	c #392C28",
"a:	c #3B2B28",
"b:	c #382E2B",
"c:	c #393533",
"d:	c #413D3A",
"e:	c #403A3A",
"f:	c #393331",
"g:	c #181713",
"h:	c #231C1A",
"i:	c #141112",
"j:	c #121010",
"k:	c #1A1B1C",
"l:	c #252727",
"m:	c #49403D",
"n:	c #312F30",
"o:	c #373231",
"p:	c #37312F",
"q:	c #313232",
"r:	c #322F2D",
"s:	c #282829",
"t:	c #3D3534",
"u:	c #3B3534",
"v:	c #272728",
"w:	c #272627",
"x:	c #232324",
"y:	c #474849",
"z:	c #484643",
"A:	c #373836",
"B:	c #131613",
"C:	c #3A2D2B",
"D:	c #433632",
"E:	c #3E3A37",
"F:	c #363635",
"G:	c #313433",
"H:	c #353634",
"I:	c #393A37",
"J:	c #4D4A49",
"K:	c #3C3634",
"L:	c #392F2D",
"M:	c #3B2F2D",
"N:	c #3D3332",
"O:	c #413E3B",
"P:	c #41413F",
"Q:	c #3E3C3A",
"R:	c #3F3A39",
"S:	c #131513",
"T:	c #241C1A",
"U:	c #2C221F",
"V:	c #2C2E2E",
"W:	c #1C1D1D",
"X:	c #292525",
"Y:	c #2E2D2D",
"Z:	c #2D2C2D",
"`:	c #2E3535",
" <	c #3C4443",
".<	c #3C4646",
"+<	c #303A39",
"@<	c #212222",
"#<	c #232325",
"$<	c #555656",
"%<	c #121412",
"&<	c #3F322F",
"*<	c #443530",
"=<	c #3F3835",
"-<	c #353332",
";<	c #39393B",
"><	c #3B3A3C",
",<	c #343534",
"'<	c #474242",
")<	c #403B3A",
"!<	c #433834",
"~<	c #443A35",
"{<	c #3D332F",
"]<	c #3C2E2C",
"^<	c #3C2E2D",
"/<	c #383130",
"(<	c #0F1514",
"_<	c #2E231F",
":<	c #3D2D26",
"<<	c #3B2D26",
"[<	c #1A1A1B",
"}<	c #242525",
"|<	c #3A3534",
"1<	c #3B3533",
"2<	c #2C2D2C",
"3<	c #2C2C2B",
"4<	c #2B2C2B",
"5<	c #214646",
"6<	c #104D4D",
"7<	c #13191B",
"8<	c #1A4647",
"9<	c #2D2C2C",
"0<	c #282727",
"a<	c #3D3634",
"b<	c #322F2E",
"c<	c #242625",
"d<	c #252625",
"e<	c #1E1F20",
"f<	c #535353",
"g<	c #131311",
"h<	c #453833",
"i<	c #483933",
"j<	c #3F3633",
"k<	c #393939",
"l<	c #353637",
"m<	c #3A3C3B",
"n<	c #474041",
"o<	c #443E3D",
"p<	c #413A35",
"q<	c #423029",
"r<	c #463128",
"s<	c #442D26",
"t<	c #412D25",
"u<	c #412D27",
"v<	c #372C29",
"w<	c #0D1514",
"x<	c #352A25",
"y<	c #433128",
"z<	c #382820",
"A<	c #2E2A28",
"B<	c #2A2B2A",
"C<	c #2A2C2A",
"D<	c #1E4B4C",
"E<	c #085658",
"F<	c #121A1B",
"G<	c #0F4E4F",
"H<	c #1B5050",
"I<	c #33302E",
"J<	c #232525",
"K<	c #444445",
"L<	c #151515",
"M<	c #453A37",
"N<	c #493F3B",
"O<	c #413B3A",
"P<	c #3E3C3B",
"Q<	c #433D3F",
"R<	c #444141",
"S<	c #45423E",
"T<	c #402F28",
"U<	c #413028",
"V<	c #43342B",
"W<	c #42352C",
"X<	c #3F3029",
"Y<	c #45352D",
"Z<	c #3D3230",
"`<	c #111818",
" [	c #362924",
".[	c #46332A",
"+[	c #202121",
"@[	c #292929",
"#[	c #2F2B29",
"$[	c #282928",
"%[	c #094F50",
"&[	c #0D4747",
"*[	c #184C4C",
"=[	c #3C3432",
"-[	c #302E2C",
";[	c #252827",
">[	c #191A1B",
",[	c #171615",
"'[	c #34302F",
")[	c #3A3333",
"![	c #383535",
"~[	c #363638",
"{[	c #373A3A",
"][	c #4A4848",
"^[	c #4A4B49",
"/[	c #454642",
"([	c #3D2F2B",
"_[	c #423730",
":[	c #3D322C",
"<[	c #392F2A",
"[[	c #453B39",
"}[	c #151A1A",
"|[	c #2E211D",
"1[	c #442F27",
"2[	c #212122",
"3[	c #222122",
"4[	c #403A36",
"5[	c #1F494A",
"6[	c #094C4D",
"7[	c #121315",
"8[	c #0C4544",
"9[	c #174A49",
"0[	c #2A2A29",
"a[	c #252524",
"b[	c #3D3532",
"c[	c #2E2B2A",
"d[	c #212323",
"e[	c #565657",
"f[	c #151512",
"g[	c #3A3735",
"h[	c #393836",
"i[	c #373639",
"j[	c #38383A",
"k[	c #4F4A4A",
"l[	c #484445",
"m[	c #3D3939",
"n[	c #3B3331",
"o[	c #3A312E",
"p[	c #362E2C",
"q[	c #3F3431",
"r[	c #3E3631",
"s[	c #3D3732",
"t[	c #433A37",
"u[	c #403939",
"v[	c #161B1A",
"w[	c #2E221F",
"x[	c #3E2B25",
"y[	c #262323",
"z[	c #292524",
"A[	c #322E2C",
"B[	c #36312E",
"C[	c #20201F",
"D[	c #2A292A",
"E[	c #2A2929",
"F[	c #214748",
"G[	c #0A4A4B",
"H[	c #131416",
"I[	c #0D4444",
"J[	c #184948",
"K[	c #2B2A29",
"L[	c #272829",
"M[	c #3B322F",
"N[	c #2F2929",
"O[	c #252222",
"P[	c #1D1C1F",
"Q[	c #525252",
"R[	c #121310",
"S[	c #303336",
"T[	c #343739",
"U[	c #403F3D",
"V[	c #3B3A39",
"W[	c #3C3D3D",
"X[	c #37383B",
"Y[	c #443E3E",
"Z[	c #423D3C",
"`[	c #3E3836",
" }	c #403936",
".}	c #343232",
"+}	c #353333",
"@}	c #121818",
"#}	c #332927",
"$}	c #3D2D2A",
"%}	c #232123",
"&}	c #2C2323",
"*}	c #322523",
"=}	c #312523",
"-}	c #382D2C",
";}	c #2E2827",
">}	c #222121",
",}	c #272626",
"'}	c #262424",
")}	c #2A2525",
"!}	c #1F4547",
"~}	c #0A4C4C",
"{}	c #124545",
"]}	c #1A4746",
"^}	c #2C2928",
"/}	c #292526",
"(}	c #282525",
"_}	c #262527",
":}	c #262425",
"<}	c #292424",
"[}	c #2F2222",
"}}	c #352421",
"|}	c #302221",
"1}	c #272122",
"2}	c #221F21",
"3}	c #4D4E4F",
"4}	c #191A18",
"5}	c #35383A",
"6}	c #333738",
"7}	c #333537",
"8}	c #393435",
"9}	c #393434",
"0}	c #3D3835",
"a}	c #3E3935",
"b}	c #3D3E3C",
"c}	c #424242",
"d}	c #323235",
"e}	c #131717",
"f}	c #322825",
"g}	c #2F696F",
"h}	c #1E2326",
"i}	c #232022",
"j}	c #262122",
"k}	c #312422",
"l}	c #322522",
"m}	c #352420",
"n}	c #2F2221",
"o}	c #282425",
"p}	c #2B2727",
"q}	c #342421",
"r}	c #352523",
"s}	c #352422",
"t}	c #2E2726",
"u}	c #312625",
"v}	c #234548",
"w}	c #155153",
"x}	c #17181C",
"y}	c #184949",
"z}	c #1F4947",
"A}	c #312725",
"B}	c #312624",
"C}	c #322521",
"D}	c #33231F",
"E}	c #2D2424",
"F}	c #262525",
"G}	c #222022",
"H}	c #362422",
"I}	c #392521",
"J}	c #382420",
"K}	c #322320",
"L}	c #24201F",
"M}	c #201E1E",
"N}	c #2D4547",
"O}	c #377576",
"P}	c #343637",
"Q}	c #3A3C3F",
"R}	c #3A3B3C",
"S}	c #36373A",
"T}	c #37383A",
"U}	c #3B3838",
"V}	c #3D3B3A",
"W}	c #3F3B3A",
"X}	c #3D3D3B",
"Y}	c #3D3B3B",
"Z}	c #393839",
"`}	c #191B18",
" |	c #28201D",
".|	c #322623",
"+|	c #226467",
"@|	c #436F71",
"#|	c #1D383D",
"$|	c #283538",
"%|	c #2C3437",
"&|	c #362723",
"*|	c #36241F",
"=|	c #252224",
"-|	c #292726",
";|	c #312524",
">|	c #372421",
",|	c #302423",
"'|	c #352522",
")|	c #362521",
"!|	c #264547",
"~|	c #628A8D",
"{|	c #292E30",
"]|	c #28716F",
"^|	c #204B4A",
"/|	c #332624",
"(|	c #2D2321",
"_|	c #2C2221",
":|	c #332320",
"<|	c #2E2424",
"[|	c #382421",
"}|	c #3B2D28",
"||	c #2D4244",
"1|	c #274341",
"2|	c #1F4D4B",
"3|	c #426C6E",
"4|	c #568081",
"5|	c #1D1C17",
"6|	c #373737",
"7|	c #38393B",
"8|	c #3A3A3C",
"9|	c #414141",
"0|	c #3F4244",
"a|	c #3C3C3E",
"b|	c #403F3E",
"c|	c #1B1D1A",
"d|	c #322724",
"e|	c #332A26",
"f|	c #27211E",
"g|	c #241F1C",
"h|	c #477075",
"i|	c #18494D",
"j|	c #1E4D50",
"k|	c #153B3D",
"l|	c #1A3335",
"m|	c #1A3134",
"n|	c #262F30",
"o|	c #303231",
"p|	c #293435",
"q|	c #2B3535",
"r|	c #303636",
"s|	c #303735",
"t|	c #234C4D",
"u|	c #5D8385",
"v|	c #2B2E2E",
"w|	c #2C6E6D",
"x|	c #1E5152",
"y|	c #2D3433",
"z|	c #293131",
"A|	c #283132",
"B|	c #243334",
"C|	c #2A3536",
"D|	c #2D3436",
"E|	c #203438",
"F|	c #1E3538",
"G|	c #1D3638",
"H|	c #153E41",
"I|	c #1A494B",
"J|	c #325758",
"K|	c #3A3737",
"L|	c #3C3E3F",
"M|	c #313031",
"N|	c #21201E",
"O|	c #373738",
"P|	c #383A3B",
"Q|	c #454749",
"R|	c #3D4044",
"S|	c #3F4144",
"T|	c #434445",
"U|	c #454746",
"V|	c #393A3D",
"W|	c #191A19",
"X|	c #302724",
"Y|	c #3A2C28",
"Z|	c #2C231F",
"`|	c #2A211B",
" 1	c #2B2522",
".1	c #16171A",
"+1	c #183336",
"@1	c #173C3F",
"#1	c #163B3E",
"$1	c #11373A",
"%1	c #0E3032",
"&1	c #103233",
"*1	c #314747",
"=1	c #373D40",
"-1	c #202427",
";1	c #0E0D0D",
">1	c #494A49",
",1	c #373332",
"'1	c #295556",
")1	c #133336",
"!1	c #123336",
"~1	c #133437",
"{1	c #1C383A",
"]1	c #1B3737",
"^1	c #183535",
"/1	c #172325",
"(1	c #404141",
"_1	c #393635",
":1	c #292B2C",
"<1	c #1F1E1D",
"[1	c #363535",
"}1	c #383638",
"|1	c #343437",
"11	c #333236",
"21	c #424549",
"31	c #454949",
"41	c #41464A",
"51	c #3C4144",
"61	c #434748",
"71	c #474A4D",
"81	c #3E4145",
"91	c #1B1C1C",
"01	c #291F1C",
"a1	c #3D2D27",
"b1	c #3D2F29",
"c1	c #3B2E27",
"d1	c #3A2E25",
"e1	c #2B2421",
"f1	c #1B1A1B",
"g1	c #171C1F",
"h1	c #153336",
"i1	c #163437",
"j1	c #1A2020",
"k1	c #3C4044",
"l1	c #23272A",
"m1	c #0C0B0D",
"n1	c #4A4A49",
"o1	c #312E2C",
"p1	c #343433",
"q1	c #191E20",
"r1	c #1A2929",
"s1	c #183938",
"t1	c #173231",
"u1	c #161D1F",
"v1	c #555857",
"w1	c #3D3C3B",
"x1	c #282A2D",
"y1	c #1C1C1C",
"z1	c #333336",
"A1	c #3E3F3E",
"B1	c #323637",
"C1	c #313537",
"D1	c #323338",
"E1	c #44494C",
"F1	c #454648",
"G1	c #464A4C",
"H1	c #434749",
"I1	c #42484B",
"J1	c #43484C",
"K1	c #3A4044",
"L1	c #2D2220",
"M1	c #392925",
"N1	c #372B29",
"O1	c #2F241D",
"P1	c #221B17",
"Q1	c #1F191B",
"R1	c #242120",
"S1	c #242221",
"T1	c #373739",
"U1	c #3F4347",
"V1	c #25292D",
"W1	c #090A0C",
"X1	c #2A2D2F",
"Y1	c #353231",
"Z1	c #2C282A",
"`1	c #2F2B2C",
" 2	c #2C2A2B",
".2	c #211919",
"+2	c #211C1C",
"@2	c #221F1E",
"#2	c #232120",
"$2	c #22201F",
"%2	c #26201E",
"&2	c #514D4D",
"*2	c #41403D",
"=2	c #40403F",
"-2	c #2D2F32",
";2	c #1A1A1A",
">2	c #363639",
",2	c #414142",
"'2	c #414343",
")2	c #333536",
"!2	c #323136",
"~2	c #42454A",
"{2	c #464647",
"]2	c #444546",
"^2	c #404244",
"/2	c #3D4042",
"(2	c #36383C",
"_2	c #2A2122",
":2	c #261D1F",
"<2	c #28231F",
"[2	c #3B383A",
"}2	c #222020",
"|2	c #202526",
"12	c #080B0A",
"22	c #232829",
"32	c #3D3B36",
"42	c #2C2726",
"52	c #2C2827",
"62	c #262324",
"72	c #474B4D",
"82	c #484C4E",
"92	c #3C3C40",
"02	c #303032",
"a2	c #2F2D30",
"b2	c #2C2B2F",
"c2	c #44474C",
"d2	c #484C4F",
"e2	c #454A4A",
"f2	c #424241",
"g2	c #444343",
"h2	c #3F3F40",
"i2	c #2C241F",
"j2	c #2B2322",
"k2	c #211A1B",
"l2	c #2E2E2F",
"m2	c #17191E",
"n2	c #191A1E",
"o2	c #1B1C20",
"p2	c #322926",
"q2	c #282323",
"r2	c #171E20",
"s2	c #181E21",
"t2	c #1D1E21",
"u2	c #373638",
"v2	c #383B3F",
"w2	c #1F2325",
"x2	c #0B0C0D",
"y2	c #2A2E30",
"z2	c #35393D",
"A2	c #3A3936",
"B2	c #2C2826",
"C2	c #1A1B1E",
"D2	c #1A1E20",
"E2	c #1B1E21",
"F2	c #342A27",
"G2	c #2C2625",
"H2	c #474D4F",
"I2	c #1F1E1E",
"J2	c #3C3C3D",
"K2	c #505558",
"L2	c #4C5152",
"M2	c #3F4141",
"N2	c #494949",
"O2	c #261E1C",
"P2	c #2D211E",
"Q2	c #2D2422",
"R2	c #1A1A1E",
"S2	c #19191D",
"T2	c #1C1A1C",
"U2	c #1F1D1F",
"V2	c #2A2422",
"W2	c #252020",
"X2	c #3F454A",
"Y2	c #262A2D",
"Z2	c #0F100F",
"`2	c #383F3F",
" 3	c #454C4E",
".3	c #3D3F43",
"+3	c #231F1F",
"@3	c #2D2A29",
"#3	c #2C2B2E",
"$3	c #1E1D1F",
"%3	c #2B2222",
"&3	c #1C1A1D",
"*3	c #141416",
"=3	c #6C6C6D",
"-3	c #1D1C1C",
";3	c #464645",
">3	c #3F3E3E",
",3	c #383739",
"'3	c #3A3A39",
")3	c #41403F",
"!3	c #3B3C3B",
"~3	c #4F5253",
"{3	c #474B4C",
"]3	c #3E4043",
"^3	c #39383B",
"/3	c #2F3137",
"(3	c #35373A",
"_3	c #1B1D1D",
":3	c #241E1D",
"<3	c #2A2220",
"[3	c #2B2422",
"}3	c #251F1E",
"|3	c #211D1A",
"13	c #1F1D1D",
"23	c #333233",
"33	c #4A555B",
"43	c #2D3538",
"53	c #0D0E0E",
"63	c #353A3D",
"73	c #42484D",
"83	c #3A3D42",
"93	c #242121",
"03	c #3F4143",
"a3	c #474747",
"b3	c #383436",
"c3	c #4E4F4E",
"d3	c #4C4E50",
"e3	c #353334",
"f3	c #343233",
"g3	c #353434",
"h3	c #38383B",
"i3	c #3E403F",
"j3	c #333437",
"k3	c #343738",
"l3	c #171718",
"m3	c #231E1D",
"n3	c #292321",
"o3	c #26221F",
"p3	c #231F1D",
"q3	c #1E1B18",
"r3	c #1F1C18",
"s3	c #22211E",
"t3	c #2B2F32",
"u3	c #2D2D2F",
"v3	c #353633",
"w3	c #3E454A",
"x3	c #23282B",
"y3	c #0B0C0C",
"z3	c #303235",
"A3	c #3A3D40",
"B3	c #1E1D1C",
"C3	c #23211F",
"D3	c #272524",
"E3	c #333234",
"F3	c #333235",
"G3	c #191919",
"H3	c #30312F",
"I3	c #363431",
"J3	c #303132",
"K3	c #1D1E1D",
"L3	c #323131",
"M3	c #323231",
"N3	c #353437",
"O3	c #343336",
"P3	c #282627",
"Q3	c #191817",
"R3	c #1B1917",
"S3	c #191714",
"T3	c #1B1A18",
"U3	c #181A1A",
"V3	c #222221",
"W3	c #242422",
"X3	c #262523",
"Y3	c #282726",
"Z3	c #1A1B1A",
"`3	c #1B1B1B",
" 4	c #1E1D1B",
".4	c #22201E",
"+4	c #252423",
"@4	c #292725",
"#4	c #2E2A2B",
"$4	c #2D2B2B",
"%4	c #1E1E1E",
"&4	c #181819",
"*4	c #262625",
"=4	c #242123",
"-4	c #232223",
";4	c #222222",
">4	c #161919",
",4	c #151816",
"'4	c #141615",
")4	c #151616",
"!4	c #171515",
"~4	c #161614",
"{4	c #171717",
"]4	c #161717",
"^4	c #161716",
"/4	c #171817",
"(4	c #181716",
"_4	c #191B19",
":4	c #141514",
"<4	c #141515",
"[4	c #151516",
"}4	c #141616",
"|4	c #141715",
"14	c #151614",
"24	c #171819",
"34	c #1E1E1D",
"44	c #21201F",
"54	c #1F1D1E",
"64	c #262524",
"74	c #232021",
"84	c #221F20",
"94	c #201F1F",
"04	c #20211F",
"a4	c #1F201F",
"  . + @ # $ % & * = - ; > , ' ) ! ~ { ] ^ / ( _ : < [ } | 1 2 3 4 5 6 7 8 9 0 a b c d e f g h i j k l m n o p q r s t u v w x y ",
"z A B C D E F G H I J K L M N O P Q R S T U V W X Y Z `  ...+.3 @.#.$.%.&.*.=.-.;.>.,.'.).!.~.{.].^./.(.3 _.:.<.[.}.|.1.2.> 3.4.",
"5.6.7.8.9.0.a.b.c.d.e.f.g.h.i.j.k.l.m.n.o.p.q.r.Z s.t. .u.v.w.x.y.z.A.B.C.D.E.F.G.H.I.J.K.L.M.N.O.P.Q.R.S.T.U.V.W.X.Y.Z.`. +.+++",
"@+#+$+%+&+*+=+-+$+;+>+,+'+)+9.!+~+{+R ]+^+/+(+_+:+~+<+[+}+|+1+2+3+4+5+6+7+8+9+0+a+b+c+d+e+f+g+h+i+j+k+l+m+n+o+p+#+Y.q+r+s+t+u+v+",
"w+x+y+z+A+B+C+D+E+F+G+H+I+J+K+L+M+N+O+P+Q+R+S+T+U+V+U+W+X+Y+Z+`+3+ @.@+@@@#@$@%@&@*@=@-@;@>@,@'@)@!@~@{@]@! ^@/@(@_@:@<@[@}@|@1@",
"2@3@4@5@6@7@8@9@0@a@b@c@d@e@f@g@h@i@j@k@l@m@n@o@o@V+p@q@r@s@t@u@v@w@x@y@z@A@B@C@D@E@F@G@H@I@J@K@L@M@N@O@P@Q@R@S@T@U@V@W@X@Y@Z@`@",
" #.#+#@###$#%#&#D+W *#=#-#;#>#,#'#)#Y@!#~#{#]#^#t.M /#(#_#:#<#[#}#|#1#2#3#4#5#6#7#8#9#0#a#b#c#d#e#f#g#h#i#j#k#l#m#n#o#p#q#r#s#t#",
"u#v#w#D+x#y#z#A#B#e@C#D#E#F#G#H#I#J#K#L#M#N#O#P#u.Q#R#(#}+S#T#U#V#W#X#Y#Z#`# $.$+$@$#$$$%$&$*$=$-$;$>$,$,+'$)$!$~${$]$^$/$($_$:$",
"<$[$w#}$|$1$-+2$3$4$L+5$6$7$w 8$U+9$0$a$b$c$d$e$u.f$g$h$i$j$k$l$m$n$o$p$q$r$s$t$u$v$w$x$y$z$A$B$C$D$E$F$G$H$I$J$K$L$J$M$N$O$P$Q$",
"R$S$T$U$V$W$X$Y$Z$`$ %.%+%@%#%$%%%&%*%=%-%;%>%,%e$T+'%)%!%~%{%]%^%/%(%_%:%<%[%}%|%1%2%3%4%5%6%7%8%9%0%a%b%c%d%e%f%g%b%h%i%j%k%l%",
"U.m%n%o%p%q%r%s%t%u%v%w%x%y%z%A%B%C%D%E%F%G%H%I%J%K%L%M%N%O%P%Q%R%S%T%U%V%W%X%Y%Z%s@`% &.&+&@&#&$&%&&&*&9%=&-&;&>&,&'&)&!&~&{&]&",
"^&/&(&_&:&c.<&[&..}&|&1&2&3&4&5&6&7&8&9&0&a&b&c&r.d&e&f&g&h&i&j&k&k&l&m&n&o&p&q&Q#r&s&t&u&v&w&x&y&z&A&B&%&C&D&E&F&G&H&I&J&K&*%L&",
"M&N&O&P&$+Q&R&S&T&U&6.V&W&X&Y&Z&`& *.*+*@*#*$*%*&***e$=*-*;*>*,*'*)*!*~*{*]*^*r@g$/*(*_*:*<*[*}*|*1*2*3*4*5*6*7*8*9*0*a*b*c*d*e*",
"f*g*/#/#h*i*j*k*l*m*n*o*p*q*r*s*t*u*v*w*x*y*z*A*F+3@B*5&C*D*E*F*G*H*I*J*K*L*.*M*N*O*P*Q*R*S*T*U*V*W*X*Y*Z*`* =.=+=@=#=$=%=&=*===",
"-=;=3.>=q%f$z*,='=)=!=o*~={=C#]=^=/=(=_=:=<=[=[@}=|=1=2=3=4=5=6=7=7=8=9=0=a=b=c=d=e=f=g=h=i=j=k=l=m=n=o=p=q=r=s=t=u=v=w=x=y=z=A=",
"B=C=D=-+7.g$h*}+E=F=G=H=I=J=K=L=M=N=N$O=P=Q=R=S=T=U=V=W=X=Y=Z=`= -.-+-@-#-$-%-&-*-=-c*--;->-,-'-)-t=!-~-{-]-^-/-(-_-:-r=<-[-}-|-",
"1-2-3-4-5-6-7-8-Y@|&9-0-a-b-c-d-e-f-g-h-i-j-k-l-m-n-o-p-q-r-s-t-u-u-u-s-v-w-x-y-z-A-B-C-D-E-1*m=F-G-H->-I-J-K-L-x&M-N-O-1*n=P-Q-",
"R-S-T-U-V-W-X-Y-Z-}&`- ;.;+;@;#;$;%;&;B&*;=;-;;;>;,;';);!;~;{;];^;^;/;(;_;:;<;[;};|;1;2;3;4;5;6;7;8;9;0;I-a;b;c;d;e;z&f;g;}*r=h;",
"i;j;k;l;m;n;o;p;q;r;3$H=s;t;u;v;w;x;y;z;A;B;C;D;E;F;G;H;I;J;J;K;L;L;M;N;O;H;P;Q;R;S;T;U;V;W;X;Y;Z;~-`; >.>+>@>#>$>%>u&&>*>6;=>->",
"n+;>v.A*N*>>g*,>'>)>!>H=I=~>{>]>^>/>(>_>:><>[>}>|>1>2>3>4>5>6>7>8>9>0>a>C;b>c>d>e>f>g>h>i>j>k>l>m>n>o>p>q>r>s>z&t>h-u>}*v>w>x>y>",
"z>A>B>C>D>E>F>~$G>H>I>H=J>K>L>M>N>O>s%P>Q>R>S>T>U>V>W>X>Y>Z>`> ,.,+,@,#,$,%,&,*,=,-,;,>,,,',),i@!,~,{,],^,/,(,_,g%:,<,1*[,},|,1,",
"2,3,P&4,X-5,:&6,7,8,9,0,a,b,c,d,h*h*e,f,g,h,i,j,k,l,m,n,o,6&p,q,r,s,t,}@u,v,w,x,y,z,A,B,F%C,D,E,F,G,H,I,J,t>K,L,M,N,&$O,P,Q,R,N,",
"S,r.5,T,U,V,W,X,Y,Z,&+`,h-!#+; '.'.'C,+'@'#'$'%'&'*'='-';'>','''q;)'!'~'{']'^'/'('S>_':'<'['}'|'1'2'3'4'5'6'7'8'9'0'a'b'c'd'e'f'",
"C=l;g'h'5-i'j'k'l'R#m'`,n'o'p'q'r'E#s't'u'v'w'x'y'z'A'B'C'D'E'F'G'H'I'J'K'L'M'N'O'P'Q'x'R'S'/=T'U'<'V'W'X'Y'Z'`' ).)+)@)#)$)%)&)",
"*)B>=)-);)C>>)P&d&Q#,)q>')M,))!)~){)])^)/)()_)]+:)0@<)[)})|)1)2)3)4)5)6)7)8)9)0)g,a)b)c)d)T'e)f)g)h)i)j)k)l)m)n)o)p)q)r)s)2*t)O-",
"u)7.v)w)X-w)x)=)y)z)E=A)B)C)D) 'E)E#F)G)H)I)J)K)L)M)N)O)P)Q)R)S)T)U)V)W)p;4-_');d)X)Y)Z)`)H) !.!_'+!4,@!#!$!%!&!*!=!-!;!>!,!'!}*",
"0.g=_+8-)!!!P&!!~!{!]!^!/!(!_!:!<![!}!|!1!2!3!C)4!5!6!7!8!9!0!v;a!b!c!c!d!e!d)f!P+g!h!i!j!1!k!(.l!m!n!o!p!q!r!s!t!k!0!u!v!w!|,x!",
"y!*# '{$W 3-7-z!6,A!B!^!C!D!E!F!G!H!I!J!K!L!M!N!I)s!O!P!Q!R!S!T!U!V!W!I)X!Y!Z!`! ~.~+~@~#~X!$~%~&~*~=~-~;~>~,~h,'~l.)~!~~~%={~]~",
"0.g=v'^~/~(~_~i'g':~<~[~}~|~1~2~3~4~5~&;6~7~+~8~S!8~9~b@0~a~b~c~d~e~f~g~J$h~i~'~j~x.k~l~m~n~o~p~q~r~s~t~u~v~w~x~R=k@y~z~A~B~C~D~",
"E~F~G~H~P)I~J~X,H~K~y'L~M~N~O~P~Q~R~S~T~U~V~j!T!W~X~Y~Z~`~ {.{,,+{x%Q!-@@{#{${%{&{*{x.T!={-{d~;{>{,{'{){!{~{{{]{^{/{({_{:{<{[{}{",
"|{j'i'K~1{2{3{4{5{3{6{7{8{t-9{0{a{b{c{*%d{e{f{g{h{i{j{Q!X!k{H)l{Q!$~O!m{n{o{b~M!p{q{r{s{t{u{v{N!s;w{s+t+x{y{z{A{B{C{D{, E{F{G{H{",
"I{A.J{R.K{L{M{N{O{L{P{Q{R{S{T{I!U{V{W{X{Y{Z{`{ ]`{.]1++]@]#]$]%]&]p,*]*]$~])=]-]0&o~o{I)Y ;]>],]e*']~>@]())]!]~]{]]]^]/]0!(]_]:]",
"<][]}]|]=~1]2]3]4]5]6]7] '#;I!8]9]0]a]b]c]g~d]e]f]g]h]i]D%j]k]l]m]n]o]p]q]b@7)r]s]t]u]K!v]s#w]x]y]z]A]l-B]C]D]E]]=F]K,G]H]I]J]J>",
"K]L]M{M]z@N]O]P]Q]R]S]T]U]V]W]<)X]Y]Z]`]_'Q! ^.^+^@^y{,%#^$^%^&^D~*^n]=^=^-^;^>^a*,^'^k{)^!^~^{^]^^^Z+/^(^/$_^:^<^[^}^|^1^2^3^4^",
"5^6^7^8^9^0^a^b^c^d^e^E#f^g^q'h^i^j^x~k^l^m^n^o^p^}@q^r^s^t^u^v^w^x^n]y^z^A^B^C^e)_$D^E^F^.~G^H^I^J^K^L^M^N^O^P^Q^R^S^T^a@F+U^$+",
"V^W^X^Y^Z^`^ /W^./+/2^=~@/#/$/%/&/*/=/-/;/>/#]4',/E#'/)/!/~/{/v^*]]/z^^/_#<+//(/_/:/[!^=</[/}/|/1/2/3/e*4/5/6/7/-#8/9/0/a/Q^c.W ",
"b/c/d/e/f/g/h/+@i/j/k/l/+{m/n/o/p/9%q/r/e*l{s/4't/u/v/O+w/x/y/z/A/B/9$W+b&B*C/^ D/E/Z+Z+x%-%F/G/H/I/J/K/L/9'M/N/O/P/Q/R/e$M c.B!",
"S/T/U/V/W/X/g#Y/Z/`/ (.(c!n/+(@(#($(%(g~T{&(*(=(-(v/L=;(>(,(}@'(+.*^>(>()(;(!(~({(](^({)/([/((I/_(V,:(<(v{0*[(}(|(1(2(3(.+u.4(X ",
"5(6(s~7(8(9(0(a(b(>{c(d(V{e(f(g(h(i(o{j('~k(l(m(L#n(.*o(p({(q(r(s(t(;(;(q(o(u(9$v(w(x({){)o{`{H)y(z(A('+B(C(<~D(I/)])]E(F(e$/#` ",
"G(H(B.I(J(K(L(M(N(=~O(<]P(Q(R(S(T(U(]+F^V(k(W(X(E&n(Y(Z([+`(n( _Z+._+_`(@_n()/#_~($_%_&_x%*_=_-_;_>_n(,_'_)_j'!_~_{_]_d&^_I%` t#",
"/_(___:_<_[_P/}_|_W-](1_2_3_7,4_5_6_7_F^=]a*8_9_0_a_b_@_W+W+[+c_@]d_w/x/e_`(~(f_R C&g_m-x%()6~6~h_i_s,j_k_l_m_n_k'o_p_q_a/> r_s_",
"t_u_v_w_x_h~^ y_/&z_A_B_y$C_D_E_x+C(F_G_V(&_H_I_{]/$J_F)O&@_A,K_v{L_)/)/M_N_{]{]O_M=P_Q_I!C(R_S_T_U_J=V_W_X_Y_Z_`_W  :c.T+Y@.:r#",
"+:P)@:#:$:%:O+M_U@&:*:=:-:e;;:>:%(F_,:H)':{)):!:~:/^/$O({:>(a/]:H){/~(^:/:(:_:O_k(^=::<:_/U{[:}:F_|:1:2:3:4:5:*:6:2(>>7:^:a_8:9:",
"V^R.0:a:a:b:](c:d:e:f:g:h:h;i:j:,,k:}/l:</G^m:!:y_n:O_o:p:{(!(s^o{z^L={(q:r:m-k(L$s:t:u:v:w:x:N!_)y:z:A:B:C:D:E:F:.+B>v(G:H:I:4,",
"J:K:L:M:N:O:P:Q:E:R:K~S:T:U:f'V:W:x:=]v:,,v:$-X:d(Y:Z:Y:O_W(`: <0&.<+<y_F'O_n:L$2&a-P_](M==]'~@<,:#<$<q:%<&<*<=<-<;<><s#,<)]p_H:",
"'<)<__!< $~<{<X=]<^</<(<_<:<<<W:[<}<=]V(,,|<1<x'{]2<3<4<4<4<5<6<7<8<5<_:9<2&W&+(+(J]0<a<b<a~c<d<*_e<f<D^g<h<i<j<i'Y k<> l<m<x+ +",
"n<o<p<Y^q<r<s<t<u<V/v<w<x<y<z<Z!_)H)-@k{E^V$A<a-B<x%C<B<x%B<D<E<F<G<H<6$N$[!+(+(V]J]~=6^I<G^J<J<*_o~K<'+L<M<N<O<P<~$={8-.'***#t,",
"Q<R<S<O]T<U<V<W<X<Y<Z<`< [.[+[,:F^K!-@w'@[x@#[$[J]J]B<B<B<B<D<%[r!&[*[N$+%+%B<J]J]J]J>=[-[;[;[Z!*_o{>[$<,['[)[U-![@;v)M*~[{$_+{[",
"][^[/[a^([L(_[:[<[h<[[}[|[1[2[}/G_3[x:J>+%4[|^b!I=J]B<B<+%V]5[6[7[8[9[+%+%+%J]J]0[t*a[b[c[M=d[*_*_G_F%e[f[u/_$g[h[k<k<i[j[d&**J=",
"k[l[m[n[o[p[q[r[s[t[u[v[w[x[2[}/2[-@y[z[A[B[C[@[</D[E[J]+%V]F[G[H[I[J[+%+%K[J]V]J]L[!~M[N[O[N)K!1!1!P[Q[R[S[T[p_U[V[.:W W[a/G'X[",
"Y[Z[`[ }D+.}+}5,u;g'7/@}#}$}['K!%}&}*}=}-};}>},}'}8!)}I_v;E[!}~}@~{}]}^}v;@[E[/}(}x'_}:}<}[}}}|}1}2}d)3}4}9$>%u.m#7,p_q_.+5}6}7}",
"8}9}0}a}V-k/b}c}Y )]d}e}f}g}h}i}j}k}l}m}n}k:o}p}q}r}s}t}r}u}v}w}x}y}z}A}B}p}C}D}E}F}w:[:G}H}I}J}K}L}M}N}O}P}T+Q}R#B>a/M*R}S}T}f)",
"U}O v'V}W}V}X}h'C>Y}Z}`} |.|+|@|#|$|%|&|*|h,=|-|;|'@>|,|'|)|!|~|{|]|^|/|=}(|_|:|<|e!D/1!2}[|}|||1|2|3|4|5|6|W 7|A,B*p;M*6|~[t.8|",
"9|Q}0|/*N l;a|U@b|W$$+c|f'd|e|f|@=g|h|i|j|k|l|m|n|o|p|q|r|s|t|u|v|w|x|y|z|A|B|C|D|E|F|G|H|I|J|K|~_x+L|M|N|O|k<> P|t.t.Y T}R}_+~[",
"Q|R|..m#1.4&S|T|U|T|V|W|X|Y|:[Z|`| 1k@.1+1@1#1$1%1&1*1:+}@=1-1;1a/>1/&V,,1.:'1)1!1~1{1]1^1/1(1_1P<(1o@:1<1_~8-[18-F>)!}1|1f)E(11",
"21x 31B+E~;#41516171819101a1b1c1d1e1a-f1g1h1i1j1n~`{={2^2^k1l1m17}n1P<o1)~.:p1N!}/q1r1s1t1u1v1!!w1*#)#x1y1z1j[F+W **A1X B1C1P}D1",
"x E1L_F1F )+G1H1I1J1K1`{L1M1N1:(O1P1 {Q1C)R1S1L}F&N[,(s#T1U1V1W1X1m<[@Y1C&Z1`1 2.2+2@2#2$2%2&2*2=2#%C#-2;2t+>2~$,2c.'2^_)2D%P}!2",
"B=~2C=c.N*{2]2^2h*/2(2{&(|*}_2:201<2[2B&`{}2J/o~H&C&Y@{$ 'z*|21222P}=2324252N[k!]+-_e~62R=j(]+x:4(7282P}-&T1j[F>c.92|&I%I/02a2b2",
"c2d2e2>>9|f2g2h2U@m#B>4}i2x<j2k2l2V'm2n2o2p2q2r2s2t2 'J=u2v2w2x2y2z2>>A252B2+'J$C2D2E2F2G2O!i,N!U{K<H2P}I2J2h2)!s.n;U@><2.e={]E#",
"K2L2}&j[J27|'2M2N2R(q%g%O2P2Q2C(R2S2T2=/U2V2W2P+,~r/ '**7|X2Y2Z2`2 3.34'!:+3@3#3r/P[$3%3W2&3T~v]*36!=3D%-3=2;3>3,3c-'3)3h2T1!3l<",
"~3{3]3^3J%8&/3(3'2d.'$_3:3<3[3}3|3r>13E^Z:#;e=23Y@Y@M*M2v.334353637383Y@:]93I_03a3,3I/021'1'c}b3C+c3d3~+=%J=$+e3f3n:L$g3,3h3W[B!",
"d3&+q%4(i3B*j3e_@_T+k3l3m3n3o3p3q3r3s3O/k{t3u3P v3A:F+(10|w3x3y3z3A3K#D[B3C3D3E3F3z1#3G3,,H3I3![P<=+B+J3K3v/a_L3M3Z:Z:/^t#N3T1O3",
"~>02L$k([!J$P3%=P3&=x:,+Q3d%c%R3l)S3T3-&.~U3F%V3W3X3:}Y3Y32[Z3$!N!j(y1`3G3x~ 4.4r-&;.~S.F%; +4@40!#4$4%4&4+[.{k@*4k@=4x'N=s;F}-4",
"y~y~!~;4%4j(b~I2y1;2j~>4,4'4)4u!!4~4,[{4]4)4^4/4(4u!^4^4,+{4_4W|L<:4<4[4)4}4|414L<]&6!`)24{&344444r-54H&+*y~-@s'64:});74849404a4"};
