/* XPM */
static char * enemy_xpm[] = {
"64 64 3334 2",
"  	c #60676D",
". 	c #595E64",
"+ 	c #5A5E63",
"@ 	c #5B5F63",
"# 	c #595E61",
"$ 	c #53585D",
"% 	c #585E61",
"& 	c #575C60",
"* 	c #5A6064",
"= 	c #52585E",
"- 	c #4A5055",
"; 	c #212221",
"> 	c #373839",
", 	c #474C4F",
"' 	c #505658",
") 	c #4D5456",
"! 	c #4A5053",
"~ 	c #494E50",
"{ 	c #434647",
"] 	c #232121",
"^ 	c #2E3132",
"/ 	c #51585D",
"( 	c #54595C",
"_ 	c #4E5052",
": 	c #4A4C4C",
"< 	c #47484B",
"[ 	c #4B4C4E",
"} 	c #525355",
"| 	c #4E5154",
"1 	c #505457",
"2 	c #2E3030",
"3 	c #1A1C1B",
"4 	c #5D666B",
"5 	c #5A6167",
"6 	c #545858",
"7 	c #555452",
"8 	c #4E4B4A",
"9 	c #4A4547",
"0 	c #544F4C",
"a 	c #5B514A",
"b 	c #655953",
"c 	c #5A4E4D",
"d 	c #514947",
"e 	c #2B2722",
"f 	c #5B453A",
"g 	c #70584E",
"h 	c #6E5F5A",
"i 	c #6F6661",
"j 	c #696562",
"k 	c #666362",
"l 	c #5A5556",
"m 	c #3F3A3A",
"n 	c #1B1B17",
"o 	c #545D60",
"p 	c #5F666B",
"q 	c #5E6366",
"r 	c #585D5E",
"s 	c #4B4E52",
"t 	c #4E5051",
"u 	c #4A4C4D",
"v 	c #424446",
"w 	c #3F4044",
"x 	c #43474B",
"y 	c #494A50",
"z 	c #5B6066",
"A 	c #4C4F52",
"B 	c #4B4D4E",
"C 	c #505252",
"D 	c #515354",
"E 	c #4A4D4F",
"F 	c #47484A",
"G 	c #4B4C4D",
"H 	c #4A4A4C",
"I 	c #494C50",
"J 	c #3B3F44",
"K 	c #1B1D1C",
"L 	c #2F3231",
"M 	c #3C3E41",
"N 	c #3F3F3F",
"O 	c #363435",
"P 	c #313030",
"Q 	c #363534",
"R 	c #303131",
"S 	c #1E1C1B",
"T 	c #303334",
"U 	c #4F5960",
"V 	c #464B4D",
"W 	c #3B3A3B",
"X 	c #3A3B3B",
"Y 	c #3A3A3B",
"Z 	c #3C3D3C",
"` 	c #3A3C3C",
" .	c #3C3E3E",
"..	c #404345",
"+.	c #242727",
"@.	c #5B656A",
"#.	c #5D6468",
"$.	c #4E4C4B",
"%.	c #4E4641",
"&.	c #51463E",
"*.	c #4A3C37",
"=.	c #503F39",
"-.	c #574339",
";.	c #5B463D",
">.	c #5B4C47",
",.	c #4F4743",
"'.	c #272522",
").	c #4B3328",
"!.	c #5D3E31",
"~.	c #5D4338",
"{.	c #58443A",
"].	c #4D3C37",
"^.	c #594D48",
"/.	c #544A47",
"(.	c #363130",
"_.	c #4A5054",
":.	c #53565B",
"<.	c #55575A",
"[.	c #555758",
"}.	c #454748",
"|.	c #454444",
"1.	c #3E3C3E",
"2.	c #363538",
"3.	c #424445",
"4.	c #45484C",
"5.	c #575E62",
"6.	c #484B4C",
"7.	c #3E3E3F",
"8.	c #414143",
"9.	c #464849",
"0.	c #434345",
"a.	c #434444",
"b.	c #464745",
"c.	c #3E3F40",
"d.	c #424647",
"e.	c #353A3C",
"f.	c #131414",
"g.	c #282B2E",
"h.	c #404144",
"i.	c #424342",
"j.	c #333231",
"k.	c #2C2B2A",
"l.	c #302F2E",
"m.	c #262729",
"n.	c #1A1919",
"o.	c #303637",
"p.	c #505C63",
"q.	c #464B4F",
"r.	c #3B3B3C",
"s.	c #393A3B",
"t.	c #3A3C3D",
"u.	c #3B3E3F",
"v.	c #404448",
"w.	c #252729",
"x.	c #17191A",
"y.	c #59636A",
"z.	c #585F67",
"A.	c #403B3C",
"B.	c #463A34",
"C.	c #504034",
"D.	c #4C3A30",
"E.	c #534138",
"F.	c #544036",
"G.	c #4A3530",
"H.	c #534440",
"I.	c #494440",
"J.	c #1A1C1C",
"K.	c #37231B",
"L.	c #543729",
"M.	c #553A2D",
"N.	c #472F27",
"O.	c #473129",
"P.	c #4C3932",
"Q.	c #51433E",
"R.	c #3B3432",
"S.	c #181718",
"T.	c #44474F",
"U.	c #505258",
"V.	c #4F5154",
"W.	c #505253",
"X.	c #505050",
"Y.	c #494848",
"Z.	c #39373A",
"`.	c #323034",
" +	c #333436",
".+	c #3B3D3E",
"++	c #414245",
"@+	c #53595F",
"#+	c #434446",
"$+	c #3D3D3D",
"%+	c #3E3E41",
"&+	c #424447",
"*+	c #3E3E42",
"=+	c #424041",
"-+	c #424141",
";+	c #414442",
">+	c #35393B",
",+	c #161616",
"'+	c #2D2F30",
")+	c #474A4C",
"!+	c #393A3E",
"~+	c #37393B",
"{+	c #3E3F3C",
"]+	c #1C1B1C",
"^+	c #2A3033",
"/+	c #4C5960",
"(+	c #464C4F",
"_+	c #3B3C3C",
":+	c #383A3A",
"<+	c #383C3C",
"[+	c #3B3E3E",
"}+	c #3C4041",
"|+	c #414549",
"1+	c #242628",
"2+	c #141617",
"3+	c #525C64",
"4+	c #515962",
"5+	c #3F3938",
"6+	c #41352E",
"7+	c #43342A",
"8+	c #412E25",
"9+	c #483831",
"0+	c #524239",
"a+	c #4B3D36",
"b+	c #504441",
"c+	c #4A4644",
"d+	c #1C1E1B",
"e+	c #2B1A13",
"f+	c #41281D",
"g+	c #462D23",
"h+	c #3B251E",
"i+	c #433027",
"j+	c #4C3931",
"k+	c #4C3C36",
"l+	c #322927",
"m+	c #181818",
"n+	c #4A4F54",
"o+	c #5D5F63",
"p+	c #555759",
"q+	c #454142",
"r+	c #363136",
"s+	c #313033",
"t+	c #2F3033",
"u+	c #343539",
"v+	c #3A3B3E",
"w+	c #4E545A",
"x+	c #3D3E3F",
"y+	c #3B3C39",
"z+	c #404241",
"A+	c #444649",
"B+	c #454546",
"C+	c #42413F",
"D+	c #3D3937",
"E+	c #363233",
"F+	c #383838",
"G+	c #303437",
"H+	c #1A191A",
"I+	c #333435",
"J+	c #4A4F50",
"K+	c #4B5152",
"L+	c #43494C",
"M+	c #3F4648",
"N+	c #424745",
"O+	c #353837",
"P+	c #1D1D1F",
"Q+	c #2A3234",
"R+	c #4B5960",
"S+	c #444C4F",
"T+	c #393B3D",
"U+	c #373B3C",
"V+	c #373B3D",
"W+	c #3A3E3E",
"X+	c #3D4141",
"Y+	c #45484B",
"Z+	c #292A2B",
"`+	c #161819",
" @	c #535B62",
".@	c #443F3C",
"+@	c #3F342E",
"@@	c #3D2E28",
"#@	c #3F302B",
"$@	c #483E38",
"%@	c #504840",
"&@	c #4F4643",
"*@	c #534E4D",
"=@	c #4E4B4D",
"-@	c #222223",
";@	c #30221B",
">@	c #3C281E",
",@	c #3F2C23",
"'@	c #362421",
")@	c #342420",
"!@	c #42322B",
"~@	c #41322D",
"{@	c #2D2624",
"]@	c #191A1A",
"^@	c #585C5E",
"/@	c #4E4F52",
"(@	c #454548",
"_@	c #474647",
":@	c #413D3F",
"<@	c #3C393A",
"[@	c #3B3A3A",
"}@	c #353738",
"|@	c #343639",
"1@	c #36363A",
"2@	c #4A4F58",
"3@	c #3B3C3E",
"4@	c #3F3F3B",
"5@	c #3F3E3C",
"6@	c #414140",
"7@	c #484743",
"8@	c #43403C",
"9@	c #3D3935",
"0@	c #373030",
"a@	c #373435",
"b@	c #313436",
"c@	c #181717",
"d@	c #343635",
"e@	c #474C4E",
"f@	c #454E50",
"g@	c #434B4F",
"h@	c #3F4649",
"i@	c #3F4342",
"j@	c #3F4241",
"k@	c #252424",
"l@	c #2C3335",
"m@	c #4D5B62",
"n@	c #424B4F",
"o@	c #383C3D",
"p@	c #785F7A",
"q@	c #522256",
"r@	c #502154",
"s@	c #4F2152",
"t@	c #4D2150",
"u@	c #4B214F",
"v@	c #4A1F4E",
"w@	c #4C214F",
"x@	c #432046",
"y@	c #301B34",
"z@	c #1F1523",
"A@	c #241D29",
"B@	c #30373C",
"C@	c #2F383C",
"D@	c #828185",
"E@	c #4B4543",
"F@	c #524F4F",
"G@	c #494749",
"H@	c #1C1C1B",
"I@	c #31241B",
"J@	c #3D2A20",
"K@	c #38261E",
"L@	c #35241E",
"M@	c #362823",
"N@	c #3E302A",
"O@	c #463833",
"P@	c #322C29",
"Q@	c #151716",
"R@	c #41484A",
"S@	c #515355",
"T@	c #4C4B4F",
"U@	c #434344",
"V@	c #404040",
"W@	c #403D3E",
"X@	c #3D393B",
"Y@	c #3C3C39",
"Z@	c #363637",
"`@	c #323337",
" #	c #313236",
".#	c #4B5158",
"+#	c #3A3C3E",
"@#	c #3B3C38",
"##	c #3E3B38",
"$#	c #413E3D",
"%#	c #48433F",
"&#	c #3C3434",
"*#	c #403A37",
"=#	c #3A3B3D",
"-#	c #1A1A16",
";#	c #2F3131",
">#	c #43474A",
",#	c #3E4648",
"'#	c #495354",
")#	c #464E4F",
"!#	c #35383B",
"~#	c #734E75",
"{#	c #8D428F",
"]#	c #8A368C",
"^#	c #8A378C",
"/#	c #923B95",
"(#	c #9F3EA2",
"_#	c #9E3EA1",
":#	c #9D3EA0",
"<#	c #9D3EA1",
"[#	c #9C3DA0",
"}#	c #993B9D",
"|#	c #7E2E84",
"1#	c #7D3083",
"2#	c #752D7A",
"3#	c #602664",
"4#	c #4E2252",
"5#	c #3D2741",
"6#	c #3D4B4E",
"7#	c #435556",
"8#	c #415E5E",
"9#	c #425F60",
"0#	c #455C5D",
"a#	c #4C484F",
"b#	c #1D1A18",
"c#	c #241914",
"d#	c #2F201A",
"e#	c #271B17",
"f#	c #2E211E",
"g#	c #3B2F29",
"h#	c #352A24",
"i#	c #42362F",
"j#	c #342E2A",
"k#	c #181918",
"l#	c #3C4043",
"m#	c #464749",
"n#	c #414144",
"o#	c #434343",
"p#	c #404240",
"q#	c #393638",
"r#	c #353233",
"s#	c #343332",
"t#	c #343333",
"u#	c #353536",
"v#	c #353435",
"w#	c #4B535A",
"x#	c #393B3F",
"y#	c #393736",
"z#	c #433C3A",
"A#	c #453E3B",
"B#	c #403A39",
"C#	c #424240",
"D#	c #424645",
"E#	c #3D4144",
"F#	c #191916",
"G#	c #2D2D2E",
"H#	c #3E4044",
"I#	c #43484D",
"J#	c #464F50",
"K#	c #434849",
"L#	c #6C416D",
"M#	c #904791",
"N#	c #A03CA1",
"O#	c #B347B2",
"P#	c #B54AB6",
"Q#	c #B548B6",
"R#	c #B648B7",
"S#	c #B648B6",
"T#	c #B448B5",
"U#	c #B547B6",
"V#	c #B548B7",
"W#	c #B649B7",
"X#	c #A941AC",
"Y#	c #A748AA",
"Z#	c #792C7E",
"`#	c #772D7C",
" $	c #732D79",
".$	c #6A2B70",
"+$	c #3F2044",
"@$	c #302F36",
"#$	c #4B6565",
"$$	c #465759",
"%$	c #485C5D",
"&$	c #4B716D",
"*$	c #475F5E",
"=$	c #38343A",
"-$	c #211918",
";$	c #1E1717",
">$	c #231B1A",
",$	c #2D2420",
"'$	c #2E2621",
")$	c #372E27",
"!$	c #292320",
"~$	c #393C3E",
"{$	c #3B3D3F",
"]$	c #393A3C",
"^$	c #3D3E3E",
"/$	c #383839",
"($	c #302E30",
"_$	c #2F2D2F",
":$	c #323030",
"<$	c #2F2E2F",
"[$	c #302F30",
"}$	c #2C2B2D",
"|$	c #54595F",
"1$	c #3A3B3F",
"2$	c #373131",
"3$	c #403938",
"4$	c #46413E",
"5$	c #3C4143",
"6$	c #3D4548",
"7$	c #495154",
"8$	c #1D1C19",
"9$	c #2F2E2E",
"0$	c #3B3B3F",
"a$	c #733675",
"b$	c #863A88",
"c$	c #BA64BA",
"d$	c #CC76CC",
"e$	c #CC71CC",
"f$	c #CD76CC",
"g$	c #CD7ACD",
"h$	c #CC77CC",
"i$	c #C76CC7",
"j$	c #B445B5",
"k$	c #B547B5",
"l$	c #BA4FBA",
"m$	c #CD6BCC",
"n$	c #D476D3",
"o$	c #D379D2",
"p$	c #B548B4",
"q$	c #A03FA1",
"r$	c #933995",
"s$	c #7C2F81",
"t$	c #762E7C",
"u$	c #752E79",
"v$	c #6B2C6E",
"w$	c #341C38",
"x$	c #46595A",
"y$	c #3D4246",
"z$	c #3F4447",
"A$	c #404649",
"B$	c #4A5E5D",
"C$	c #51706D",
"D$	c #3D4D4D",
"E$	c #747275",
"F$	c #211C1D",
"G$	c #261F1D",
"H$	c #221B19",
"I$	c #211A19",
"J$	c #1B1617",
"K$	c #121112",
"L$	c #2C2D2F",
"M$	c #2E2E30",
"N$	c #29282A",
"O$	c #2C2C2E",
"P$	c #2E2D2E",
"Q$	c #2A292B",
"R$	c #2C2B2B",
"S$	c #262427",
"T$	c #222023",
"U$	c #201E20",
"V$	c #4F5359",
"W$	c #424143",
"X$	c #3A3837",
"Y$	c #3E3A35",
"Z$	c #433D39",
"`$	c #403E3E",
" %	c #434648",
".%	c #414648",
"+%	c #444A4E",
"@%	c #414447",
"#%	c #1F1D1A",
"$%	c #2B2A2A",
"%%	c #947B95",
"&%	c #933B93",
"*%	c #B94DB8",
"=%	c #BA5AB9",
"-%	c #B360B3",
";%	c #B664B7",
">%	c #B563B5",
",%	c #B360B4",
"'%	c #B260B4",
")%	c #B25EB4",
"!%	c #AD59B0",
"~%	c #A03DA3",
"{%	c #B146B3",
"]%	c #C45EC3",
"^%	c #BD52BC",
"/%	c #B64AB8",
"(%	c #B64AB7",
"_%	c #AD45AF",
":%	c #89338E",
"<%	c #742D79",
"[%	c #732E78",
"}%	c #722E76",
"|%	c #361B3A",
"1%	c #425153",
"2%	c #3E4346",
"3%	c #3E4446",
"4%	c #404547",
"5%	c #3E4347",
"6%	c #3F4548",
"7%	c #383B3F",
"8%	c #6A6A6C",
"9%	c #171412",
"0%	c #171415",
"a%	c #181414",
"b%	c #171314",
"c%	c #131213",
"d%	c #191717",
"e%	c #1A1918",
"f%	c #1D1D1D",
"g%	c #1E1E1C",
"h%	c #181817",
"i%	c #161618",
"j%	c #191819",
"k%	c #161515",
"l%	c #110F10",
"m%	c #110F11",
"n%	c #484747",
"o%	c #3D3B38",
"p%	c #3C3835",
"q%	c #3F3B39",
"r%	c #3D3E40",
"s%	c #434848",
"t%	c #434949",
"u%	c #414649",
"v%	c #404549",
"w%	c #3A3D41",
"x%	c #1C1B18",
"y%	c #876B88",
"z%	c #983B99",
"A%	c #BB54BA",
"B%	c #D378D0",
"C%	c #D97FD5",
"D%	c #DC81D8",
"E%	c #DD83D8",
"F%	c #DD85D8",
"G%	c #DC82D9",
"H%	c #C461C4",
"I%	c #C25DC2",
"J%	c #BC59BD",
"K%	c #963A99",
"L%	c #9A3B9C",
"M%	c #B749B7",
"N%	c #A03FA3",
"O%	c #A23FA5",
"P%	c #9A3B9D",
"Q%	c #7C2E81",
"R%	c #732D77",
"S%	c #712C76",
"T%	c #692A6C",
"U%	c #301934",
"V%	c #343239",
"W%	c #303236",
"X%	c #303235",
"Y%	c #37393D",
"Z%	c #28272D",
"`%	c #5B5A5D",
" &	c #141213",
".&	c #141013",
"+&	c #191517",
"@&	c #1E1B1B",
"#&	c #1E1D1D",
"$&	c #18181A",
"%&	c #141414",
"&&	c #10100F",
"*&	c #111010",
"=&	c #0E0E0F",
"-&	c #121211",
";&	c #171616",
">&	c #1A1B1B",
",&	c #151415",
"'&	c #46484D",
")&	c #3D3D3E",
"!&	c #3A3634",
"~&	c #373432",
"{&	c #3C3B3A",
"]&	c #3E4242",
"^&	c #424545",
"/&	c #414546",
"(&	c #414345",
"_&	c #805082",
":&	c #A642A7",
"<&	c #B346B4",
"[&	c #D67AD3",
"}&	c #DD83D9",
"|&	c #DD84D8",
"1&	c #DA7ED5",
"2&	c #D87CD4",
"3&	c #C15DC1",
"4&	c #B647B7",
"5&	c #B447B5",
"6&	c #B246B4",
"7&	c #9D3DA0",
"8&	c #923895",
"9&	c #AD44AF",
"0&	c #AE47B0",
"a&	c #973B9B",
"b&	c #8C3591",
"c&	c #8D3591",
"d&	c #89348D",
"e&	c #6E2A73",
"f&	c #6C2B70",
"g&	c #6B2B6F",
"h&	c #58255B",
"i&	c #3B2F44",
"j&	c #2F353D",
"k&	c #2B3439",
"l&	c #2B3438",
"m&	c #2B3237",
"n&	c #2A3237",
"o&	c #2B3338",
"p&	c #2C3338",
"q&	c #383E41",
"r&	c #323338",
"s&	c #2E3236",
"t&	c #404B4D",
"u&	c #5D5B5E",
"v&	c #1D1919",
"w&	c #1B1719",
"x&	c #2E2A2A",
"y&	c #2E2B2B",
"z&	c #272324",
"A&	c #221E1D",
"B&	c #1C1A1A",
"C&	c #1E1E1F",
"D&	c #232629",
"E&	c #293032",
"F&	c #272C2F",
"G&	c #2B2E31",
"H&	c #222225",
"I&	c #45454A",
"J&	c #39383C",
"K&	c #393837",
"L&	c #3C3C3B",
"M&	c #3B3D3D",
"N&	c #3E4243",
"O&	c #424646",
"P&	c #404445",
"Q&	c #464A4B",
"R&	c #874A89",
"S&	c #AE43AE",
"T&	c #B84AB6",
"U&	c #BD52BE",
"V&	c #C359C4",
"W&	c #D273D0",
"X&	c #D579D2",
"Y&	c #D87DD3",
"Z&	c #C25CC0",
"`&	c #B547B7",
" *	c #B447B6",
".*	c #B346B5",
"+*	c #A840AA",
"@*	c #8C358F",
"#*	c #8A358C",
"$*	c #8C378F",
"%*	c #85338A",
"&*	c #782D7C",
"**	c #67266D",
"=*	c #69286E",
"-*	c #6A2A6E",
";*	c #622766",
">*	c #484556",
",*	c #4C6766",
"'*	c #519269",
")*	c #4D9966",
"!*	c #4F9468",
"~*	c #526D6E",
"{*	c #527271",
"]*	c #547775",
"^*	c #516D6D",
"/*	c #364547",
"(*	c #354749",
"_*	c #425555",
":*	c #3F484B",
"<*	c #474548",
"[*	c #241E1C",
"}*	c #1C1A18",
"|*	c #2A2221",
"1*	c #251C1C",
"2*	c #211818",
"3*	c #2B231F",
"4*	c #221C1B",
"5*	c #241F1F",
"6*	c #2C2D2E",
"7*	c #343A3A",
"8*	c #2D3234",
"9*	c #26282C",
"0*	c #1F1F22",
"a*	c #47494D",
"b*	c #3E4042",
"c*	c #3E4141",
"d*	c #3E4142",
"e*	c #3C4142",
"f*	c #3F4446",
"g*	c #43494B",
"h*	c #454A4D",
"i*	c #69346D",
"j*	c #A23DA4",
"k*	c #B845B7",
"l*	c #B847B7",
"m*	c #BC4FBF",
"n*	c #BC4DC0",
"o*	c #BE4FC1",
"p*	c #BD51BE",
"q*	c #BF57BF",
"r*	c #B747B7",
"s*	c #B647B8",
"t*	c #B145B4",
"u*	c #9A3A9D",
"v*	c #953998",
"w*	c #A641A9",
"x*	c #A13EA5",
"y*	c #9F3CA2",
"z*	c #8B358F",
"A*	c #772E7B",
"B*	c #6A296F",
"C*	c #6A2A6F",
"D*	c #6B2B70",
"E*	c #5F2763",
"F*	c #474B59",
"G*	c #4B6465",
"H*	c #444F51",
"I*	c #39A930",
"J*	c #99E35A",
"K*	c #38B12C",
"L*	c #3F4347",
"M*	c #485B59",
"N*	c #4D6965",
"O*	c #2E2E33",
"P*	c #4A6E6C",
"Q*	c #424C4F",
"R*	c #2A282E",
"S*	c #48454B",
"T*	c #1B1819",
"U*	c #251C1F",
"V*	c #201716",
"W*	c #1D1413",
"X*	c #231A1A",
"Y*	c #201A18",
"Z*	c #191312",
"`*	c #24201E",
" =	c #2B2B2A",
".=	c #282728",
"+=	c #2A2928",
"@=	c #211F1F",
"#=	c #3F4246",
"$=	c #414346",
"%=	c #3C3D3F",
"&=	c #3C3E40",
"*=	c #393D40",
"==	c #3D4245",
"-=	c #816B83",
";=	c #8E368F",
">=	c #B243B2",
",=	c #B043B1",
"'=	c #AE41AF",
")=	c #AE41B2",
"!=	c #B041B4",
"~=	c #B647B9",
"{=	c #B748B9",
"]=	c #B747B8",
"^=	c #A843AB",
"/=	c #944299",
"(=	c #B95BBC",
"_=	c #9B3B9F",
":=	c #993C9D",
"<=	c #923B96",
"[=	c #7A2F7D",
"}=	c #6C2A71",
"|=	c #6C2A70",
"1=	c #6A2B6F",
"2=	c #5D2761",
"3=	c #404C54",
"4=	c #4B5E5F",
"5=	c #424A4D",
"6=	c #38A82F",
"7=	c #B0F165",
"8=	c #37AF2D",
"9=	c #475B59",
"0=	c #4C6964",
"a=	c #3F4448",
"b=	c #2D2D32",
"c=	c #4D716E",
"d=	c #445153",
"e=	c #303035",
"f=	c #2D2C31",
"g=	c #2B292E",
"h=	c #27242B",
"i=	c #3E3A40",
"j=	c #1D1817",
"k=	c #261E1A",
"l=	c #2C2420",
"m=	c #251A19",
"n=	c #241916",
"o=	c #1F1613",
"p=	c #221916",
"q=	c #201B1A",
"r=	c #211E1E",
"s=	c #282623",
"t=	c #211E1D",
"u=	c #45484D",
"v=	c #424547",
"w=	c #434644",
"x=	c #3D3F40",
"y=	c #865588",
"z=	c #913892",
"A=	c #913992",
"B=	c #8E3890",
"C=	c #8C378E",
"D=	c #8B368F",
"E=	c #903894",
"F=	c #A742A9",
"G=	c #B749B8",
"H=	c #B748B8",
"I=	c #A240A5",
"J=	c #A452A7",
"K=	c #BB57BB",
"L=	c #9D3DA1",
"M=	c #983B9B",
"N=	c #7D3181",
"O=	c #6E2C73",
"P=	c #6C2B71",
"Q=	c #6A2C6F",
"R=	c #682B6D",
"S=	c #4F2154",
"T=	c #2E2933",
"U=	c #3C3F43",
"V=	c #404548",
"W=	c #3F8D3C",
"X=	c #399435",
"Y=	c #3C923A",
"Z=	c #455956",
"`=	c #4C6864",
" -	c #3D4145",
".-	c #2A292F",
"+-	c #4C706C",
"@-	c #445152",
"#-	c #3E4245",
"$-	c #2B282E",
"%-	c #2A272D",
"&-	c #242127",
"*-	c #737476",
"=-	c #2D2520",
"--	c #372E2A",
";-	c #271C1B",
">-	c #251817",
",-	c #281D1B",
"'-	c #201918",
")-	c #201919",
"!-	c #28211F",
"~-	c #201B19",
"{-	c #45464A",
"]-	c #3E3D3F",
"^-	c #3E3E3D",
"/-	c #403D3C",
"(-	c #3D3A39",
"_-	c #3F3E3B",
":-	c #3E3D3C",
"<-	c #3A3A3A",
"[-	c #8D348E",
"}-	c #903691",
"|-	c #A13EA3",
"1-	c #B846B9",
"2-	c #B745B9",
"3-	c #B645B9",
"4-	c #AD43B1",
"5-	c #88388C",
"6-	c #B649B9",
"7-	c #B648B8",
"8-	c #9B3E9E",
"9-	c #AC55AD",
"0-	c #B857B9",
"a-	c #A440A7",
"b-	c #7A317E",
"c-	c #6C2C71",
"d-	c #6B2C70",
"e-	c #6A2B6E",
"f-	c #682A6C",
"g-	c #532156",
"h-	c #531D54",
"i-	c #59235B",
"j-	c #2D2A32",
"k-	c #3A3F42",
"l-	c #394444",
"m-	c #40504F",
"n-	c #313136",
"o-	c #231E26",
"p-	c #3F5352",
"q-	c #434B4D",
"r-	c #414548",
"s-	c #3F4245",
"t-	c #2A282D",
"u-	c #252228",
"v-	c #515053",
"w-	c #5B595C",
"x-	c #5B5A5C",
"y-	c #5A5A5D",
"z-	c #58575A",
"A-	c #1D1614",
"B-	c #211816",
"C-	c #2E2521",
"D-	c #251F1D",
"E-	c #424145",
"F-	c #3E3B3C",
"G-	c #403C3B",
"H-	c #3E3938",
"I-	c #3D3736",
"J-	c #403B39",
"K-	c #3C3938",
"L-	c #835785",
"M-	c #8D358F",
"N-	c #8D3590",
"O-	c #7E3180",
"P-	c #6F2B72",
"Q-	c #6E2C72",
"R-	c #7D3481",
"S-	c #AD46B0",
"T-	c #B649B8",
"U-	c #923996",
"V-	c #B559B6",
"W-	c #B350B5",
"X-	c #A13FA4",
"Y-	c #993C9C",
"Z-	c #762F7B",
"`-	c #67296C",
" ;	c #441B47",
".;	c #5C205F",
"+;	c #87308A",
"@;	c #5B215F",
"#;	c #301932",
"$;	c #2C2B31",
"%;	c #2F2F34",
"&;	c #3B3F43",
"*;	c #404447",
"=;	c #2F3034",
"-;	c #2E2E32",
";;	c #2C2B2F",
">;	c #231F26",
",;	c #29292D",
"';	c #303034",
");	c #2F2E32",
"!;	c #29272C",
"~;	c #28252B",
"{;	c #3C4B4F",
"];	c #4F6E6A",
"^;	c #50746C",
"/;	c #4F766C",
"(;	c #4E766C",
"_;	c #4C716B",
":;	c #4F5A5D",
"<;	c #39373B",
"[;	c #1E1614",
"};	c #1E1817",
"|;	c #48494D",
"1;	c #424347",
"2;	c #424244",
"3;	c #3B3B3B",
"4;	c #3C3C3C",
"5;	c #414041",
"6;	c #3B3B3D",
"7;	c #5E2460",
"8;	c #7E3080",
"9;	c #7D3180",
"0;	c #7A2E7D",
"a;	c #7B2E7D",
"b;	c #782E7B",
"c;	c #6E2B71",
"d;	c #702B72",
"e;	c #923A95",
"f;	c #89358C",
"g;	c #833287",
"h;	c #A23FA4",
"i;	c #A240A6",
"j;	c #913995",
"k;	c #692B6E",
"l;	c #642868",
"m;	c #421B45",
"n;	c #5F2261",
"o;	c #812E85",
"p;	c #68276E",
"q;	c #59225E",
"r;	c #37183B",
"s;	c #271F2C",
"t;	c #29272E",
"u;	c #2A292E",
"v;	c #29282D",
"w;	c #28242B",
"x;	c #26232A",
"y;	c #231F27",
"z;	c #334145",
"A;	c #344547",
"B;	c #304143",
"C;	c #24292B",
"D;	c #2C2D33",
"E;	c #3B4543",
"F;	c #62AA40",
"G;	c #76DA45",
"H;	c #75D947",
"I;	c #72D645",
"J;	c #39B82D",
"K;	c #3A3B41",
"L;	c #26242B",
"M;	c #868788",
"N;	c #1E1716",
"O;	c #171312",
"P;	c #464A4F",
"Q;	c #3E4041",
"R;	c #404041",
"S;	c #3F4040",
"T;	c #7A5A7C",
"U;	c #833086",
"V;	c #803084",
"W;	c #88348A",
"X;	c #8F3892",
"Y;	c #8F3791",
"Z;	c #8B368E",
"`;	c #923795",
" >	c #923695",
".>	c #762D7A",
"+>	c #6F2A73",
"@>	c #A43DA5",
"#>	c #B043B2",
"$>	c #843389",
"%>	c #6E2B73",
"&>	c #5A245E",
"*>	c #421A44",
"=>	c #78297B",
"->	c #7D2B81",
";>	c #642669",
">>	c #65276B",
",>	c #5B2360",
"'>	c #47194A",
")>	c #3A163C",
"!>	c #291E2D",
"~>	c #29262E",
"{>	c #29272D",
"]>	c #221E26",
"^>	c #252129",
"/>	c #242129",
"(>	c #232027",
"_>	c #435E5D",
":>	c #577C7A",
"<>	c #4B6364",
"[>	c #4B6363",
"}>	c #394341",
"|>	c #221D26",
"1>	c #313E36",
"2>	c #9BC95E",
"3>	c #C6FD74",
"4>	c #C7FD76",
"5>	c #C6FD76",
"6>	c #C2FB73",
"7>	c #3BB52E",
"8>	c #3B3D42",
"9>	c #727274",
"0>	c #231E1C",
"a>	c #1B1A19",
"b>	c #494D50",
"c>	c #444749",
"d>	c #3C3D3E",
"e>	c #3B3939",
"f>	c #3B3837",
"g>	c #393637",
"h>	c #4A1D4C",
"i>	c #642767",
"j>	c #431C47",
"k>	c #421C45",
"l>	c #431C46",
"m>	c #401B42",
"n>	c #421C44",
"o>	c #4F1F52",
"p>	c #67266A",
"q>	c #6C296F",
"r>	c #752B79",
"s>	c #933697",
"t>	c #6B2B71",
"u>	c #6B2A70",
"v>	c #5E2463",
"w>	c #441947",
"x>	c #732B76",
"y>	c #762A7A",
"z>	c #69276F",
"A>	c #642769",
"B>	c #5C2360",
"C>	c #4A1C4F",
"D>	c #4D1C51",
"E>	c #461948",
"F>	c #29152C",
"G>	c #201924",
"H>	c #1D1520",
"I>	c #201A24",
"J>	c #211C25",
"K>	c #211B25",
"L>	c #3E595A",
"M>	c #568079",
"N>	c #41AC4F",
"O>	c #36AC2E",
"P>	c #36A632",
"Q>	c #3B3E42",
"R>	c #221C25",
"S>	c #323D36",
"T>	c #5DA842",
"U>	c #6FD445",
"V>	c #6DD445",
"W>	c #6DD545",
"X>	c #6CD445",
"Y>	c #38B62F",
"Z>	c #393C40",
"`>	c #2D2723",
" ,	c #24211F",
".,	c #434549",
"+,	c #3E3E40",
"@,	c #3A3937",
"#,	c #3A3838",
"$,	c #532256",
"%,	c #9C4B9D",
"&,	c #CA6CCA",
"*,	c #CA6ECA",
"=,	c #C96ECA",
"-,	c #C96FCA",
";,	c #964899",
">,	c #A444A7",
",,	c #AB46AD",
"',	c #9F40A2",
"),	c #69286B",
"!,	c #662769",
"~,	c #913694",
"{,	c #7C2F80",
"],	c #6F2C73",
"^,	c #6C2B72",
"/,	c #6C2A72",
"(,	c #632768",
"_,	c #4C1F50",
":,	c #7C2C82",
"<,	c #6D2973",
"[,	c #622668",
"},	c #612565",
"|,	c #5A235E",
"1,	c #441A47",
"2,	c #4E1D51",
"3,	c #461A48",
"4,	c #261529",
"5,	c #26242C",
"6,	c #1E1622",
"7,	c #344A4A",
"8,	c #4F796E",
"9,	c #4B746B",
"0,	c #4E746F",
"a,	c #517573",
"b,	c #37494D",
"c,	c #4B706B",
"d,	c #3CB33C",
"e,	c #BBF76C",
"f,	c #34B92A",
"g,	c #3A3C41",
"h,	c #211C24",
"i,	c #3B3D41",
"j,	c #3A3E42",
"k,	c #2E2D33",
"l,	c #39373D",
"m,	c #372A25",
"n,	c #312623",
"o,	c #231C1B",
"p,	c #424548",
"q,	c #3D3A38",
"r,	c #3B3737",
"s,	c #5A205E",
"t,	c #89368C",
"u,	c #863287",
"v,	c #7A2F7B",
"w,	c #762E78",
"x,	c #752E77",
"y,	c #742C76",
"z,	c #AD51B1",
"A,	c #BC62BE",
"B,	c #A746A9",
"C,	c #A745A9",
"D,	c #9E40A1",
"E,	c #702D75",
"F,	c #8C3490",
"G,	c #732C77",
"H,	c #5A745B",
"I,	c #587B59",
"J,	c #567558",
"K,	c #5E6361",
"L,	c #6A286F",
"M,	c #4B1E4F",
"N,	c #401942",
"O,	c #6C2871",
"P,	c #6A2970",
"Q,	c #56225A",
"R,	c #451A48",
"S,	c #461B4A",
"T,	c #451B48",
"U,	c #401842",
"V,	c #341836",
"W,	c #241C28",
"X,	c #211D25",
"Y,	c #3A5152",
"Z,	c #476C63",
"`,	c #468635",
" '	c #6EB640",
".'	c #5C933F",
"+'	c #3E4646",
"@'	c #2E2E34",
"#'	c #4C726E",
"$'	c #3BAA40",
"%'	c #93DC57",
"&'	c #37AD31",
"*'	c #3C3E42",
"='	c #201A23",
"-'	c #242128",
";'	c #26222A",
">'	c #252229",
",'	c #39353D",
"''	c #352723",
")'	c #312421",
"!'	c #322723",
"~'	c #29211E",
"{'	c #3C3A3B",
"]'	c #403E3C",
"^'	c #6A516B",
"/'	c #812F85",
"('	c #692B6C",
"_'	c #38443B",
":'	c #316C36",
"<'	c #2F6D35",
"['	c #2E6E34",
"}'	c #2D6A33",
"|'	c #4E3052",
"1'	c #A54FA7",
"2'	c #C162C2",
"3'	c #903C92",
"4'	c #AF4BB0",
"5'	c #8E3A92",
"6'	c #481D4C",
"7'	c #8D3690",
"8'	c #7F2E82",
"9'	c #43A339",
"0'	c #AEED67",
"a'	c #9FE05F",
"b'	c #4B884A",
"c'	c #5F2563",
"d'	c #3E1941",
"e'	c #431A46",
"f'	c #57205B",
"g'	c #542158",
"h'	c #481C4A",
"i'	c #421B46",
"j'	c #431B47",
"k'	c #3F1A41",
"l'	c #28142A",
"m'	c #231E28",
"n'	c #221E27",
"o'	c #486466",
"p'	c #445658",
"q'	c #466644",
"r'	c #608B4A",
"s'	c #527246",
"t'	c #3D4345",
"u'	c #2D2D33",
"v'	c #4C7470",
"w'	c #416D4F",
"x'	c #3E6D44",
"y'	c #3D6442",
"z'	c #313035",
"A'	c #201D25",
"B'	c #1D1621",
"C'	c #221F27",
"D'	c #1F1824",
"E'	c #25201F",
"F'	c #302B29",
"G'	c #2D2623",
"H'	c #2A201E",
"I'	c #332822",
"J'	c #2F241E",
"K'	c #2F231E",
"L'	c #271D1C",
"M'	c #3F4345",
"N'	c #3F3F3E",
"O'	c #3F3E3D",
"P'	c #683669",
"Q'	c #77337A",
"R'	c #2F6233",
"S'	c #4AB538",
"T'	c #67D540",
"U'	c #67D640",
"V'	c #47CF32",
"W'	c #2E9E2D",
"X'	c #318437",
"Y'	c #A84BAB",
"Z'	c #BE63C1",
"`'	c #8C3891",
" )	c #7E3283",
".)	c #4B1F4F",
"+)	c #8A368D",
"@)	c #7F3082",
"#)	c #478B46",
"$)	c #479044",
"%)	c #499747",
"&)	c #4F794F",
"*)	c #58225C",
"=)	c #3D1A41",
"-)	c #461B49",
";)	c #4A1C4D",
">)	c #2F1B34",
",)	c #26182A",
"')	c #251A2A",
"))	c #211425",
"!)	c #26242F",
"~)	c #343F43",
"{)	c #334042",
"])	c #2F3E3F",
"^)	c #476363",
"/)	c #465356",
"()	c #3E4447",
"_)	c #33353A",
":)	c #221E25",
"<)	c #4C736F",
"[)	c #455354",
"})	c #2B2A2F",
"|)	c #221F26",
"1)	c #1F1923",
"2)	c #1C1520",
"3)	c #221E1A",
"4)	c #1E1C17",
"5)	c #1F1B19",
"6)	c #221E1C",
"7)	c #26201C",
"8)	c #201815",
"9)	c #1F1713",
"0)	c #201817",
"a)	c #424344",
"b)	c #3E3E3E",
"c)	c #5B3C5C",
"d)	c #963A98",
"e)	c #2E4533",
"f)	c #54B63B",
"g)	c #A6F064",
"h)	c #C5FD75",
"i)	c #C5FD74",
"j)	c #7ADF47",
"k)	c #30CF21",
"l)	c #33B02F",
"m)	c #317638",
"n)	c #663668",
"o)	c #BB65BE",
"p)	c #6C2972",
"q)	c #67286D",
"r)	c #4C2050",
"s)	c #863689",
"t)	c #5F2561",
"u)	c #5D2560",
"v)	c #59235C",
"w)	c #451C49",
"x)	c #3B1A3E",
"y)	c #3B193E",
"z)	c #301E33",
"A)	c #26212B",
"B)	c #251F29",
"C)	c #2C2931",
"D)	c #241D28",
"E)	c #334547",
"F)	c #517272",
"G)	c #4E6968",
"H)	c #414D50",
"I)	c #35373A",
"J)	c #4A6F6C",
"K)	c #455153",
"L)	c #27242A",
"M)	c #1E1722",
"N)	c #231E27",
"O)	c #2A262D",
"P)	c #1E1922",
"Q)	c #201C1A",
"R)	c #1C1715",
"S)	c #1A1613",
"T)	c #13110F",
"U)	c #1A1411",
"V)	c #211916",
"W)	c #1F1815",
"X)	c #3D3C3D",
"Y)	c #573C5A",
"Z)	c #903892",
"`)	c #305532",
" !	c #73D847",
".!	c #AEF367",
"+!	c #7CE34A",
"@!	c #7BE249",
"#!	c #96E958",
"$!	c #A7F062",
"%!	c #50D234",
"&!	c #317738",
"*!	c #633165",
"=!	c #B057B3",
"-!	c #69296F",
";!	c #843587",
">!	c #772D79",
",!	c #612963",
"'!	c #5D295E",
")!	c #5D285F",
"!!	c #632766",
"~!	c #5A235F",
"{!	c #361839",
"]!	c #281C2B",
"^!	c #28212C",
"/!	c #27222B",
"(!	c #2B272F",
"_!	c #2D2931",
":!	c #2B262F",
"<!	c #334647",
"[!	c #4B6666",
"}!	c #3E4246",
"|!	c #302F34",
"1!	c #3C4B4D",
"2!	c #363A3E",
"3!	c #2C2A30",
"4!	c #1E1822",
"5!	c #232322",
"6!	c #2D2A2A",
"7!	c #2C2A29",
"8!	c #171716",
"9!	c #1A1917",
"0!	c #292523",
"a!	c #211C1A",
"b!	c #3E3F41",
"c!	c #39393A",
"d!	c #553B58",
"e!	c #2F5531",
"f!	c #72D947",
"g!	c #A3EE61",
"h!	c #3ED726",
"i!	c #3DD525",
"j!	c #A5EF61",
"k!	c #C4FC71",
"l!	c #56D338",
"m!	c #307738",
"n!	c #532456",
"o!	c #57215B",
"p!	c #5B2161",
"q!	c #3F1A42",
"r!	c #833487",
"s!	c #762F7A",
"t!	c #479F3F",
"u!	c #B1EB6D",
"v!	c #9DDD5E",
"w!	c #4E874E",
"x!	c #5C2560",
"y!	c #281E2D",
"z!	c #221C27",
"A!	c #28232C",
"B!	c #2C2930",
"C!	c #2C2730",
"D!	c #29242D",
"E!	c #324144",
"F!	c #475F60",
"G!	c #3C4044",
"H!	c #3D4044",
"I!	c #3A3C40",
"J!	c #2C2B30",
"K!	c #34343A",
"L!	c #28252C",
"M!	c #242028",
"N!	c #1F1922",
"O!	c #242425",
"P!	c #33302F",
"Q!	c #232323",
"R!	c #222423",
"S!	c #2F2C2A",
"T!	c #252120",
"U!	c #393838",
"V!	c #563C58",
"W!	c #923A94",
"X!	c #2F5330",
"Y!	c #70D845",
"Z!	c #B0F567",
"`!	c #6EE044",
" ~	c #3ED525",
".~	c #A4EF60",
"+~	c #C5FD73",
"@~	c #55D336",
"#~	c #2F7737",
"$~	c #502253",
"%~	c #8A358E",
"&~	c #4E1B52",
"*~	c #4E1C52",
"=~	c #3E1A40",
"-~	c #853589",
";~	c #6E2871",
">~	c #537E51",
",~	c #50804F",
"'~	c #526B52",
")~	c #522254",
"!~	c #2B2130",
"~~	c #231D28",
"{~	c #27232B",
"]~	c #28222C",
"^~	c #252029",
"/~	c #1C1420",
"(~	c #25222A",
"_~	c #29262D",
":~	c #221B25",
"<~	c #252128",
"[~	c #1F1A24",
"}~	c #201B24",
"|~	c #555358",
"1~	c #242323",
"2~	c #212121",
"3~	c #242627",
"4~	c #2A2C2E",
"5~	c #2B2E2F",
"6~	c #2C2F30",
"7~	c #282A2C",
"8~	c #444446",
"9~	c #3D3B3D",
"0~	c #393738",
"a~	c #5B425C",
"b~	c #933C95",
"c~	c #2E4A30",
"d~	c #6ECB45",
"e~	c #C9FE78",
"f~	c #B6F76D",
"g~	c #A1EF60",
"h~	c #B7F86A",
"i~	c #C4FD71",
"j~	c #57D537",
"k~	c #2F7636",
"l~	c #502153",
"m~	c #8C3690",
"n~	c #501D54",
"o~	c #3B193F",
"p~	c #88358C",
"q~	c #6F2673",
"r~	c #5B205F",
"s~	c #5C2160",
"t~	c #511D54",
"u~	c #331736",
"v~	c #2B1C2E",
"w~	c #221A26",
"x~	c #211A25",
"y~	c #3E5C5C",
"z~	c #496B6A",
"A~	c #466968",
"B~	c #456866",
"C~	c #466867",
"D~	c #456867",
"E~	c #334447",
"F~	c #201C24",
"G~	c #241F28",
"H~	c #221D25",
"I~	c #1D1320",
"J~	c #1C141F",
"K~	c #1D1521",
"L~	c #1C131F",
"M~	c #1B131F",
"N~	c #1C1320",
"O~	c #545256",
"P~	c #4A484D",
"Q~	c #465259",
"R~	c #445056",
"S~	c #4D5960",
"T~	c #536169",
"U~	c #4C5C65",
"V~	c #4B5B64",
"W~	c #4B565D",
"X~	c #423F42",
"Y~	c #3F3C3D",
"Z~	c #3C3939",
"`~	c #3D3837",
" {	c #713A72",
".{	c #37343B",
"+{	c #3F9A35",
"@{	c #8EE557",
"#{	c #B8F96C",
"${	c #B9F96F",
"%{	c #75D844",
"&{	c #3AA234",
"*{	c #34733A",
"={	c #542258",
"-{	c #843388",
";{	c #501E54",
">{	c #501E55",
",{	c #39183C",
"'{	c #863489",
"){	c #67256C",
"!{	c #511D56",
"~{	c #4D1D52",
"{{	c #451B4A",
"]{	c #4D1F53",
"^{	c #28162B",
"/{	c #37474B",
"({	c #2E353A",
"_{	c #4B7471",
":{	c #435354",
"<{	c #445D52",
"[{	c #425D50",
"}{	c #40554F",
"|{	c #424E51",
"1{	c #424F51",
"2{	c #455F5D",
"3{	c #405453",
"4{	c #27282E",
"5{	c #4B6866",
"6{	c #4B6B68",
"7{	c #4B6C69",
"8{	c #4C6E6A",
"9{	c #4D6E6B",
"0{	c #4C6D6A",
"a{	c #4C6E6B",
"b{	c #4E716C",
"c{	c #4A6C69",
"d{	c #373A3E",
"e{	c #3C4E4D",
"f{	c #4E766B",
"g{	c #517F6D",
"h{	c #507D6D",
"i{	c #507470",
"j{	c #2A3136",
"k{	c #3C4248",
"l{	c #4A5257",
"m{	c #434D53",
"n{	c #3E474E",
"o{	c #3D4347",
"p{	c #433D41",
"q{	c #3E3736",
"r{	c #4B2E4D",
"s{	c #6D2B72",
"t{	c #4F4154",
"u{	c #328930",
"v{	c #38B62E",
"w{	c #37B82E",
"x{	c #36B92E",
"y{	c #338B32",
"z{	c #326A34",
"A{	c #652E6A",
"B{	c #792F7F",
"C{	c #4D1D51",
"D{	c #441A48",
"E{	c #441B48",
"F{	c #471D4B",
"G{	c #632468",
"H{	c #551D5A",
"I{	c #4F1C53",
"J{	c #321535",
"K{	c #321635",
"L{	c #481C4D",
"M{	c #532159",
"N{	c #27152B",
"O{	c #28242C",
"P{	c #241E27",
"Q{	c #4C706F",
"R{	c #3C4546",
"S{	c #43B234",
"T{	c #73C748",
"U{	c #368B36",
"V{	c #3B3F42",
"W{	c #393E41",
"X{	c #404A4B",
"Y{	c #26262C",
"Z{	c #35383C",
"`{	c #36383D",
" ]	c #35393D",
".]	c #34393D",
"+]	c #35383D",
"@]	c #3C4145",
"#]	c #2D5431",
"$]	c #5CAF3B",
"%]	c #85DF4E",
"&]	c #5FD23E",
"*]	c #3C743F",
"=]	c #25232B",
"-]	c #282321",
";]	c #2D2823",
">]	c #292422",
",]	c #333331",
"']	c #2E2E2C",
")]	c #272625",
"!]	c #464040",
"~]	c #3F3635",
"{]	c #3D3430",
"]]	c #3D332E",
"^]	c #746576",
"/]	c #5A1E60",
"(]	c #6B2A6F",
"_]	c #49394C",
":]	c #345A35",
"<]	c #325B34",
"[]	c #305A33",
"}]	c #335237",
"|]	c #723274",
"1]	c #59215D",
"2]	c #411844",
"3]	c #39173C",
"4]	c #2B142F",
"5]	c #5A215E",
"6]	c #551E5A",
"7]	c #4B1B50",
"8]	c #321536",
"9]	c #3A173E",
"0]	c #571F5C",
"a]	c #4A1D4F",
"b]	c #28152B",
"c]	c #26222B",
"d]	c #231D26",
"e]	c #4C6F6E",
"f]	c #3B4544",
"g]	c #4AC333",
"h]	c #80DA4C",
"i]	c #338530",
"j]	c #3C4245",
"k]	c #25232A",
"l]	c #313237",
"m]	c #2F3035",
"n]	c #2C2C32",
"o]	c #29282E",
"p]	c #1D1822",
"q]	c #305A34",
"r]	c #61A344",
"s]	c #85B852",
"t]	c #62AB47",
"u]	c #365C39",
"v]	c #201D26",
"w]	c #2C2927",
"x]	c #221F1D",
"y]	c #1F1C1D",
"z]	c #242225",
"A]	c #2B2C2C",
"B]	c #2A2A2A",
"C]	c #252525",
"D]	c #494242",
"E]	c #3F3735",
"F]	c #3E332F",
"G]	c #40332D",
"H]	c #3E3029",
"I]	c #3E322D",
"J]	c #532857",
"K]	c #732F79",
"L]	c #88378C",
"M]	c #87368C",
"N]	c #88368D",
"O]	c #88378D",
"P]	c #642667",
"Q]	c #471B4C",
"R]	c #421946",
"S]	c #3D1841",
"T]	c #28142C",
"U]	c #331737",
"V]	c #4B1C4F",
"W]	c #4E1C53",
"X]	c #491B4E",
"Y]	c #36163A",
"Z]	c #3B173F",
"`]	c #5C2161",
" ^	c #4A1B4E",
".^	c #3D1940",
"+^	c #27212B",
"@^	c #221C26",
"#^	c #3E5053",
"$^	c #378734",
"%^	c #398635",
"&^	c #2D452F",
"*^	c #2B292F",
"=^	c #2A282F",
"-^	c #383B40",
";^	c #2E2C31",
">^	c #2E2F34",
",^	c #25212A",
"'^	c #2D2C32",
")^	c #1E1721",
"!^	c #2A2E2F",
"~^	c #303E35",
"{^	c #2D3A33",
"]^	c #2D3D33",
"^^	c #2D2F32",
"/^	c #373C3E",
"(^	c #343430",
"_^	c #211D1B",
":^	c #2B2826",
"<^	c #323032",
"[^	c #353636",
"}^	c #383A38",
"|^	c #333433",
"1^	c #4B4444",
"2^	c #3E3734",
"3^	c #3C312D",
"4^	c #40332F",
"5^	c #3E312D",
"6^	c #3D322E",
"7^	c #3E3531",
"8^	c #4D3C50",
"9^	c #38173B",
"0^	c #3A173D",
"a^	c #3A173C",
"b^	c #3C1840",
"c^	c #3A173F",
"d^	c #351639",
"e^	c #2E1332",
"f^	c #38163C",
"g^	c #3B183F",
"h^	c #4E1E54",
"i^	c #501D56",
"j^	c #531F58",
"k^	c #471A4A",
"l^	c #451A49",
"m^	c #251528",
"n^	c #1F1422",
"o^	c #1C1421",
"p^	c #27232C",
"q^	c #241E28",
"r^	c #242029",
"s^	c #231F28",
"t^	c #302A33",
"u^	c #4D494E",
"v^	c #4E4A4F",
"w^	c #4F4C50",
"x^	c #4B484B",
"y^	c #374146",
"z^	c #2F3336",
"A^	c #2C2B27",
"B^	c #231F1C",
"C^	c #332F2D",
"D^	c #404140",
"E^	c #494342",
"F^	c #433A35",
"G^	c #42352E",
"H^	c #40332E",
"I^	c #3E322E",
"J^	c #3A302D",
"K^	c #3A302E",
"L^	c #47474C",
"M^	c #28262E",
"N^	c #25132A",
"O^	c #2F1433",
"P^	c #351739",
"Q^	c #35163A",
"R^	c #321637",
"S^	c #241329",
"T^	c #2B162E",
"U^	c #3E1741",
"V^	c #481A4C",
"W^	c #4C1E51",
"X^	c #5F2265",
"Y^	c #76297E",
"Z^	c #431947",
"`^	c #421A45",
" /	c #2E1933",
"./	c #201825",
"+/	c #1D1321",
"@/	c #1C1321",
"#/	c #1D1422",
"$/	c #1D1421",
"%/	c #221B26",
"&/	c #28252D",
"*/	c #2A262E",
"=/	c #252028",
"-/	c #282D2E",
";/	c #1D2023",
">/	c #0A0903",
",/	c #2F3A3E",
"'/	c #3D484F",
")/	c #3E474C",
"!/	c #2C2A24",
"~/	c #32302E",
"{/	c #3B3B39",
"]/	c #363838",
"^/	c #383A3C",
"//	c #47403F",
"(/	c #493D39",
"_/	c #483A32",
":/	c #42332C",
"</	c #3E312B",
"[/	c #3E322C",
"}/	c #3C302C",
"|/	c #2F3C3A",
"1/	c #3A4C47",
"2/	c #2A242E",
"3/	c #2C142F",
"4/	c #471B4B",
"5/	c #491A4D",
"6/	c #491B4D",
"7/	c #4A1C4E",
"8/	c #4D1B53",
"9/	c #74297A",
"0/	c #6A2570",
"a/	c #4C1C51",
"b/	c #3C1940",
"c/	c #2A152E",
"d/	c #2A1A2F",
"e/	c #251F2A",
"f/	c #251F2B",
"g/	c #482F4D",
"h/	c #3C2A41",
"i/	c #26202C",
"j/	c #26222C",
"k/	c #1A121E",
"l/	c #1E1923",
"m/	c #1F1924",
"n/	c #26252A",
"o/	c #323135",
"p/	c #4A494C",
"q/	c #202428",
"r/	c #0B0905",
"s/	c #2C3336",
"t/	c #33383D",
"u/	c #323638",
"v/	c #252422",
"w/	c #35312E",
"x/	c #403D3B",
"y/	c #424341",
"z/	c #3C3F40",
"A/	c #3A393A",
"B/	c #4A4140",
"C/	c #463936",
"D/	c #47372F",
"E/	c #42302A",
"F/	c #3B2B24",
"G/	c #3C2E27",
"H/	c #3D4745",
"I/	c #3A4C48",
"J/	c #29292E",
"K/	c #461E4B",
"L/	c #6D2972",
"M/	c #6C2971",
"N/	c #67286C",
"O/	c #542058",
"P/	c #66256B",
"Q/	c #59205D",
"R/	c #4B1C50",
"S/	c #1D1423",
"T/	c #1F1624",
"U/	c #221B28",
"V/	c #2B2331",
"W/	c #36273B",
"X/	c #402E46",
"Y/	c #3F2E46",
"Z/	c #5B3C62",
"`/	c #65406C",
" (	c #423248",
".(	c #303036",
"+(	c #2F3136",
"@(	c #211C26",
"#(	c #2B2B30",
"$(	c #27252D",
"%(	c #26242A",
"&(	c #2D2E33",
"*(	c #3C4346",
"=(	c #47605D",
"-(	c #57555A",
";(	c #100E07",
">(	c #323133",
",(	c #312F32",
"'(	c #2F2F2F",
")(	c #2F2F2D",
"!(	c #383735",
"~(	c #3C3D3B",
"{(	c #3E403E",
"](	c #3D3F3F",
"^(	c #4B4140",
"/(	c #443734",
"((	c #44342D",
"_(	c #413029",
":(	c #3B2A24",
"<(	c #3A2A26",
"[(	c #3C2E29",
"}(	c #41332D",
"|(	c #3F4244",
"1(	c #2A2C31",
"2(	c #361C39",
"3(	c #813286",
"4(	c #8E3694",
"5(	c #8D3692",
"6(	c #8E3693",
"7(	c #87348C",
"8(	c #632469",
"9(	c #28162C",
"0(	c #221427",
"a(	c #231428",
"b(	c #24162A",
"c(	c #281F2E",
"d(	c #2F2133",
"e(	c #402C45",
"f(	c #4B3150",
"g(	c #5D3B64",
"h(	c #56385D",
"i(	c #52385A",
"j(	c #603E67",
"k(	c #25202A",
"l(	c #42494C",
"m(	c #41474B",
"n(	c #3E4247",
"o(	c #3D3F44",
"p(	c #1C1720",
"q(	c #33393C",
"r(	c #3E4A4B",
"s(	c #3B4848",
"t(	c #32383B",
"u(	c #2A272E",
"v(	c #3B4346",
"w(	c #45635E",
"x(	c #524F54",
"y(	c #111009",
"z(	c #3B383A",
"A(	c #383537",
"B(	c #2F2F31",
"C(	c #343436",
"D(	c #353535",
"E(	c #373939",
"F(	c #393B3C",
"G(	c #4A4343",
"H(	c #453B38",
"I(	c #3E302B",
"J(	c #3C2F2B",
"K(	c #3B302C",
"L(	c #3A2E2A",
"M(	c #3C322D",
"N(	c #382C28",
"O(	c #3D312D",
"P(	c #37302E",
"Q(	c #5E5461",
"R(	c #381A3D",
"S(	c #381B3C",
"T(	c #371A3B",
"U(	c #391B3E",
"V(	c #371A3C",
"W(	c #1B1321",
"X(	c #1E1524",
"Y(	c #3F1C43",
"Z(	c #431D48",
"`(	c #2D1730",
" _	c #261D2C",
"._	c #322739",
"+_	c #462E4C",
"@_	c #4E3153",
"#_	c #503155",
"$_	c #35293C",
"%_	c #201826",
"&_	c #28242D",
"*_	c #2B2A32",
"=_	c #292830",
"-_	c #2A2831",
";_	c #393A40",
">_	c #35393C",
",_	c #393F42",
"'_	c #374043",
")_	c #394145",
"!_	c #2C2F34",
"~_	c #1D1721",
"{_	c #333A3D",
"]_	c #496863",
"^_	c #545156",
"/_	c #0C0C07",
"(_	c #393537",
"__	c #3C3737",
":_	c #353131",
"<_	c #3C3A3A",
"[_	c #3A383A",
"}_	c #363736",
"|_	c #373938",
"1_	c #393B3B",
"2_	c #3B3C3D",
"3_	c #494544",
"4_	c #47413F",
"5_	c #423A36",
"6_	c #3F3733",
"7_	c #3F3934",
"8_	c #393633",
"9_	c #3A3531",
"0_	c #3F3B37",
"a_	c #393433",
"b_	c #5A555C",
"c_	c #351638",
"d_	c #331536",
"e_	c #201425",
"f_	c #1D1523",
"g_	c #7D7C81",
"h_	c #5B525E",
"i_	c #3C1A40",
"j_	c #3F1A43",
"k_	c #3E1A42",
"l_	c #231529",
"m_	c #211C2A",
"n_	c #2B2435",
"o_	c #492E4E",
"p_	c #553459",
"q_	c #35293B",
"r_	c #2C2533",
"s_	c #1F1524",
"t_	c #1F1423",
"u_	c #2C172F",
"v_	c #38193C",
"w_	c #38193D",
"x_	c #341738",
"y_	c #251729",
"z_	c #241427",
"A_	c #2D1530",
"B_	c #471F4B",
"C_	c #431F46",
"D_	c #241728",
"E_	c #433D45",
"F_	c #252A2D",
"G_	c #0A0B08",
"H_	c #373333",
"I_	c #403937",
"J_	c #3D3936",
"K_	c #3F3D3B",
"L_	c #3D3B3E",
"M_	c #383938",
"N_	c #393B3A",
"O_	c #383738",
"P_	c #333133",
"Q_	c #433F41",
"R_	c #423D3D",
"S_	c #433F39",
"T_	c #413C35",
"U_	c #3F3A36",
"V_	c #343435",
"W_	c #313131",
"X_	c #464444",
"Y_	c #4E4451",
"Z_	c #3B173E",
"`_	c #2E1433",
" :	c #1D1322",
".:	c #504B52",
"+:	c #6F6B72",
"@:	c #615A63",
"#:	c #441C47",
"$:	c #56235B",
"%:	c #57245C",
"&:	c #401D44",
"*:	c #37183C",
"=:	c #352539",
"-:	c #332D37",
";:	c #211928",
">:	c #27202E",
",:	c #26202D",
"':	c #201725",
"):	c #1F1424",
"!:	c #311735",
"~:	c #4F2253",
"{:	c #592660",
"]:	c #512157",
"^:	c #421B47",
"/:	c #251429",
"(:	c #1E1323",
"_:	c #1F1323",
"::	c #221426",
"<:	c #29162D",
"[:	c #3E1A41",
"}:	c #341636",
"|:	c #47204A",
"1:	c #4F2952",
"2:	c #272B2D",
"3:	c #10120F",
"4:	c #38322F",
"5:	c #3B3330",
"6:	c #383634",
"7:	c #373635",
"8:	c #3E3D3E",
"9:	c #373636",
"0:	c #454143",
"a:	c #3E3939",
"b:	c #3F3832",
"c:	c #413831",
"d:	c #3F3834",
"e:	c #393735",
"f:	c #383A39",
"g:	c #4E2F52",
"h:	c #522558",
"i:	c #441C49",
"j:	c #311535",
"k:	c #35153A",
"l:	c #4B424E",
"m:	c #0F0E10",
"n:	c #6E666E",
"o:	c #513F53",
"p:	c #512254",
"q:	c #552558",
"r:	c #4A1D4E",
"s:	c #58255C",
"t:	c #461F4A",
"u:	c #2E1B30",
"v:	c #726C75",
"w:	c #3A333E",
"x:	c #201625",
"y:	c #1E1523",
"z:	c #1F1625",
"A:	c #1E1424",
"B:	c #69676C",
"C:	c #101311",
"D:	c #301433",
"E:	c #421D47",
"F:	c #58295D",
"G:	c #693470",
"H:	c #65336C",
"I:	c #412147",
"J:	c #676168",
"K:	c #404444",
"L:	c #1C1220",
"M:	c #1E1422",
"N:	c #201524",
"O:	c #2D1630",
"P:	c #443947",
"Q:	c #463048",
"R:	c #48204A",
"S:	c #5A285C",
"T:	c #623F65",
"U:	c #161712",
"V:	c #3A2F2B",
"W:	c #3F322E",
"X:	c #3A3533",
"Y:	c #373533",
"Z:	c #383C3A",
"`:	c #333636",
" <	c #343535",
".<	c #383836",
"+<	c #383734",
"@<	c #392C28",
"#<	c #3B2B28",
"$<	c #382E2B",
"%<	c #393533",
"&<	c #706270",
"*<	c #49214D",
"=<	c #5A2A5F",
"-<	c #401A44",
";<	c #2E1F31",
"><	c #6F6B70",
",<	c #121010",
"'<	c #5C435F",
")<	c #653869",
"!<	c #824787",
"~<	c #7E4585",
"{<	c #66336D",
"]<	c #441F48",
"^<	c #5D535F",
"/<	c #3B3E40",
"(<	c #35393A",
"_<	c #6C6A6E",
":<	c #231628",
"<<	c #241629",
"[<	c #201525",
"}<	c #2A2E32",
"|<	c #111313",
"1<	c #4D4450",
"2<	c #471F4D",
"3<	c #6A3370",
"4<	c #733A7A",
"5<	c #713A78",
"6<	c #4F2654",
"7<	c #414342",
"8<	c #484A4A",
"9<	c #4B4E4F",
"0<	c #2B162F",
"a<	c #38183B",
"b<	c #341737",
"c<	c #413944",
"d<	c #544C54",
"e<	c #3F2B41",
"f<	c #4E2351",
"g<	c #49204B",
"h<	c #68336D",
"i<	c #77407B",
"j<	c #633E63",
"k<	c #8F8390",
"l<	c #433632",
"m<	c #3E3A37",
"n<	c #363635",
"o<	c #333736",
"p<	c #313433",
"q<	c #353634",
"r<	c #393A37",
"s<	c #4D4A49",
"t<	c #3C3634",
"u<	c #392F2D",
"v<	c #3B2F2D",
"w<	c #3D3332",
"x<	c #413E3B",
"y<	c #41413F",
"z<	c #6F4672",
"A<	c #6D3971",
"B<	c #5A2C5E",
"C<	c #4D2451",
"D<	c #502555",
"E<	c #1D1714",
"F<	c #5D2B61",
"G<	c #925993",
"H<	c #A262A6",
"I<	c #8B4C91",
"J<	c #65326A",
"K<	c #3C1E3F",
"L<	c #444C52",
"M<	c #3C3D41",
"N<	c #241528",
"O<	c #321836",
"P<	c #3A1A3F",
"Q<	c #3F3842",
"R<	c #2B2E33",
"S<	c #0F0F10",
"T<	c #282C31",
"U<	c #431E48",
"V<	c #532557",
"W<	c #5F2D62",
"X<	c #66356B",
"Y<	c #65376A",
"Z<	c #6A4A6D",
"`<	c #444545",
" [	c #4C4C50",
".[	c #636064",
"+[	c #2A162E",
"@[	c #3A193D",
"#[	c #331836",
"$[	c #1D1A1A",
"%[	c #706871",
"&[	c #432F46",
"*[	c #56285B",
"=[	c #632F69",
"-[	c #5C2960",
";[	c #764678",
">[	c #704272",
",[	c #443530",
"'[	c #3F3835",
")[	c #353332",
"![	c #39393B",
"~[	c #3B3A3C",
"{[	c #343534",
"][	c #474242",
"^[	c #403B3A",
"/[	c #433834",
"([	c #443935",
"_[	c #443A35",
":[	c #3D332F",
"<[	c #865487",
"[[	c #A86CA8",
"}[	c #733A77",
"|[	c #532757",
"1[	c #544756",
"2[	c #3D2D26",
"3[	c #3B2D26",
"4[	c #785E7A",
"5[	c #966096",
"6[	c #9C659B",
"7[	c #713B76",
"8[	c #773E7B",
"9[	c #542758",
"0[	c #5B515E",
"a[	c #3F474C",
"b[	c #3B3C3F",
"c[	c #2F1934",
"d[	c #3A1B3F",
"e[	c #3E1B42",
"f[	c #2E1633",
"g[	c #42484D",
"h[	c #282D30",
"i[	c #0F1112",
"j[	c #323A3D",
"k[	c #544557",
"l[	c #57265B",
"m[	c #7E4283",
"n[	c #AB6AAD",
"o[	c #9C5DA1",
"p[	c #5D2C5F",
"q[	c #3C403D",
"r[	c #484949",
"s[	c #4C4B50",
"t[	c #2F1833",
"u[	c #37183A",
"v[	c #2F1732",
"w[	c #21201E",
"x[	c #231E1E",
"y[	c #392F2A",
"z[	c #451F49",
"A[	c #55275A",
"B[	c #6B3470",
"C[	c #A86AA8",
"D[	c #A569A5",
"E[	c #724C75",
"F[	c #3F3633",
"G[	c #393939",
"H[	c #353637",
"I[	c #3A3C3B",
"J[	c #474041",
"K[	c #443E3D",
"L[	c #413A35",
"M[	c #423029",
"N[	c #463128",
"O[	c #A997AB",
"P[	c #955F94",
"Q[	c #B174AF",
"R[	c #67326D",
"S[	c #4B224F",
"T[	c #827984",
"U[	c #352A25",
"V[	c #433128",
"W[	c #382820",
"X[	c #643267",
"Y[	c #B071B0",
"Z[	c #B77AB8",
"`[	c #763F7B",
" }	c #532657",
".}	c #222727",
"+}	c #415053",
"@}	c #3E464B",
"#}	c #3D3C3F",
"$}	c #3B393C",
"%}	c #351A39",
"&}	c #441D48",
"*}	c #321837",
"=}	c #3F454A",
"-}	c #252B2E",
";}	c #0E1111",
">}	c #353D3E",
",}	c #3E4548",
"'}	c #7B417F",
")}	c #98599B",
"!}	c #945699",
"~}	c #864C8A",
"{}	c #705972",
"]}	c #3F4341",
"^}	c #404342",
"/}	c #5E5263",
"(}	c #3F1C42",
"_}	c #401E43",
":}	c #4F4151",
"<}	c #221818",
"[}	c #342821",
"}}	c #48403B",
"|}	c #4D3050",
"1}	c #6E3773",
"2}	c #8D5091",
"3}	c #965699",
"4}	c #6D3870",
"5}	c #413B3A",
"6}	c #3E3C3B",
"7}	c #3E3F3F",
"8}	c #363738",
"9}	c #393A3A",
"0}	c #353739",
"a}	c #433D3F",
"b}	c #444141",
"c}	c #45423E",
"d}	c #3F332E",
"e}	c #402F28",
"f}	c #413028",
"g}	c #714473",
"h}	c #B376B0",
"i}	c #9A609C",
"j}	c #5D2E62",
"k}	c #635166",
"l}	c #111818",
"m}	c #362924",
"n}	c #46332A",
"o}	c #5E2E61",
"p}	c #A86AAA",
"q}	c #C984C6",
"r}	c #A262A5",
"s}	c #79417D",
"t}	c #6E5971",
"u}	c #2B2F30",
"v}	c #49565A",
"w}	c #41484D",
"x}	c #424243",
"y}	c #3A393B",
"z}	c #301835",
"A}	c #39193D",
"B}	c #36183B",
"C}	c #5B515D",
"D}	c #3D3F43",
"E}	c #26282A",
"F}	c #0D0D0C",
"G}	c #292F31",
"H}	c #3B4142",
"I}	c #532E56",
"J}	c #763E7A",
"K}	c #BD80BC",
"L}	c #B776B6",
"M}	c #965799",
"N}	c #3D403F",
"O}	c #3D3F3E",
"P}	c #383B3B",
"Q}	c #37173A",
"R}	c #351838",
"S}	c #2A1E1A",
"T}	c #463F3D",
"U}	c #433F42",
"V}	c #58295C",
"W}	c #824586",
"X}	c #BB79BB",
"Y}	c #AA6BAA",
"Z}	c #876589",
"`}	c #383535",
" |	c #373637",
".|	c #383939",
"+|	c #363638",
"@|	c #373A3A",
"#|	c #4A4848",
"$|	c #4A4B49",
"%|	c #454642",
"&|	c #3D2F2B",
"*|	c #6F4270",
"=|	c #A068A1",
"-|	c #6B3870",
";|	c #4B234F",
">|	c #453B39",
",|	c #151A1A",
"'|	c #2E211D",
")|	c #442F27",
"!|	c #552458",
"~|	c #865088",
"{|	c #A0679D",
"]|	c #8A548A",
"^|	c #5B2D5E",
"/|	c #2C3030",
"(|	c #4D595D",
"_|	c #484F53",
":|	c #3F3F42",
"<|	c #383A3B",
"[|	c #3C1941",
"}|	c #4B1E50",
"||	c #4C1E52",
"1|	c #383A3D",
"2|	c #202223",
"3|	c #0A0C0B",
"4|	c #293031",
"5|	c #393E40",
"6|	c #38393A",
"7|	c #5C2B5F",
"8|	c #8B568B",
"9|	c #9D679B",
"0|	c #7E497F",
"a|	c #3F4141",
"b|	c #3F4140",
"c|	c #3A3D3D",
"d|	c #68536C",
"e|	c #512156",
"f|	c #4E1F53",
"g|	c #3F1942",
"h|	c #38312E",
"i|	c #4C4C4B",
"j|	c #4D4B4C",
"k|	c #481F4C",
"l|	c #68346C",
"m|	c #905B91",
"n|	c #87508A",
"o|	c #5D2961",
"p|	c #393836",
"q|	c #373639",
"r|	c #38383A",
"s|	c #4F4A4A",
"t|	c #484445",
"u|	c #3D3939",
"v|	c #3B3331",
"w|	c #3A312E",
"x|	c #362E2C",
"y|	c #835382",
"z|	c #C484C2",
"A|	c #77407D",
"B|	c #491E4D",
"C|	c #403939",
"D|	c #161B1A",
"E|	c #2E221F",
"F|	c #3E2B25",
"G|	c #57295A",
"H|	c #9C629D",
"I|	c #B179AF",
"J|	c #6F3A74",
"K|	c #481D4B",
"L|	c #1B1718",
"M|	c #292E2D",
"N|	c #474E53",
"O|	c #3C3C3F",
"P|	c #363939",
"Q|	c #411A47",
"R|	c #212223",
"S|	c #0F1010",
"T|	c #2B3336",
"U|	c #363B3F",
"V|	c #333233",
"W|	c #4A1F4D",
"X|	c #743D76",
"Y|	c #B374AF",
"Z|	c #945895",
"`|	c #532356",
" 1	c #47494A",
".1	c #454749",
"+1	c #8E7891",
"@1	c #5A2361",
"#1	c #58235E",
"$1	c #343334",
"%1	c #414242",
"&1	c #535556",
"*1	c #565658",
"=1	c #461E4A",
"-1	c #69376D",
";1	c #AA74AB",
">1	c #A568A7",
",1	c #653069",
"'1	c #403F3D",
")1	c #3B3A39",
"!1	c #3C3D3D",
"~1	c #37383B",
"{1	c #443E3E",
"]1	c #423D3C",
"^1	c #3E3836",
"/1	c #403936",
"(1	c #343232",
"_1	c #643368",
":1	c #894F8E",
"<1	c #713B77",
"[1	c #353537",
"}1	c #121818",
"|1	c #332927",
"11	c #3D2D2A",
"21	c #5D2B60",
"31	c #A667A7",
"41	c #C182BF",
"51	c #7A417F",
"61	c #252C2C",
"71	c #47545A",
"81	c #40484E",
"91	c #393C3F",
"01	c #373A3B",
"a1	c #5C2766",
"b1	c #71307D",
"c1	c #6D2E79",
"d1	c #6D2C78",
"e1	c #3F4144",
"f1	c #252829",
"g1	c #0C1011",
"h1	c #2F3A3F",
"i1	c #414B4E",
"j1	c #4E2150",
"k1	c #7F4582",
"l1	c #C584C1",
"m1	c #A163A2",
"n1	c #562459",
"o1	c #383F42",
"p1	c #66276E",
"q1	c #712C7B",
"r1	c #5C2363",
"s1	c #3C3E3B",
"t1	c #404242",
"u1	c #44484B",
"v1	c #4B4E50",
"w1	c #4B204E",
"x1	c #723E76",
"y1	c #AF74B0",
"z1	c #A564A6",
"A1	c #67316A",
"B1	c #3F3E40",
"C1	c #35383A",
"D1	c #333738",
"E1	c #333537",
"F1	c #393435",
"G1	c #393434",
"H1	c #3D3835",
"I1	c #3E3935",
"J1	c #3A3736",
"K1	c #58285C",
"L1	c #733E78",
"M1	c #6A3470",
"N1	c #4E2153",
"O1	c #323235",
"P1	c #131717",
"Q1	c #322825",
"R1	c #3C2E2A",
"S1	c #612E64",
"T1	c #9C5D9E",
"U1	c #AA68AA",
"V1	c #7C4281",
"W1	c #4E2052",
"X1	c #252C2D",
"Y1	c #4B5A5F",
"Z1	c #444D53",
"`1	c #36393C",
" 2	c #6A3D73",
".2	c #6E2E7A",
"+2	c #722F7E",
"@2	c #712D7D",
"#2	c #252A2B",
"$2	c #070D0C",
"%2	c #2E393E",
"&2	c #465055",
"*2	c #502252",
"=2	c #7E4582",
"-2	c #B072AF",
";2	c #9A5B9C",
">2	c #552359",
",2	c #343A3C",
"'2	c #7F5B85",
")2	c #6C2876",
"!2	c #742C7F",
"~2	c #752D7F",
"{2	c #5E2465",
"]2	c #3F403C",
"^2	c #444846",
"/2	c #41474A",
"(2	c #42464A",
"_2	c #66336A",
":2	c #76407A",
"<2	c #78407B",
"[2	c #856588",
"}2	c #3F4041",
"|2	c #3A3B3C",
"12	c #36373A",
"22	c #37383A",
"32	c #363739",
"42	c #3B3838",
"52	c #3D3B3A",
"62	c #3F3B3A",
"72	c #66336C",
"82	c #915297",
"92	c #814387",
"02	c #692E71",
"a2	c #784380",
"b2	c #191B18",
"c2	c #28201D",
"d2	c #322623",
"e2	c #57255A",
"f2	c #67346B",
"g2	c #633067",
"h2	c #5F2D64",
"i2	c #222322",
"j2	c #282E30",
"k2	c #4F5D63",
"l2	c #4A5258",
"m2	c #3A3A3C",
"n2	c #8C34A0",
"o2	c #A43ABC",
"p2	c #A73CBE",
"q2	c #914AA1",
"r2	c #232729",
"s2	c #090B0B",
"t2	c #292E30",
"u2	c #3A3E41",
"v2	c #373638",
"w2	c #512154",
"x2	c #602E64",
"y2	c #6B366F",
"z2	c #6A356D",
"A2	c #512155",
"B2	c #682773",
"C2	c #732C80",
"D2	c #752C81",
"E2	c #6F2C79",
"F2	c #7F5F84",
"G2	c #3C3B38",
"H2	c #3B3D40",
"I2	c #532558",
"J2	c #703A75",
"K2	c #7E4583",
"L2	c #6C3671",
"M2	c #38393B",
"N2	c #383B3C",
"O2	c #363839",
"P2	c #373737",
"Q2	c #414141",
"R2	c #3A3C3F",
"S2	c #3C3C3E",
"T2	c #783A7F",
"U2	c #7D3F86",
"V2	c #773183",
"W2	c #73307F",
"X2	c #1B1D1A",
"Y2	c #322724",
"Z2	c #5F2D63",
"`2	c #8A4D90",
" 3	c #8C4E93",
".3	c #79407F",
"+3	c #522255",
"@3	c #1F1E1F",
"#3	c #262A2C",
"$3	c #48545A",
"%3	c #464E51",
"&3	c #9835AE",
"*3	c #BC44D5",
"=3	c #BF43D9",
"-3	c #9837AD",
";3	c #222627",
">3	c #0D0D0D",
",3	c #2B2E2E",
"'3	c #827383",
")3	c #5F2963",
"!3	c #85488B",
"~3	c #925197",
"{3	c #905195",
"]3	c #424648",
"^3	c #943BA4",
"/3	c #8D379D",
"(3	c #762E84",
"_3	c #6E2C79",
":3	c #353231",
"<3	c #3A3737",
"[3	c #662C6D",
"}3	c #703377",
"|3	c #7E4284",
"13	c #8F5093",
"23	c #743B79",
"33	c #6F2E78",
"43	c #722E7D",
"53	c #8B339D",
"63	c #9B38B0",
"73	c #8C319F",
"83	c #302724",
"93	c #3A2C28",
"03	c #683F6D",
"a3	c #642F67",
"b3	c #783E7D",
"c3	c #5B245F",
"d3	c #8B6992",
"e3	c #444B4F",
"f3	c #383739",
"g3	c #9F35B5",
"h3	c #D351ED",
"i3	c #E158FE",
"j3	c #BF44D9",
"k3	c #202427",
"l3	c #0E0D0D",
"m3	c #494A49",
"n3	c #5F2767",
"o3	c #612967",
"p3	c #773C7B",
"q3	c #7B417E",
"r3	c #5E2B61",
"s3	c #66376A",
"t3	c #B63CCE",
"u3	c #E25BFE",
"v3	c #D257EB",
"w3	c #9F3DB2",
"x3	c #7E368B",
"y3	c #2D2829",
"z3	c #393635",
"A3	c #404141",
"B3	c #712A7B",
"C3	c #8E3A9C",
"D3	c #86428D",
"E3	c #85458C",
"F3	c #733679",
"G3	c #363535",
"H3	c #3C3B3C",
"I3	c #3C3B3B",
"J3	c #383638",
"K3	c #343437",
"L3	c #333236",
"M3	c #424549",
"N3	c #454949",
"O3	c #41464A",
"P3	c #885592",
"Q3	c #8F35A1",
"R3	c #A736BF",
"S3	c #B33ACE",
"T3	c #932FA8",
"U3	c #291F1C",
"V3	c #3D2D27",
"W3	c #3D2F29",
"X3	c #642D69",
"Y3	c #86448E",
"Z3	c #7E3C85",
"`3	c #6D2D76",
" 4	c #742D81",
".4	c #272B2B",
"+4	c #4A555A",
"@4	c #454B50",
"#4	c #353737",
"$4	c #373837",
"%4	c #AE60C1",
"&4	c #CF4DEA",
"*4	c #E25CFE",
"=4	c #D958F3",
"-4	c #B65CCF",
";4	c #0C0B0D",
">4	c #4A4A49",
",4	c #722D7D",
"'4	c #803E85",
")4	c #89478E",
"!4	c #632C6A",
"~4	c #353638",
"{4	c #33373A",
"]4	c #BC3FD6",
"^4	c #D555F1",
"/4	c #B340CB",
"(4	c #222120",
"_4	c #3D3D3C",
":4	c #3D3C3B",
"<4	c #A261B1",
"[4	c #AC3CBF",
"}4	c #9E35B0",
"|4	c #772F81",
"14	c #73307C",
"24	c #8A5E90",
"34	c #3E3F3E",
"44	c #323637",
"54	c #313537",
"64	c #343637",
"74	c #44494C",
"84	c #464B4B",
"94	c #454648",
"04	c #464A4C",
"a4	c #434749",
"b4	c #A042B5",
"c4	c #CF53EA",
"d4	c #DE57FB",
"e4	c #DA57F9",
"f4	c #B951CF",
"g4	c #392925",
"h4	c #372B29",
"i4	c #A98DB1",
"j4	c #7F348A",
"k4	c #7F348C",
"l4	c #9C36B0",
"m4	c #9837AA",
"n4	c #993FAC",
"o4	c #393938",
"p4	c #B776CA",
"q4	c #CB5EE4",
"r4	c #DE5CFA",
"s4	c #E05BFB",
"t4	c #B967D2",
"u4	c #090A0C",
"v4	c #2A2D2F",
"w4	c #9D67AA",
"x4	c #9C39AF",
"y4	c #9836AB",
"z4	c #81338E",
"A4	c #7E3489",
"B4	c #703179",
"C4	c #2C2A2B",
"D4	c #B642D0",
"E4	c #E05DFB",
"F4	c #DE56FB",
"G4	c #C745E5",
"H4	c #C27FD4",
"I4	c #32302F",
"J4	c #41403D",
"K4	c #40403F",
"L4	c #B13DC9",
"M4	c #DE59F8",
"N4	c #D150EC",
"O4	c #A33AB8",
"P4	c #7D4586",
"Q4	c #363639",
"R4	c #414142",
"S4	c #414343",
"T4	c #333536",
"U4	c #323436",
"V4	c #323136",
"W4	c #42454A",
"X4	c #464647",
"Y4	c #444546",
"Z4	c #404244",
"`4	c #C14ADC",
" 5	c #D853F6",
".5	c #E05EFE",
"+5	c #C84EE3",
"@5	c #B04DCA",
"#5	c #2A2122",
"$5	c #261D1F",
"%5	c #9A41AE",
"&5	c #AF38C8",
"*5	c #C145DB",
"=5	c #C145DC",
"-5	c #9C32B2",
";5	c #3B434B",
">5	c #3A4043",
",5	c #BA48D9",
"'5	c #B739D9",
")5	c #202526",
"!5	c #080B0A",
"~5	c #232829",
"{5	c #9B31AF",
"]5	c #B83ED0",
"^5	c #B73DD0",
"/5	c #A938C0",
"(5	c #863296",
"_5	c #2F2929",
":5	c #B536D1",
"<5	c #DF5EF9",
"[5	c #C74BE2",
"}5	c #B144CC",
"|5	c #2A2A28",
"15	c #3C3B39",
"25	c #BD57D3",
"35	c #E25EFB",
"45	c #E05BFC",
"55	c #D357ED",
"65	c #A93CC0",
"75	c #373739",
"85	c #3C3C40",
"95	c #303032",
"05	c #2F2D30",
"a5	c #44474C",
"b5	c #484C4F",
"c5	c #454A4A",
"d5	c #424241",
"e5	c #444343",
"f5	c #3F3F40",
"g5	c #C565DE",
"h5	c #DB5CF8",
"i5	c #DF5AFE",
"j5	c #B24ECE",
"k5	c #2B2322",
"l5	c #211A1B",
"m5	c #281F1C",
"n5	c #A935C4",
"o5	c #D355EE",
"p5	c #D855F5",
"q5	c #AF38CB",
"r5	c #B85DD0",
"s5	c #3A3A39",
"t5	c #3B393B",
"u5	c #1F2325",
"v5	c #0B0C0D",
"w5	c #AE4CC5",
"x5	c #B43DCC",
"y5	c #D24EEE",
"z5	c #C54ADF",
"A5	c #9A35AE",
"B5	c #9865A3",
"C5	c #2D2928",
"D5	c #BF6BD6",
"E5	c #BC3ED6",
"F5	c #B44DCC",
"G5	c #1E1E19",
"H5	c #302E2E",
"I5	c #3B3B3A",
"J5	c #BA68D0",
"K5	c #B741D2",
"L5	c #E25FFC",
"M5	c #DA59F6",
"N5	c #C05ADB",
"O5	c #1F1E1E",
"P5	c #3C3C3D",
"Q5	c #302F31",
"R5	c #303030",
"S5	c #505558",
"T5	c #4C5152",
"U5	c #494949",
"V5	c #4C4B4C",
"W5	c #BE59D8",
"X5	c #BB4DD9",
"Y5	c #2D211E",
"Z5	c #2D2422",
"`5	c #271F1D",
" 6	c #29201B",
".6	c #C076D6",
"+6	c #CE56EA",
"@6	c #DE56FD",
"#6	c #DC5AF9",
"$6	c #B948D4",
"%6	c #3F4242",
"&6	c #262A2D",
"*6	c #0F100F",
"=6	c #AD33C7",
"-6	c #C74DE1",
";6	c #E05AFD",
">6	c #C949E5",
",6	c #A445B9",
"'6	c #231F1F",
")6	c #2D2A29",
"!6	c #3E4040",
"~6	c #3F4445",
"{6	c #36383A",
"]6	c #1F1E1A",
"^6	c #383737",
"/6	c #393936",
"(6	c #BE67D4",
"_6	c #D454F1",
":6	c #D653F4",
"<6	c #B542D2",
"[6	c #B864CF",
"}6	c #1D1C1C",
"|6	c #464645",
"16	c #3F3E3E",
"26	c #41403F",
"36	c #3B3C3B",
"46	c #4F5253",
"56	c #474B4C",
"66	c #3E4043",
"76	c #39383B",
"86	c #36393B",
"96	c #2F3137",
"06	c #1B1D1D",
"a6	c #241E1D",
"b6	c #2A2220",
"c6	c #2B2422",
"d6	c #251F1E",
"e6	c #211D1A",
"f6	c #1F1C19",
"g6	c #AF32CD",
"h6	c #D453F0",
"i6	c #E260FE",
"j6	c #E15AFE",
"k6	c #B85ACF",
"l6	c #333333",
"m6	c #4A555B",
"n6	c #2D3538",
"o6	c #0D0E0E",
"p6	c #B73AD3",
"q6	c #E15BFD",
"r6	c #DB5CF7",
"s6	c #C041DC",
"t6	c #242121",
"u6	c #2B2829",
"v6	c #3F4143",
"w6	c #1D1F1B",
"x6	c #282829",
"y6	c #312F31",
"z6	c #353433",
"A6	c #383436",
"B6	c #BC67D3",
"C6	c #B147CD",
"D6	c #B554D0",
"E6	c #1F1F1E",
"F6	c #353334",
"G6	c #343233",
"H6	c #312F30",
"I6	c #353434",
"J6	c #38383B",
"K6	c #4C4E50",
"L6	c #3E403F",
"M6	c #333437",
"N6	c #3A3D3C",
"O6	c #393C3C",
"P6	c #343738",
"Q6	c #171718",
"R6	c #231E1D",
"S6	c #292321",
"T6	c #26221F",
"U6	c #231F1D",
"V6	c #1E1B18",
"W6	c #1F1C18",
"X6	c #22211E",
"Y6	c #CD52E8",
"Z6	c #C747E5",
"`6	c #2D2D2F",
" 7	c #353633",
".7	c #373836",
"+7	c #3E454A",
"@7	c #23282B",
"#7	c #0B0C0C",
"$7	c #B742D1",
"%7	c #C743E4",
"&7	c #C550DF",
"*7	c #2A292A",
"=7	c #1E1D1C",
"-7	c #23211F",
";7	c #272524",
">7	c #333234",
",7	c #333235",
"'7	c #333336",
")7	c #2C2B2E",
"!7	c #191919",
"~7	c #262728",
"{7	c #30312F",
"]7	c #363431",
"^7	c #303132",
"/7	c #1D1E1D",
"(7	c #333535",
"_7	c #323131",
":7	c #323231",
"<7	c #2D2C2D",
"[7	c #30302F",
"}7	c #353437",
"|7	c #343336",
"17	c #303133",
"27	c #2E2E2E",
"37	c #2B2B2C",
"47	c #282627",
"57	c #232324",
"67	c #191817",
"77	c #1B1917",
"87	c #181614",
"97	c #191714",
"07	c #1B1A18",
"a7	c #1B1A1C",
"b7	c #181A1A",
"c7	c #1C1C1D",
"d7	c #222221",
"e7	c #242422",
"f7	c #262523",
"g7	c #262425",
"h7	c #282726",
"i7	c #212122",
"j7	c #1A1B1A",
"k7	c #141413",
"l7	c #1A1A1C",
"m7	c #1D1D1E",
"n7	c #1C1C1C",
"o7	c #1B1B1B",
"p7	c #1B1A1A",
"q7	c #1E1D1B",
"r7	c #22201E",
"s7	c #211F20",
"t7	c #201E1F",
"u7	c #252423",
"v7	c #292725",
"w7	c #2E2A2B",
"x7	c #2D2B2B",
"y7	c #1E1E1E",
"z7	c #181819",
"A7	c #202121",
"B7	c #222323",
"C7	c #262625",
"D7	c #242123",
"E7	c #252324",
"F7	c #272526",
"G7	c #252325",
"H7	c #262525",
"I7	c #232223",
"J7	c #222222",
"K7	c #1D1E1F",
"L7	c #1A1A1A",
"M7	c #18191A",
"N7	c #161919",
"O7	c #151816",
"P7	c #141615",
"Q7	c #151616",
"R7	c #171515",
"S7	c #161614",
"T7	c #171615",
"U7	c #171717",
"V7	c #161717",
"W7	c #161716",
"X7	c #171817",
"Y7	c #181716",
"Z7	c #191B19",
"`7	c #191A19",
" 8	c #151515",
".8	c #141514",
"+8	c #141515",
"@8	c #151516",
"#8	c #141616",
"$8	c #141715",
"%8	c #151614",
"&8	c #151517",
"*8	c #161619",
"=8	c #171819",
"-8	c #1E1E1D",
";8	c #21201F",
">8	c #1F1D1E",
",8	c #202020",
"'8	c #242224",
")8	c #262524",
"!8	c #232122",
"~8	c #232021",
"{8	c #221F20",
"]8	c #201F1F",
"^8	c #20211F",
"/8	c #1F201F",
"  . + @ # $ % & * = - ; > , ' ) ! ~ { ] ^ / ( _ : < [ } | 1 2 3 4 5 6 7 8 9 0 a b c d e f g h i j k l m n o p q r s t u v w x y ",
"z A B C D E F G H I J K L M N O P Q R S T U V W X Y Z `  ...+.3 @.#.$.%.&.*.=.-.;.>.,.'.).!.~.{.].^./.(.3 _.:.<.[.}.|.1.2.> 3.4.",
"5.6.7.8.9.0.a.b.c.d.e.f.g.h.i.j.k.l.m.n.o.p.q.r.Z s.t. .u.v.w.x.y.z.A.B.C.D.E.F.G.H.I.J.K.L.M.N.O.P.Q.R.S.T.U.V.W.X.Y.Z.`. +.+++",
"@+#+$+%+&+*+=+-+$+;+>+,+'+)+9.!+~+{+R ]+^+/+(+_+:+~+<+[+}+|+1+2+3+4+5+6+7+8+9+0+a+b+c+d+e+f+g+h+i+j+k+l+m+n+o+p+#+Y.q+r+s+t+u+v+",
"w+x+y+z+A+B+C+D+E+F+G+H+I+J+K+L+M+N+O+P+Q+R+S+T+U+V+U+W+X+Y+Z+`+3+ @.@+@@@#@$@%@&@*@=@-@;@>@,@'@)@!@~@{@]@! ^@/@(@_@:@<@[@}@|@1@",
"2@3@4@5@6@7@8@9@0@a@b@c@d@e@f@g@h@i@j@k@l@m@n@o@p@q@r@s@t@u@v@v@w@x@y@z@A@B@C@D@E@F@G@H@I@J@K@L@M@N@O@P@Q@R@S@T@U@V@W@X@Y@Z@`@ #",
".#+#@###$#%#&#*#D+W =#-#;#>#,#'#)#!#Z@~#{#]#^#^#/#(#_#:#<#[#}#|#1#2#3#4#5#6#7#8#9#0#a#b#c#d#e#f#g#h#i#j#k#l#m#n#o#p#q#r#s#t#u#v#",
"w#x#y#D+z#A#B#C#D#e@E#F#G#H#I#J#K#L#M#N#O#P#P#Q#R#S#T#U#V#W#V#X#Y#Z#`# $.$+$@$#$$$%$&$*$=$-$;$>$,$'$)$!$,+~${$]$^$/$($_$:$<$[$}$",
"|$1$y#2$3$4$-+5$6$7$L+8$9$0$w a$b$c$d$e$f$g$h$i$j$k$Q#l$m$n$o$p$q$r$s$t$u$v$w$x$y$z$A$B$C$D$E$F$G$H$I$J$K$L$M$N$O$P$N$Q$R$S$T$U$",
"V$W$X$Y$Z$`$ %.%A$+%@%#%$%%%&%*%=%-%;%>%,%'%)%!%~%{%S#]%^%R#/%(%R#_%:%<%[%}%|%1%2%3%z$4%5%6%7%8%9%0%a%b%c%d%e%f%g%h%c%i%j%k%l%m%",
"U.n%o%p%q%r%s%t%u%v%w%x%y%z%A%B%C%D%E%F%G%H%I%J%K%L%R#M%M%W#Q#N%O%P%Q%R%S%T%U%V%W%X% #Y%v.u%6%Z%`% &.&+&0%@&#&$&%&&&*&=&-&;&>&,&",
"'&)&!&~&{&c.]&^&../&(&_&:&<&[&}&|&|&1&2&3&R#4&5&6&7&8&9&0&a&b&c&d&e&f&g&h&i&j&k&l&m&n&o&p&q&r&s&t&u&v&w& &x&y&z&A&B&C&D&E&F&G&H&",
"I&J&K&L&$+M&N&O&P&Q&R&S&T&U&V&W&X&Y&Z&4&4&4&`& *.*+*@*#*$*%*&***=*-*-*;*>*,*'*)*!*~*{*]*^*/*(*_*:*`@<*[*}*|*1*2*3*4*5*6*7*8*9*0*",
"a*b*c*c*d*e*f*g*h*i*j*k*l*m*n*o*p*q*r*4&s*4&`&t*u*v*w*x*y*z*A*B*C*D*E*F*G*H*I*J*K*L*M*N*v.O*P*Q*x#W%R*S*T*U*V*W*X*Y*Z*`* =.=+=@=",
"#=$=3.%=r%&=*===-=;=>=,='=)=!=~={=]=4&s*s*4&^=/=(=_=:=<=[=}=|=g&1=2=3=4=5=A$6=7=8=#=9=0=a=b=c=d=e=f=g=h=i=j=k=l=m=n=o=p=q=r=s=t=",
"u=v=w=-+7.x=d*}+y=z=A=B=C=D=E=F=G=H=R#s*4&I=J=K=L=M=N=O=P=D*1=Q=R=S=T=U=z$V=W=X=Y=v.Z=`= -.-+-@-2%#-$-%-&-*-=---;->-,-k='-)-!-~-",
"{-]-^-/-(-_-:-<-[-}-|-1-2-3-4-5-6-G=7-4&8-9-0-a-a&b-c-d-D*D*e-f-g-h-i-j-k-a=u%v..%E#l-m-n-o-p-q-r-s-t-t-u-v-w-w-x-`%y-z-A-B-C-D-",
"E-F-G-H-I-J-K-L-M-N-O-P-P-P-Q-R-S-T-T-U-V-W-X-Y-Z-c-d-D*g&D*`- ;.;+;@;#;$;%;&;*;=;-;;;$;R*>;,;';';);!;~;{;];^;/;/;(;_;:;<;[;k=};",
"|;1;2;3;4;5;6;7;A*8;9;[=0;a;b;c;d;e;f;g;h;i;j;P=c-P=D*D*k;l;m;n;o;p;q;r;s;t;$-u;t-v;w;x;x;y;x;z;A;B;C;D;E;F;G;H;H;I;J;K;L;M;N;O;",
"n+P;v.Q;R;S;T;U;V;W;X;Y;Y;Y;Z;`; >.>+>@>#>$>%>P=P=P=D*P=&>*>=>->;>>>,>'>)>!>~>t;{>]>^>/>(>]>_>:><>[>}>|>1>2>3>4>5>6>7>8>h=9>0>a>",
"b>c>d>e>f>g>h>i>j>m;m;k>l>m>n>o>p>q>r>s>z*O=P=P=P=t>u>v>w>x>y>z>A>B>C>D>E>F>G>t;G>H>I>J>K>L>M>N>O>P>Q>R>S>T>U>V>W>X>Y>Z>h=9>`> ,",
".,+,L&@,K-#,$,%,&,*,=,-,;,>,,,',),!,~,{,],O=^,^,^,/,(,_,:,<,[,},|,1,w>2,3,4,5,6,7,8,9,0,a,b,c,d,e,f,g,h,';i,j,w%w%8>k,t;l,m,n,o,",
"p,r.#,q,r,s,t,u,v,w,x,y,z,A,B,C,D,E,a;F,G,H,I,J,K,L,M,N,O,P,Q,R,S,T,w>U,V,W,X,Y,Z,`, '.'+'@'#'$'%'&'*'h=='-'^>^>;'>'>',''')'!'~'",
"v=3;{']'^'/'('_':'<'['}'|'1'2'3'4'5'6'7'8'9'0'a'b'c'd'e'f'g'h'i'j'T,k'l'm'n'o'p'+'q'r's't'u'v'w'x'y'z'{>A'B'C'D'E'F'G'H'I'J'K'L'",
"M'd>N'O'P'Q'R'S'T'U'V'W'X'E-Y'Z'`' ).)+)@)#)$)%)&)*)=)-);)>),)')))!)~){)])^)/)a=()()z$2%_):)<)[)y$})u;v;|)6,1)2)3)4)5)6)7)8)9)0)",
"a)7.b)c)d)e)f)g)h)i)j)k)l)m)n)o)p)q)r)s)0;t)u)u)v)w)x)y)z)A)B)C)D)E)F)G),*H)z$z$z$L*5%L*I):)J)K)Y%t-t-L)M)N)O)P)Q)R)S)T)U)V)W)[;",
"0.X)_+Y)Z)`) !.!+!@!#!$!%!&!*!=!q)-!S=;!>!,!'!)!!!~!{!]!^!/!(!_!:!<![!V=V=a=L*L*L*L*}!g,|!]>1!2!3!t-t-h=B'N){>4!5!6!7!8!9!0!`>a!",
"b!=#c!d!Z)e!f!g!h!i!j!k!l!m!n!D=o!p!q!r!s!t!u!v!w!x!y!z!A!B!C!C!D!E!F!J G!H!l#&;U=I!J!u;g=o-K!$;R*!;L!M!I>y;{>N!O!l.P!Q!R! =S!T!",
"0.X)U!V!W!X!Y!Z!`! ~.~+~@~#~$~%~&~*~=~-~;~>~,~,~'~)~!~~~{~D!]~^~/~K>(~>'_~R*u;R*R*g=R*t-h=:~{~<~<~[~I>K>4!}~^>|~1~k@2~3~4~5~6~7~",
"8~9~0~a~b~c~d~e~f~g~h~i~j~k~l~m~n~*~o~p~q~r~s~@;t~u~v~w~x~y~z~A~B~C~D~C~E~F~M!G~|>H~:)|>M)I~R>H>J~B'K~J~L~M~N~O~P~Q~R~S~T~U~V~W~",
"X~Y~Z~`~ {.{+{@{#{${#{%{&{*{={-{;{>{,{'{){!{~{C>{{]{^{/{({_{:{<{[{}{|{1{2{3{4{5{6{7{8{9{9{0{a{b{c{1)d{e{f{g{h{i{j{k{z$, l{m{n{o{",
"p{A.q{R.r{s{t{u{v{w{x{y{z{A{B{C{D{E{F{G{H{I{J{K{L{M{N{O{P{Q{R{S{T{U{V{W{2!X{Y{U=*;d{Z{`{`{ ].]+]@]2)u;#]$]%]&]*]=]-];]>]7!,]'])]",
"!]~]{]]]^]/](]_]:]<][]}]|]B{1]2]3]4]5]6]7]*~8]9]0]a]b]c]d]e]f]g]h]i]|!-;})j]k]u+#-k]l]m]n]o]Z%p]@]B'!;q]r]s]t]u]v]w]x]y]z]A]B]C]",
"D]E]F]G]H]I]J]K]L]M]N]O]P]Q]R]S]T]U]V]W]X]Y]Z]`] ^.^F>+^@^#^W%$^%^&^.-*^=^-^(~;^>^,^'^J!u;{>{>)^&;B'!;!^~^{^]^^^/^(^_^:^<^[^}^|^",
"1^2^3^4^5^6^7^8^9^3]0^a^b^c^d^e^f^g^j'h^i^j^0]k^l^y)m^n^o^x;L!O{L!h=h={~p^]>M!@'/!q^r^M!s^N)N)'^k]M~t^u^v^w^x^y^z^A^B^C^a@F+D^$+",
"E^F^G^H^I^J^K^L^M^N^O^P^Q^R^S^T^U^V^W^X^Y^*~Z^D{`^ /./+/@/#/N~$//~/~M~N~%/&/$;&/*/~>t;t;t;_~&/=//~=$-/;/>/,/'/)/;#!/~/{/]/^/c.W ",
"//(/_/:/</[/}/|/1/2/3/4/5/6/4/7/8/s,9/C{0/a/b/c/d/e/f/g/h/i/j/r^/~M~k/k/4![~l/1)[~1)l/1)m/1)1)J~n/o/p/q/r/s/t/u/v/w/x/y/z/M c.A/",
"B/C/D/E/F/G/i#H/I/J/K/=*L/M/L/N/O/P/Q/R/4]S/T/U/V/W/X/Y/Z/`/ (=]m/$;.(.(+(@'u'@(|>C'#($(G~^>J>%(&(*(=(-(;(>(,('()(!(~({(.+u.](X ",
"^(/(((_(:(<([(}(|(1(2(3(4(5(6(7(8(`^u~9(0(a(b(c(d(e(f(g(h(i(j(~~k(_)I#l(m(n(o(_~p(q(r(s(t(<~L!u(_)v(w(x(y(z(A(B(C(D(D(E(F(z/c*` ",
"G(H(B.I(J(K(L(M(N(O(P(Q(R(S(T(U(V(0(W(X(Y(Z(j>`( _._+_@_#_$_Z/%_&_j/*_=_-_;_o(^~>_,_'_)_!_~_%/A@z!{_]_^_/_(___:_<_[_}_|_1_2_` v#",
"3_4_5_6_7_8_w/9_0_J-a_b_c_d_e_@/f_S*g_h_i_b/j_k_l_m_n_o_p_q_r_s_t_u_v_w_x_y_B'B'd{B!&/A)T/z_A_B_C_D_E_F_G_H_I_J_K_L_M_N_]/> O_P_",
"Q_R_S_T_U_V_^ W_)&X_Y_3]Z_`_4] :.:+:@:#:$:%:&:*:=:-:;:>:,:f/':):!:~:{:]:^:/:$/$/;'q^(:_:::<:[:k>}:|:1:2:3:4:5:6:7:W 8:c.T+Z@9:t#",
"0:a:b:c:d:e:O+f:V@g:h:i:j:k:l:m:n:o:p:q:r:s:t:u:v:w:x:y:z:A:B:C:D:E:F:G:H:I:J:K:L:M:N:F>O:P:Q:}:R:S:)~T:U:V:W:X:Y:~(S;Z:`: <.<+<",
"E^R.@<#<#<$<a_%<&<*<F:=<-<;<><,<'<)<!<~<{<]<^</<(<_<:<<<[<s_}<|<1<2<3<4<5<6<7<8<9<N:0<a<b<c<d<e<f<g<h<i<j<k<l<m<n<.+d>o<p<q<r<@,",
"s<t<u<v<w<x<y<z<A<B<C<D<S]J:~'E<F<G<H<I<J<K<L<M<(<N<O<P<<:Q<R<S<T<U<V<W<X<Y<Z<`< [.[+[x_@[#[$[%[&[*[=[-[;[>[,['[)[![~[u#{[D(M_q<",
"][^[5_/[([_[:[<[[[}[|[d_1[2[3[4[5[6[7[8[9[0[a[b[]$c[d[e[f[g[h[i[j[k[l[m[n[o[p[q[r[s[t[u[b<v[w[x[y[z[A[B[C[D[E[F[Z~Y G[> H[I[x+ +",
"J[K[L[H^M[N[O[P[Q[R[S[T[U[V[W[X[Y[Z[`[ }.}+}@}#}$}%}&}j>*}=}-};}>},} }'})}!}~}{}]}^}/}u~(}_}:}<}[}}}|}1}2}3}4}5}6}^$7}<-8}9}=#0}",
"a}b}c}d}e}f}g}h}i}j}k}l}m}n}o}p}q}r}s}t}u}v}w}x}y}z}A}B}C}D}E}F}G}H}I}J}K}L}M}p:N}O}P}Q}j>&}R}S}[/T}U}V}W}X}Y}Z}`} |b).|+|/$_+@|",
"#|$|%|7^&|L(*|=|-|;|>|,|'|)|!|~|{|]|^|t=/|(|_|:|<|[|}|||9:1|2|3|4|5|6|7|8|9|0|l~a|b|c|d|e|f|g|h|q%i|j|k|l|m|n|o|p|G[G[q|r||_9}6|",
"s|t|u|v|w|x|y|z|A|B|C|D|E|F|G|H|I|J|K|L|M|(|N|O|P|Q|||||K&=#R|S|T|U|V|W|X|Y|Z|`| 1.1e*+1@1#17/$1%1&1*1=1-1;1>1,1'1)19:W !1]/P|~1",
"{1]1^1/1D+(1_1:1<1r)[1}1|11121314151.)C&6171819101a1b1c1d1e1f1g1h1i1![j1k1l1m1n1d.u%o1p1q1q1r1s1t1u1v1w1x1y1z1A1o#B1M_N_.+C1D1E1",
"F1G1H1I1I-J1K1L1M1N1O1P1Q1R1S1T1U1V1W15!X1Y1Z191`1 2.2+2@2p,#2$2%2&2U=*2=2-2;2>2k-,2'2)2!2~2{2]2^2/2(2u@_2:2<2[2}2d>]/.||2122232",
"42O U!52625272829202a2b2c2d2e2f2g2h2r@i2j2k2l2b[<|m2n2o2p2q2r2s2t2u2v2w2x2y2z2A2~$#-B2C2D2E2F2G2C+H23@I2J2K2L2M2N201O2.|P2+|t.m2",
"Q2R2|(%1N 3;S2T2U2V2W2X2~'Y2Z2`2 3.3+3@3#3$3%32_X 4;&3*3=3-3;3>3,3.|'3)3!3~3{3-[F(]3^3/3(3_3:3<3<_x+[3}3|31323> <|t.t.Y 22|2_++|",
".1H!..o#1.b[e13343536373839303a3b3i*c3d3w.R~e3!1Z@f3g3h3i3j3k3l3]/m3n3o3p3q3r3s3u/t3u3v3w3x3y3z36}A3B3C3D3E3F3G3<-H3I3J3K332E(L3",
"M3x N3B+8~>#O3P3Q3R3S3T3U3V3W3X3Y3Z3`3 4.4+4@4r.#4$4%4&4*4=4-4;4E1>4,4`3'4)4!4~4{4]4i3^4/4(4_$_4:4<4[4}4|41424F+W 9}34X 445464r&",
"x 748494F )+04a4b4c4d4e4f4g4h4i4j4k4l4m4n4m{v%y}A/o4p4q4r4s4t4u4v4w4x4y4z4A4B4C4D4E4F4G4H4)]I4J4K4L4M4N4O4P4Q4^$R4c.S41_T4U464V4",
"u=W4v=c.R;X4Y4Z4d*`4 5.5+5@5#5$5%5&5*5=5-5;5>51_3;W Z@/$,5'5)5!5~5{5]5^5/5(5_56!:5<5[5}5|57:15:4253545556575r|H3c.85(&2_C(9505;;",
"a5b5c5S;Q2d5e5f5V@o#g5h5i5j5k5l5m5n5o5p5q5r5E#s5o4t5c!6|v27%u5v5w5x5y5z5A5B5C5$1D5E5F5G5H5I5I5J5K5L5M5N5O5P5f5I3s.5;V@~[2.Q5R5G#",
"S5T5/&r|P5M2S4a|U5V5r%W5X5Y5Z5`5 6.6+6@6#6$6%6)1}_G[c!9}M2=}&6*6=6-6;6>6,6'6)6!6N&~6{6]6k.^6/6(6_6:6<6[6}6K4|616f3o4s526f57536H[",
"46566676!68696I)S4d.~$06a6b6c6d6e6f6g6h6i6j6k69:l6Z@.|a|v.m6n6o6p6q6r6s6)]t6u6v6p,N&N2w6x6y6z6A6B6C6D6~+E66|$+F6G6H6P$I6f3J6!1A/",
"K6&+r%](L601M6N6O6T+P6Q6R6S6T6U6V6W6X6v/Y6Z6`6P  7.7F+A3|(+7@7#7$7%7&7*7=7-7;7>7,7'7)7!7~7{7]7`}6}=+B+^7/7(7 <_7:7<7<7[7v#}775|7",
"1795P$2737N$47 =47.=57,+67e%d%77879707#&a7b7c7d7e7f7g7h7h7i7j7k7l7m7n7o7!7p7q7r7s7t7a7S.c7; u7v77!w7x7y7z7A7B7k@C7k@D7E7F7G7H7I7",
"2~2~Q!J7y7m7K7O5n7L7M7N7O7P7Q78!R7S7T7U7V7Q7W7X7Y78!W7W7,+U7Z7`7 8.8+8@8Q7#8$8%8 8,&&8*8=8>&-8;8;8s7>8C&,82~-@'8)8g7!8~8{8]8^8/8"};
