/* XPM */
static char * enemy2_xpm[] = {
"64 64 2786 2",
"  	c #60676D",
". 	c #595E64",
"+ 	c #5A5E63",
"@ 	c #5B5F63",
"# 	c #595E61",
"$ 	c #53585D",
"% 	c #585E61",
"& 	c #575C60",
"* 	c #5A6064",
"= 	c #52585E",
"- 	c #4A5055",
"; 	c #212221",
"> 	c #373839",
", 	c #474C4F",
"' 	c #505658",
") 	c #4D5456",
"! 	c #4A5053",
"~ 	c #494E50",
"{ 	c #434647",
"] 	c #232121",
"^ 	c #2E3132",
"/ 	c #51585D",
"( 	c #54595C",
"_ 	c #4E5052",
": 	c #4A4C4C",
"< 	c #47484B",
"[ 	c #4B4C4E",
"} 	c #525355",
"| 	c #4E5154",
"1 	c #505457",
"2 	c #2E3030",
"3 	c #1A1C1B",
"4 	c #5D666B",
"5 	c #5A6167",
"6 	c #545858",
"7 	c #555452",
"8 	c #4E4B4A",
"9 	c #4A4547",
"0 	c #544F4C",
"a 	c #5B514A",
"b 	c #655953",
"c 	c #5A4E4D",
"d 	c #514947",
"e 	c #2B2722",
"f 	c #5B453A",
"g 	c #70584E",
"h 	c #6E5F5A",
"i 	c #6F6661",
"j 	c #696562",
"k 	c #666362",
"l 	c #5A5556",
"m 	c #3F3A3A",
"n 	c #1B1B17",
"o 	c #545D60",
"p 	c #5F666B",
"q 	c #5E6366",
"r 	c #585D5E",
"s 	c #4B4E52",
"t 	c #4E5051",
"u 	c #4A4C4D",
"v 	c #424446",
"w 	c #3F4044",
"x 	c #43474B",
"y 	c #494A50",
"z 	c #5B6066",
"A 	c #4C4F52",
"B 	c #4B4D4E",
"C 	c #505252",
"D 	c #515354",
"E 	c #4A4D4F",
"F 	c #47484A",
"G 	c #4B4C4D",
"H 	c #4A4A4C",
"I 	c #494C50",
"J 	c #3B3F44",
"K 	c #1B1D1C",
"L 	c #2F3231",
"M 	c #3C3E41",
"N 	c #3F3F3F",
"O 	c #363435",
"P 	c #313030",
"Q 	c #363534",
"R 	c #303131",
"S 	c #1E1C1B",
"T 	c #303334",
"U 	c #4F5960",
"V 	c #464B4D",
"W 	c #3B3A3B",
"X 	c #3A3B3B",
"Y 	c #3A3A3B",
"Z 	c #3C3D3C",
"` 	c #3A3C3C",
" .	c #3C3E3E",
"..	c #404345",
"+.	c #242727",
"@.	c #5B656A",
"#.	c #5D6468",
"$.	c #4E4C4B",
"%.	c #4E4641",
"&.	c #51463E",
"*.	c #4A3C37",
"=.	c #503F39",
"-.	c #574339",
";.	c #5B463D",
">.	c #5B4C47",
",.	c #4F4743",
"'.	c #272522",
").	c #4B3328",
"!.	c #5D3E31",
"~.	c #5D4338",
"{.	c #58443A",
"].	c #4D3C37",
"^.	c #594D48",
"/.	c #544A47",
"(.	c #363130",
"_.	c #4A5054",
":.	c #53565B",
"<.	c #55575A",
"[.	c #555758",
"}.	c #454748",
"|.	c #454444",
"1.	c #3E3C3E",
"2.	c #363538",
"3.	c #424445",
"4.	c #45484C",
"5.	c #575E62",
"6.	c #484B4C",
"7.	c #3E3E3F",
"8.	c #414143",
"9.	c #464849",
"0.	c #434345",
"a.	c #434444",
"b.	c #464745",
"c.	c #3E3F40",
"d.	c #424647",
"e.	c #353A3C",
"f.	c #131414",
"g.	c #282B2E",
"h.	c #404144",
"i.	c #424342",
"j.	c #333231",
"k.	c #2C2B2A",
"l.	c #302F2E",
"m.	c #262729",
"n.	c #1A1919",
"o.	c #303637",
"p.	c #505C63",
"q.	c #464B4F",
"r.	c #3B3B3C",
"s.	c #393A3B",
"t.	c #3A3C3D",
"u.	c #3B3E3F",
"v.	c #404448",
"w.	c #252729",
"x.	c #17191A",
"y.	c #59636A",
"z.	c #585F67",
"A.	c #403B3C",
"B.	c #463A34",
"C.	c #504034",
"D.	c #4C3A30",
"E.	c #534138",
"F.	c #544036",
"G.	c #4A3530",
"H.	c #534440",
"I.	c #494440",
"J.	c #1A1C1C",
"K.	c #37231B",
"L.	c #543729",
"M.	c #553A2D",
"N.	c #472F27",
"O.	c #473129",
"P.	c #4C3932",
"Q.	c #51433E",
"R.	c #3B3432",
"S.	c #181718",
"T.	c #44474F",
"U.	c #505258",
"V.	c #4F5154",
"W.	c #505253",
"X.	c #505050",
"Y.	c #494848",
"Z.	c #39373A",
"`.	c #323034",
" +	c #333436",
".+	c #3B3D3E",
"++	c #414245",
"@+	c #53595F",
"#+	c #434446",
"$+	c #3D3D3D",
"%+	c #3E3E41",
"&+	c #424447",
"*+	c #3E3E42",
"=+	c #424041",
"-+	c #424141",
";+	c #414442",
">+	c #35393B",
",+	c #161616",
"'+	c #2D2F30",
")+	c #474A4C",
"!+	c #393A3E",
"~+	c #37393B",
"{+	c #3E3F3C",
"]+	c #1C1B1C",
"^+	c #2A3033",
"/+	c #4C5960",
"(+	c #464C4F",
"_+	c #3B3C3C",
":+	c #383A3A",
"<+	c #383C3C",
"[+	c #3B3E3E",
"}+	c #3C4041",
"|+	c #414549",
"1+	c #242628",
"2+	c #141617",
"3+	c #525C64",
"4+	c #515962",
"5+	c #3F3938",
"6+	c #41352E",
"7+	c #43342A",
"8+	c #412E25",
"9+	c #483831",
"0+	c #524239",
"a+	c #4B3D36",
"b+	c #504441",
"c+	c #4A4644",
"d+	c #1C1E1B",
"e+	c #2B1A13",
"f+	c #41281D",
"g+	c #462D23",
"h+	c #3B251E",
"i+	c #433027",
"j+	c #4C3931",
"k+	c #4C3C36",
"l+	c #322927",
"m+	c #181818",
"n+	c #4A4F54",
"o+	c #5D5F63",
"p+	c #555759",
"q+	c #454142",
"r+	c #363136",
"s+	c #313033",
"t+	c #2F3033",
"u+	c #343539",
"v+	c #3A3B3E",
"w+	c #4E545A",
"x+	c #3D3E3F",
"y+	c #3B3C39",
"z+	c #404241",
"A+	c #444649",
"B+	c #454546",
"C+	c #42413F",
"D+	c #3D3937",
"E+	c #363233",
"F+	c #383838",
"G+	c #303437",
"H+	c #1A191A",
"I+	c #333435",
"J+	c #4A4F50",
"K+	c #4B5152",
"L+	c #43494C",
"M+	c #3F4648",
"N+	c #424745",
"O+	c #353837",
"P+	c #1D1D1F",
"Q+	c #2A3234",
"R+	c #4B5960",
"S+	c #444C4F",
"T+	c #393B3D",
"U+	c #373B3C",
"V+	c #373B3D",
"W+	c #3A3E3E",
"X+	c #3D4141",
"Y+	c #45484B",
"Z+	c #292A2B",
"`+	c #161819",
" @	c #535B62",
".@	c #443F3C",
"+@	c #3F342E",
"@@	c #3D2E28",
"#@	c #3F302B",
"$@	c #483E38",
"%@	c #504840",
"&@	c #4F4643",
"*@	c #534E4D",
"=@	c #4E4B4D",
"-@	c #222223",
";@	c #30221B",
">@	c #3C281E",
",@	c #3F2C23",
"'@	c #362421",
")@	c #342420",
"!@	c #42322B",
"~@	c #41322D",
"{@	c #2D2624",
"]@	c #191A1A",
"^@	c #585C5E",
"/@	c #4E4F52",
"(@	c #454548",
"_@	c #474647",
":@	c #413D3F",
"<@	c #3C393A",
"[@	c #3B3A3A",
"}@	c #353738",
"|@	c #343639",
"1@	c #36363A",
"2@	c #4A4F58",
"3@	c #3B3C3E",
"4@	c #3F3F3B",
"5@	c #3F3E3C",
"6@	c #414140",
"7@	c #484743",
"8@	c #43403C",
"9@	c #3D3935",
"0@	c #373030",
"a@	c #373435",
"b@	c #313436",
"c@	c #181717",
"d@	c #343635",
"e@	c #474C4E",
"f@	c #454E50",
"g@	c #434B4F",
"h@	c #3F4649",
"i@	c #3F4342",
"j@	c #3F4241",
"k@	c #252424",
"l@	c #2C3335",
"m@	c #4D5B62",
"n@	c #424B4F",
"o@	c #383C3D",
"p@	c #3B3E40",
"q@	c #3E4143",
"r@	c #3D4243",
"s@	c #46494B",
"t@	c #2A2C2C",
"u@	c #151818",
"v@	c #545D63",
"w@	c #5A6166",
"x@	c #453E3A",
"y@	c #3E322B",
"z@	c #3E3029",
"A@	c #41332C",
"B@	c #463B37",
"C@	c #47403B",
"D@	c #4B4543",
"E@	c #524F4F",
"F@	c #494749",
"G@	c #1C1C1B",
"H@	c #31241B",
"I@	c #3D2A20",
"J@	c #38261E",
"K@	c #35241E",
"L@	c #362823",
"M@	c #3E302A",
"N@	c #463833",
"O@	c #322C29",
"P@	c #151716",
"Q@	c #41484A",
"R@	c #515355",
"S@	c #4C4B4F",
"T@	c #434344",
"U@	c #404040",
"V@	c #403D3E",
"W@	c #3D393B",
"X@	c #3C3C39",
"Y@	c #363637",
"Z@	c #323337",
"`@	c #313236",
" #	c #4B5158",
".#	c #3A3C3E",
"+#	c #3B3C38",
"@#	c #3E3B38",
"##	c #413E3D",
"$#	c #48433F",
"%#	c #3C3434",
"&#	c #403A37",
"*#	c #3A3B3D",
"=#	c #1A1A16",
"-#	c #2F3131",
";#	c #43474A",
">#	c #3E4648",
",#	c #495354",
"'#	c #464E4F",
")#	c #35383B",
"!#	c #252223",
"~#	c #323A3A",
"{#	c #4F5D62",
"]#	c #414C4F",
"^#	c #373D3E",
"/#	c #3E4141",
"(#	c #3F4243",
"_#	c #3C4141",
":#	c #424648",
"<#	c #26292A",
"[#	c #161818",
"}#	c #5A6266",
"|#	c #5F6569",
"1#	c #423732",
"2#	c #433329",
"3#	c #443128",
"4#	c #402D28",
"5#	c #463935",
"6#	c #48403C",
"7#	c #4B4544",
"8#	c #4B4747",
"9#	c #434143",
"0#	c #1D1A18",
"a#	c #241914",
"b#	c #2F201A",
"c#	c #271B17",
"d#	c #2E211E",
"e#	c #3B2F29",
"f#	c #352A24",
"g#	c #42362F",
"h#	c #342E2A",
"i#	c #181918",
"j#	c #3C4043",
"k#	c #464749",
"l#	c #414144",
"m#	c #434343",
"n#	c #404240",
"o#	c #393638",
"p#	c #353233",
"q#	c #343332",
"r#	c #343333",
"s#	c #353536",
"t#	c #353435",
"u#	c #4B535A",
"v#	c #393B3F",
"w#	c #393736",
"x#	c #433C3A",
"y#	c #453E3B",
"z#	c #403A39",
"A#	c #424240",
"B#	c #424645",
"C#	c #3D4144",
"D#	c #191916",
"E#	c #2D2D2E",
"F#	c #3E4044",
"G#	c #43484D",
"H#	c #464F50",
"I#	c #434849",
"J#	c #323538",
"K#	c #323335",
"L#	c #252323",
"M#	c #303738",
"N#	c #4B5A5E",
"O#	c #404A4C",
"P#	c #363A3C",
"Q#	c #3D3F41",
"R#	c #3F4041",
"S#	c #404346",
"T#	c #242729",
"U#	c #151718",
"V#	c #596165",
"W#	c #60656B",
"X#	c #413833",
"Y#	c #46362B",
"Z#	c #48372E",
"`#	c #463630",
" $	c #443935",
".$	c #48403F",
"+$	c #494343",
"@$	c #463F42",
"#$	c #423E41",
"$$	c #1E1A18",
"%$	c #1C1514",
"&$	c #211918",
"*$	c #1E1717",
"=$	c #231B1A",
"-$	c #2D2420",
";$	c #2E2621",
">$	c #372E27",
",$	c #292320",
"'$	c #393C3E",
")$	c #3B3D3F",
"!$	c #393A3C",
"~$	c #3D3E3E",
"{$	c #383839",
"]$	c #302E30",
"^$	c #2F2D2F",
"/$	c #323030",
"($	c #2F2E2F",
"_$	c #302F30",
":$	c #2C2B2D",
"<$	c #54595F",
"[$	c #3A3B3F",
"}$	c #373131",
"|$	c #403938",
"1$	c #46413E",
"2$	c #3C4143",
"3$	c #3D4548",
"4$	c #495154",
"5$	c #1D1C19",
"6$	c #2F2E2E",
"7$	c #3B3B3F",
"8$	c #45494B",
"9$	c #373B3B",
"0$	c #343837",
"a$	c #21211F",
"b$	c #2D3132",
"c$	c #3B4449",
"d$	c #3C4344",
"e$	c #3C3F40",
"f$	c #3C3E40",
"g$	c #3D3F40",
"h$	c #3F4140",
"i$	c #3D3F3F",
"j$	c #444648",
"k$	c #282A2B",
"l$	c #121415",
"m$	c #4F575C",
"n$	c #585C63",
"o$	c #473E3A",
"p$	c #4A3B30",
"q$	c #46352E",
"r$	c #473935",
"s$	c #463F3A",
"t$	c #4C4541",
"u$	c #494442",
"v$	c #464042",
"w$	c #464243",
"x$	c #221C19",
"y$	c #1A1413",
"z$	c #141010",
"A$	c #151113",
"B$	c #211C1D",
"C$	c #261F1D",
"D$	c #221B19",
"E$	c #211A19",
"F$	c #1B1617",
"G$	c #121112",
"H$	c #2C2D2F",
"I$	c #2E2E30",
"J$	c #29282A",
"K$	c #2C2C2E",
"L$	c #2E2D2E",
"M$	c #2A292B",
"N$	c #2C2B2B",
"O$	c #262427",
"P$	c #222023",
"Q$	c #201E20",
"R$	c #4F5359",
"S$	c #424143",
"T$	c #3A3837",
"U$	c #3E3A35",
"V$	c #433D39",
"W$	c #403E3E",
"X$	c #434648",
"Y$	c #414648",
"Z$	c #404649",
"`$	c #444A4E",
" %	c #414447",
".%	c #1F1D1A",
"+%	c #2B2A2A",
"@%	c #404142",
"#%	c #414445",
"$%	c #444A4A",
"%%	c #3E4546",
"&%	c #3A4043",
"*%	c #2B2E31",
"=%	c #1F1F1E",
"-%	c #1F2022",
";%	c #33383C",
">%	c #383C3E",
",%	c #393C3D",
"'%	c #3E4040",
")%	c #3D4040",
"!%	c #484A4C",
"~%	c #2E2F30",
"{%	c #151617",
"]%	c #4E565B",
"^%	c #53585F",
"/%	c #45413F",
"(%	c #453D37",
"_%	c #453C37",
":%	c #484240",
"<%	c #42403F",
"[%	c #403F3E",
"}%	c #464847",
"|%	c #4C4C4D",
"1%	c #474446",
"2%	c #1B1713",
"3%	c #141110",
"4%	c #120E10",
"5%	c #161215",
"6%	c #1B1717",
"7%	c #171412",
"8%	c #171415",
"9%	c #181414",
"0%	c #171314",
"a%	c #131213",
"b%	c #191717",
"c%	c #1A1918",
"d%	c #1D1D1D",
"e%	c #1E1E1C",
"f%	c #181817",
"g%	c #161618",
"h%	c #191819",
"i%	c #161515",
"j%	c #110F10",
"k%	c #110F11",
"l%	c #484747",
"m%	c #3D3B38",
"n%	c #3C3835",
"o%	c #3F3B39",
"p%	c #3D3E40",
"q%	c #434848",
"r%	c #434949",
"s%	c #414649",
"t%	c #404549",
"u%	c #3A3D41",
"v%	c #1C1B18",
"w%	c #2A2B2B",
"x%	c #3F4142",
"y%	c #454A49",
"z%	c #444B49",
"A%	c #394041",
"B%	c #383D40",
"C%	c #323436",
"D%	c #212120",
"E%	c #1C1C1D",
"F%	c #303338",
"G%	c #34363A",
"H%	c #3B3C3D",
"I%	c #4D4E50",
"J%	c #2F2F30",
"K%	c #181919",
"L%	c #404041",
"M%	c #413F3E",
"N%	c #454240",
"O%	c #414142",
"P%	c #3D4244",
"Q%	c #3F4647",
"R%	c #404044",
"S%	c #171411",
"T%	c #110E0D",
"U%	c #161213",
"V%	c #171213",
"W%	c #1C1714",
"X%	c #1A1716",
"Y%	c #141213",
"Z%	c #141013",
"`%	c #191517",
" &	c #1E1B1B",
".&	c #1E1D1D",
"+&	c #18181A",
"@&	c #141414",
"#&	c #10100F",
"$&	c #111010",
"%&	c #0E0E0F",
"&&	c #121211",
"*&	c #171616",
"=&	c #1A1B1B",
"-&	c #151415",
";&	c #46484D",
">&	c #3D3D3E",
",&	c #3A3634",
"'&	c #373432",
")&	c #3C3B3A",
"!&	c #3E4242",
"~&	c #424545",
"{&	c #414546",
"]&	c #414345",
"^&	c #1E1E19",
"/&	c #2C2B2C",
"(&	c #3B3C40",
"_&	c #3B3C3F",
":&	c #3B3F41",
"<&	c #32383A",
"[&	c #383E3F",
"}&	c #36393B",
"|&	c #1B191D",
"1&	c #202222",
"2&	c #383F41",
"3&	c #3B3F40",
"4&	c #3F403F",
"5&	c #3C3D3F",
"6&	c #3C3F41",
"7&	c #3E4243",
"8&	c #4A4B4D",
"9&	c #2C2C2D",
"0&	c #171717",
"a&	c #5C6266",
"b&	c #63696E",
"c&	c #3F4043",
"d&	c #44403E",
"e&	c #403F3D",
"f&	c #394044",
"g&	c #3A4045",
"h&	c #393B40",
"i&	c #151412",
"j&	c #161210",
"k&	c #1C1512",
"l&	c #1D1615",
"m&	c #1C1413",
"n&	c #1A1516",
"o&	c #171313",
"p&	c #1D1919",
"q&	c #1B1719",
"r&	c #2E2A2A",
"s&	c #2E2B2B",
"t&	c #272324",
"u&	c #221E1D",
"v&	c #1C1A1A",
"w&	c #1E1E1F",
"x&	c #232629",
"y&	c #293032",
"z&	c #272C2F",
"A&	c #222225",
"B&	c #45454A",
"C&	c #39383C",
"D&	c #393837",
"E&	c #3C3C3B",
"F&	c #3B3D3D",
"G&	c #424646",
"H&	c #404445",
"I&	c #464A4B",
"J&	c #1C1C17",
"K&	c #2C2C2C",
"L&	c #3E3F43",
"M&	c #323236",
"N&	c #2F3334",
"O&	c #373C3A",
"P&	c #363A3A",
"Q&	c #202020",
"R&	c #262828",
"S&	c #3E4647",
"T&	c #3B4041",
"U&	c #3F413F",
"V&	c #3C3E3F",
"W&	c #3F4242",
"X&	c #3C4140",
"Y&	c #404244",
"Z&	c #252627",
"`&	c #595F65",
" *	c #62686D",
".*	c #424244",
"+*	c #3E3938",
"@*	c #3F3634",
"#*	c #3E3634",
"$*	c #393536",
"%*	c #3B3A3D",
"&*	c #404246",
"**	c #3A3D43",
"=*	c #38393F",
"-*	c #111211",
";*	c #17100F",
">*	c #201614",
",*	c #1B1311",
"'*	c #1E1614",
")*	c #261D1C",
"!*	c #1D1614",
"~*	c #201815",
"{*	c #241E1C",
"]*	c #1C1A18",
"^*	c #2A2221",
"/*	c #251C1C",
"(*	c #211818",
"_*	c #2B231F",
":*	c #221C1B",
"<*	c #241F1F",
"[*	c #2C2D2E",
"}*	c #343A3A",
"|*	c #2D3234",
"1*	c #26282C",
"2*	c #1F1F22",
"3*	c #47494D",
"4*	c #3E4042",
"5*	c #3E4142",
"6*	c #3C4142",
"7*	c #3F4446",
"8*	c #43494B",
"9*	c #454A4D",
"0*	c #484C50",
"a*	c #45474A",
"b*	c #1D1B17",
"c*	c #2D2D2B",
"d*	c #3D3F42",
"e*	c #3D4043",
"f*	c #2E2F32",
"g*	c #282929",
"h*	c #313331",
"i*	c #333432",
"j*	c #1B1918",
"k*	c #262929",
"l*	c #393F43",
"m*	c #393D40",
"n*	c #3E4041",
"o*	c #424343",
"p*	c #3D403F",
"q*	c #3D3E41",
"r*	c #252526",
"s*	c #151717",
"t*	c #52595F",
"u*	c #575E64",
"v*	c #424242",
"w*	c #49413C",
"x*	c #463B36",
"y*	c #3E3332",
"z*	c #3C3333",
"A*	c #3F3836",
"B*	c #443F40",
"C*	c #433D40",
"D*	c #131110",
"E*	c #120C0E",
"F*	c #1E1515",
"G*	c #1D1514",
"H*	c #261C18",
"I*	c #2B221F",
"J*	c #1F1716",
"K*	c #241B1A",
"L*	c #27201E",
"M*	c #1B1819",
"N*	c #251C1F",
"O*	c #201716",
"P*	c #1D1413",
"Q*	c #231A1A",
"R*	c #201A18",
"S*	c #191312",
"T*	c #24201E",
"U*	c #2B2B2A",
"V*	c #282728",
"W*	c #2A2928",
"X*	c #211F1F",
"Y*	c #3F4246",
"Z*	c #414346",
"`*	c #3D4245",
" =	c #454B4E",
".=	c #45494D",
"+=	c #414244",
"@=	c #262726",
"#=	c #37393C",
"$=	c #2E3033",
"%=	c #292829",
"&=	c #2B292B",
"*=	c #272528",
"==	c #1A1717",
"-=	c #2E3233",
";=	c #485458",
">=	c #41494D",
",=	c #393D3F",
"'=	c #41403F",
")=	c #3E3B3C",
"!=	c #444244",
"~=	c #151516",
"{=	c #4D555B",
"]=	c #50565F",
"^=	c #464546",
"/=	c #4D4844",
"(=	c #423935",
"_=	c #3A3230",
":=	c #453B37",
"<=	c #453832",
"[=	c #483933",
"}=	c #51443F",
"|=	c #4B4240",
"1=	c #161211",
"2=	c #150F11",
"3=	c #191012",
"4=	c #1F1416",
"5=	c #291D19",
"6=	c #271D1A",
"7=	c #221816",
"8=	c #211816",
"9=	c #1F1918",
"0=	c #161514",
"a=	c #1D1817",
"b=	c #261E1A",
"c=	c #2C2420",
"d=	c #251A19",
"e=	c #241916",
"f=	c #1F1613",
"g=	c #221916",
"h=	c #201B1A",
"i=	c #211E1E",
"j=	c #282623",
"k=	c #211E1D",
"l=	c #45484D",
"m=	c #424547",
"n=	c #434644",
"o=	c #3B3F42",
"p=	c #414448",
"q=	c #3C3F42",
"r=	c #181714",
"s=	c #292A29",
"t=	c #38393A",
"u=	c #3B3E3D",
"v=	c #313332",
"w=	c #262626",
"x=	c #272526",
"y=	c #1B1818",
"z=	c #2A3132",
"A=	c #4F5E64",
"B=	c #465257",
"C=	c #3D4246",
"D=	c #403A3A",
"E=	c #3E3837",
"F=	c #474444",
"G=	c #151616",
"H=	c #4E575D",
"I=	c #555D65",
"J=	c #484B4D",
"K=	c #4C4C4B",
"L=	c #383538",
"M=	c #413D3C",
"N=	c #423632",
"O=	c #483731",
"P=	c #50403B",
"Q=	c #4B3F3E",
"R=	c #161414",
"S=	c #141211",
"T=	c #171212",
"U=	c #181012",
"V=	c #271B19",
"W=	c #241A18",
"X=	c #211717",
"Y=	c #1C1516",
"Z=	c #141314",
"`=	c #1D1B19",
" -	c #2D2520",
".-	c #372E2A",
"+-	c #271C1B",
"@-	c #251817",
"#-	c #281D1B",
"$-	c #201918",
"%-	c #201919",
"&-	c #28211F",
"*-	c #201B19",
"=-	c #45464A",
"--	c #3E3D3F",
";-	c #3E3E3D",
">-	c #403D3C",
",-	c #3D3A39",
"'-	c #3F3E3B",
")-	c #3E3D3C",
"!-	c #3A3A3A",
"~-	c #171714",
"{-	c #282828",
"]-	c #373838",
"^-	c #393938",
"/-	c #353533",
"(-	c #2B2928",
"_-	c #2B282A",
":-	c #2F2E2D",
"<-	c #1C1A19",
"[-	c #2D3435",
"}-	c #4E5D64",
"|-	c #48565B",
"1-	c #3D4347",
"2-	c #3E3B3B",
"3-	c #3B3635",
"4-	c #494545",
"5-	c #161717",
"6-	c #545C61",
"7-	c #606A71",
"8-	c #484D51",
"9-	c #393435",
"0-	c #3E3637",
"a-	c #4A3834",
"b-	c #48342E",
"c-	c #493732",
"d-	c #4A3B3A",
"e-	c #0E0E0D",
"f-	c #151110",
"g-	c #1C1314",
"h-	c #1A1112",
"i-	c #191110",
"j-	c #1D1A1D",
"k-	c #302B2C",
"l-	c #39312E",
"m-	c #372F2B",
"n-	c #191112",
"o-	c #1D1616",
"p-	c #201817",
"q-	c #2E2521",
"r-	c #251F1D",
"s-	c #424145",
"t-	c #403C3B",
"u-	c #3D3736",
"v-	c #403B39",
"w-	c #3C3938",
"x-	c #363433",
"y-	c #393A39",
"z-	c #404547",
"A-	c #191816",
"B-	c #242527",
"C-	c #333335",
"D-	c #373637",
"E-	c #2E2C2E",
"F-	c #2E2C2A",
"G-	c #211E20",
"H-	c #201E1F",
"I-	c #323637",
"J-	c #56656A",
"K-	c #4A555A",
"L-	c #3B3737",
"M-	c #383131",
"N-	c #3B3532",
"O-	c #3A3432",
"P-	c #4A4546",
"Q-	c #2D2C2D",
"R-	c #51595E",
"S-	c #5E666D",
"T-	c #484C4F",
"U-	c #3C3C3D",
"V-	c #373635",
"W-	c #3D3939",
"X-	c #3F3735",
"Y-	c #52403A",
"Z-	c #533E39",
"`-	c #483632",
" ;	c #443736",
".;	c #131212",
"+;	c #0F0D0C",
"@;	c #130F10",
"#;	c #181313",
"$;	c #1E1615",
"%;	c #140E11",
"&;	c #151011",
"*;	c #1B1412",
"=;	c #181314",
"-;	c #332F2E",
";;	c #38312E",
">;	c #302825",
",;	c #1F1816",
"';	c #1D1717",
");	c #191414",
"!;	c #1B1514",
"~;	c #1E1817",
"{;	c #48494D",
"];	c #424347",
"^;	c #3B3B3B",
"/;	c #3C3C3C",
"(;	c #414041",
"_;	c #3B3B3D",
":;	c #363839",
"<;	c #3A4041",
"[;	c #434A4E",
"};	c #252325",
"|;	c #302F32",
"1;	c #383737",
"2;	c #2B2929",
"3;	c #23221F",
"4;	c #2F3335",
"5;	c #536066",
"6;	c #475256",
"7;	c #3F4143",
"8;	c #3D3C3B",
"9;	c #393535",
"0;	c #44403D",
"a;	c #423F3E",
"b;	c #464548",
"c;	c #26282A",
"d;	c #131517",
"e;	c #596068",
"f;	c #414247",
"g;	c #3F3E3E",
"h;	c #3B3836",
"i;	c #3D3735",
"j;	c #3E3431",
"k;	c #4F3D35",
"l;	c #503C37",
"m;	c #4B3934",
"n;	c #473A38",
"o;	c #151513",
"p;	c #100C0A",
"q;	c #120C0C",
"r;	c #141011",
"s;	c #191514",
"t;	c #161013",
"u;	c #231D1B",
"v;	c #1E191A",
"w;	c #131012",
"x;	c #23201D",
"y;	c #2B2523",
"z;	c #2F2623",
"A;	c #2A211E",
"B;	c #211C18",
"C;	c #17110F",
"D;	c #1D1612",
"E;	c #1E1716",
"F;	c #171312",
"G;	c #464A4F",
"H;	c #3F4040",
"I;	c #3F4343",
"J;	c #3B434A",
"K;	c #3B4347",
"L;	c #303133",
"M;	c #2F2F2E",
"N;	c #2F2F2C",
"O;	c #242427",
"P;	c #2C2D2D",
"Q;	c #1B1C1C",
"R;	c #282C2F",
"S;	c #48565E",
"T;	c #434B51",
"U;	c #3D3C3F",
"V;	c #3C3A3B",
"W;	c #3D3A3A",
"X;	c #423E3D",
"Y;	c #454340",
"Z;	c #474A4E",
"`;	c #25282B",
" >	c #53595B",
".>	c #5C6267",
"+>	c #3D3D40",
"@>	c #3C3633",
"#>	c #3E3432",
"$>	c #433432",
"%>	c #4D3830",
"&>	c #4E3831",
"*>	c #503D36",
"=>	c #4D403C",
"->	c #151410",
";>	c #110C09",
">>	c #170F0F",
",>	c #151010",
"'>	c #0E0B0B",
")>	c #0D0B0B",
"!>	c #1A1511",
"~>	c #211B17",
"{>	c #1C1717",
"]>	c #161413",
"^>	c #1F1C19",
"/>	c #191412",
"(>	c #1E1B1A",
"_>	c #181413",
":>	c #241C16",
"<>	c #201916",
"[>	c #231E1C",
"}>	c #1B1A19",
"|>	c #494D50",
"1>	c #444749",
"2>	c #3C3D3E",
"3>	c #3B3939",
"4>	c #3B3837",
"5>	c #393637",
"6>	c #3C3B3C",
"7>	c #3B3E41",
"8>	c #40464B",
"9>	c #40464A",
"0>	c #252525",
"a>	c #313435",
"b>	c #303232",
"c>	c #303130",
"d>	c #343432",
"e>	c #232326",
"f>	c #232426",
"g>	c #1B1A1B",
"h>	c #2E3334",
"i>	c #4A595F",
"j>	c #40494E",
"k>	c #3A3B3C",
"l>	c #3E3C3B",
"m>	c #403C3A",
"n>	c #41403E",
"o>	c #3F4347",
"p>	c #26292B",
"q>	c #4F5151",
"r>	c #5E6363",
"s>	c #3A3738",
"t>	c #3C3636",
"u>	c #3E3737",
"v>	c #433737",
"w>	c #493530",
"x>	c #45342F",
"y>	c #4E3F3D",
"z>	c #4D4444",
"A>	c #12120F",
"B>	c #0B0805",
"C>	c #150F0F",
"D>	c #0D090B",
"E>	c #0E0B0D",
"F>	c #181310",
"G>	c #100D0D",
"H>	c #1C1716",
"I>	c #141012",
"J>	c #161314",
"K>	c #151514",
"L>	c #14100F",
"M>	c #251C19",
"N>	c #2B211C",
"O>	c #2D2723",
"P>	c #24211F",
"Q>	c #434549",
"R>	c #3E3E40",
"S>	c #3A3937",
"T>	c #3A3838",
"U>	c #3F3D3D",
"V>	c #3F3E40",
"W>	c #44474A",
"X>	c #414548",
"Y>	c #171611",
"Z>	c #242322",
"`>	c #2F3030",
" ,	c #2B2C2B",
".,	c #282827",
"+,	c #1F1D21",
"@,	c #232224",
"#,	c #303636",
"$,	c #444D51",
"%,	c #3A3D3E",
"&,	c #3A3A39",
"*,	c #3F4448",
"=,	c #27292C",
"-,	c #141212",
";,	c #464241",
">,	c #544E4C",
",,	c #433D3B",
"',	c #403936",
"),	c #3C3535",
"!,	c #403434",
"~,	c #47332F",
"{,	c #463D3E",
"],	c #101110",
"^,	c #0E0C0A",
"/,	c #17120F",
"(,	c #16110F",
"_,	c #100B0B",
":,	c #1B1716",
"<,	c #1C1816",
"[,	c #141312",
"},	c #100E0D",
"|,	c #221F1D",
"1,	c #242020",
"2,	c #201D1D",
"3,	c #231C1B",
"4,	c #241819",
"5,	c #302422",
"6,	c #372A25",
"7,	c #312623",
"8,	c #424548",
"9,	c #3D3A38",
"0,	c #393636",
"a,	c #3E3A3A",
"b,	c #403C3C",
"c,	c #3F3D3C",
"d,	c #454446",
"e,	c #191815",
"f,	c #242325",
"g,	c #242425",
"h,	c #2D2E2C",
"i,	c #525F63",
"j,	c #4B5255",
"k,	c #39393C",
"l,	c #39393B",
"m,	c #3D4042",
"n,	c #47494E",
"o,	c #2C2E2F",
"p,	c #141210",
"q,	c #3B3534",
"r,	c #473E3C",
"s,	c #4B4340",
"t,	c #48403B",
"u,	c #3C332F",
"v,	c #382E2E",
"w,	c #3F3332",
"x,	c #4C3A34",
"y,	c #4A3934",
"z,	c #423531",
"A,	c #3A3232",
"B,	c #0E1010",
"C,	c #100C0D",
"D,	c #130F0C",
"E,	c #110C0A",
"F,	c #16100E",
"G,	c #140F0A",
"H,	c #201A15",
"I,	c #201B17",
"J,	c #2F2C28",
"K,	c #2F2A26",
"L,	c #241D1C",
"M,	c #241D1D",
"N,	c #362D29",
"O,	c #3C312A",
"P,	c #322621",
"Q,	c #352723",
"R,	c #312421",
"S,	c #322723",
"T,	c #29211E",
"U,	c #403E3C",
"V,	c #3C3939",
"W,	c #3F3C3D",
"X,	c #3F3D3B",
"Y,	c #3A3B38",
"Z,	c #1C1918",
"`,	c #23201F",
" '	c #1F1B1B",
".'	c #201F20",
"+'	c #B1CCF5",
"@'	c #1C1A1B",
"#'	c #2A2E30",
"$'	c #4B575D",
"%'	c #454C4E",
"&'	c #3C3B3D",
"*'	c #39383B",
"='	c #4C4C4F",
"-'	c #181514",
";'	c #464442",
">'	c #484546",
",'	c #45403E",
"''	c #4A3E39",
")'	c #42332D",
"!'	c #3F322C",
"~'	c #473931",
"{'	c #534037",
"]'	c #463835",
"^'	c #3B3333",
"/'	c #0F1211",
"('	c #0F0B0A",
"_'	c #120C0B",
":'	c #0F0C0B",
"<'	c #171211",
"['	c #17120E",
"}'	c #241E19",
"|'	c #211B19",
"1'	c #292624",
"2'	c #2A2423",
"3'	c #261F1E",
"4'	c #25201F",
"5'	c #302B29",
"6'	c #2D2623",
"7'	c #2A201E",
"8'	c #332822",
"9'	c #2F241E",
"0'	c #2F231E",
"a'	c #271D1C",
"b'	c #3F4345",
"c'	c #3F3F3E",
"d'	c #3F3E3D",
"e'	c #373938",
"f'	c #3B3F43",
"g'	c #191615",
"h'	c #191617",
"i'	c #A8C4F2",
"j'	c #A5C2F2",
"k'	c #19181B",
"l'	c #131112",
"m'	c #282D30",
"n'	c #445057",
"o'	c #42494D",
"p'	c #3D3C3E",
"q'	c #424344",
"r'	c #4E4F51",
"s'	c #2D2E2E",
"t'	c #515557",
"u'	c #555A60",
"v'	c #423731",
"w'	c #433229",
"x'	c #41302A",
"y'	c #47352D",
"z'	c #4F3A30",
"A'	c #4D3B35",
"B'	c #4B3D3A",
"C'	c #453B3C",
"D'	c #141615",
"E'	c #0E0C09",
"F'	c #110E0A",
"G'	c #0E0B07",
"H'	c #16130D",
"I'	c #18140F",
"J'	c #14100D",
"K'	c #18130E",
"L'	c #151210",
"M'	c #0C0B0C",
"N'	c #181614",
"O'	c #211B18",
"P'	c #2B2420",
"Q'	c #221E1A",
"R'	c #1E1C17",
"S'	c #1F1B19",
"T'	c #221E1C",
"U'	c #26201C",
"V'	c #1F1713",
"W'	c #3E3E3E",
"X'	c #3C3A39",
"Y'	c #3D3C3C",
"Z'	c #414347",
"`'	c #131210",
" )	c #1F1C1C",
".)	c #181715",
"+)	c #151312",
"@)	c #90B1EC",
"#)	c #8AACEA",
"$)	c #759DE5",
"%)	c #110F0E",
"&)	c #2B3132",
"*)	c #49555B",
"=)	c #3D3C3D",
"-)	c #403F40",
";)	c #474646",
">)	c #545556",
",)	c #141616",
"')	c #4B5458",
"))	c #58646A",
"!)	c #4B5055",
"~)	c #453A39",
"{)	c #40302B",
"])	c #3B2C29",
"^)	c #44332D",
"/)	c #4C392F",
"()	c #463530",
"_)	c #443633",
":)	c #443938",
"<)	c #110D0A",
"[)	c #140F0C",
"})	c #1B1611",
"|)	c #17110E",
"1)	c #120D0D",
"2)	c #0E0909",
"3)	c #0E0D0C",
"4)	c #0E0D0D",
"5)	c #141413",
"6)	c #181412",
"7)	c #1D1716",
"8)	c #201C1A",
"9)	c #1C1715",
"0)	c #1A1613",
"a)	c #13110F",
"b)	c #1A1411",
"c)	c #211916",
"d)	c #1F1815",
"e)	c #3C3B3B",
"f)	c #3D3D3C",
"g)	c #3F3F41",
"h)	c #454649",
"i)	c #11110F",
"j)	c #1D1A19",
"k)	c #252120",
"l)	c #1B1917",
"m)	c #141111",
"n)	c #6F99E4",
"o)	c #6B96E3",
"p)	c #608FE1",
"q)	c #588AE0",
"r)	c #2F3333",
"s)	c #4D565B",
"t)	c #3A393B",
"u)	c #3F3F40",
"v)	c #404141",
"w)	c #515256",
"x)	c #303032",
"y)	c #1A1817",
"z)	c #515659",
"A)	c #555E63",
"B)	c #424449",
"C)	c #433634",
"D)	c #43322B",
"E)	c #392B28",
"F)	c #3B302B",
"G)	c #4A3831",
"H)	c #44332E",
"I)	c #423432",
"J)	c #453937",
"K)	c #0E0D09",
"L)	c #140F0D",
"M)	c #1A1311",
"N)	c #120D0B",
"O)	c #100E0C",
"P)	c #0C0A09",
"Q)	c #161517",
"R)	c #121416",
"S)	c #141517",
"T)	c #232322",
"U)	c #2D2A2A",
"V)	c #2C2A29",
"W)	c #171716",
"X)	c #1A1917",
"Y)	c #292523",
"Z)	c #211C1A",
"`)	c #3E3F41",
" !	c #39393A",
".!	c #3D3B39",
"+!	c #424144",
"@!	c #3A393A",
"#!	c #1E1B19",
"$!	c #282322",
"%!	c #151313",
"&!	c #2D3031",
"*!	c #495359",
"=!	c #3E4347",
"-!	c #37383B",
";!	c #3B393B",
">!	c #3F4245",
",!	c #474A4F",
"'!	c #2B2B2E",
")!	c #5A5B5E",
"!!	c #595C62",
"~!	c #3F3D41",
"{!	c #453A35",
"]!	c #352E30",
"^!	c #2F2C2F",
"/!	c #392F2E",
"(!	c #3E3434",
"_!	c #493E3D",
":!	c #473B39",
"<!	c #0F100B",
"[!	c #2D292A",
"}!	c #3C3639",
"|!	c #383637",
"1!	c #3E3B3D",
"2!	c #343435",
"3!	c #2E2E2F",
"4!	c #242424",
"5!	c #0A0705",
"6!	c #1B1B1E",
"7!	c #191A1D",
"8!	c #33302F",
"9!	c #232323",
"0!	c #222423",
"a!	c #2F2C2A",
"b!	c #393838",
"c!	c #383635",
"d!	c #3B3839",
"e!	c #3D3B3C",
"f!	c #403D3F",
"g!	c #3A3839",
"h!	c #13120F",
"i!	c #120E11",
"j!	c #191614",
"k!	c #151213",
"l!	c #2D2F2F",
"m!	c #4B5459",
"n!	c #363739",
"o!	c #3B393A",
"p!	c #535456",
"q!	c #5D5E61",
"r!	c #4B4443",
"s!	c #4D4039",
"t!	c #493E39",
"u!	c #3A3537",
"v!	c #2F3034",
"w!	c #342F30",
"x!	c #3B3331",
"y!	c #4B3D3B",
"z!	c #493D3A",
"A!	c #131311",
"B!	c #373032",
"C!	c #3E3638",
"D!	c #3D373A",
"E!	c #474141",
"F!	c #433F40",
"G!	c #373638",
"H!	c #3F4042",
"I!	c #0E0B09",
"J!	c #100F0C",
"K!	c #151413",
"L!	c #1B1A1A",
"M!	c #242323",
"N!	c #212121",
"O!	c #242627",
"P!	c #2A2C2E",
"Q!	c #2B2E2F",
"R!	c #2C2F30",
"S!	c #282A2C",
"T!	c #444446",
"U!	c #3D3B3D",
"V!	c #393738",
"W!	c #3C3838",
"X!	c #3E3939",
"Y!	c #3C3837",
"Z!	c #3C383A",
"`!	c #3D3837",
" ~	c #393534",
".~	c #14120D",
"+~	c #221C18",
"@~	c #271F1D",
"#~	c #141112",
"$~	c #191818",
"%~	c #191616",
"&~	c #2E3131",
"*~	c #4D575B",
"=~	c #454B4D",
"-~	c #393A38",
";~	c #3C3A3A",
">~	c #414141",
",~	c #474A4D",
"'~	c #1B1816",
")~	c #45464B",
"!~	c #525053",
"~~	c #534743",
"{~	c #533F38",
"]~	c #4A3B33",
"^~	c #353537",
"/~	c #423730",
"(~	c #4D3E39",
"_~	c #473A37",
":~	c #161716",
"<~	c #2E2829",
"[~	c #403636",
"}~	c #443837",
"|~	c #493F3A",
"1~	c #48413E",
"2~	c #3A363A",
"3~	c #2A2B2E",
"4~	c #0A0500",
"5~	c #263138",
"6~	c #313D49",
"7~	c #38444F",
"8~	c #445159",
"9~	c #465259",
"0~	c #445056",
"a~	c #4D5960",
"b~	c #536169",
"c~	c #4C5C65",
"d~	c #4B5B64",
"e~	c #4B565D",
"f~	c #423F42",
"g~	c #3F3936",
"h~	c #3D3632",
"i~	c #3F3734",
"j~	c #413834",
"k~	c #3C342F",
"l~	c #393533",
"m~	c #0D100B",
"n~	c #1F1917",
"o~	c #27201F",
"p~	c #1B1817",
"q~	c #171516",
"r~	c #292D30",
"s~	c #485358",
"t~	c #464D50",
"u~	c #3D403E",
"v~	c #454547",
"w~	c #4E5054",
"x~	c #2F2F31",
"y~	c #1B1919",
"z~	c #43484F",
"A~	c #504F53",
"B~	c #544844",
"C~	c #4F3934",
"D~	c #4A3935",
"E~	c #473F3E",
"F~	c #3C3637",
"G~	c #463731",
"H~	c #4D3932",
"I~	c #433631",
"J~	c #131614",
"K~	c #292324",
"L~	c #382C2D",
"M~	c #433635",
"N~	c #433531",
"O~	c #3C3431",
"P~	c #343236",
"Q~	c #0B0600",
"R~	c #333F47",
"S~	c #35414B",
"T~	c #363F48",
"U~	c #40484E",
"V~	c #3C4248",
"W~	c #3F4447",
"X~	c #4A5257",
"Y~	c #434D53",
"Z~	c #3E474E",
"`~	c #433D41",
" {	c #3E3736",
".{	c #3C3331",
"+{	c #3C322F",
"@{	c #5180CF",
"#{	c #446AAD",
"${	c #3A5B94",
"%{	c #3A3535",
"&{	c #0C0E0E",
"*{	c #1A1616",
"={	c #261F20",
"-{	c #1C1818",
";{	c #181617",
">{	c #1E1C1C",
",{	c #181416",
"'{	c #2E3234",
"){	c #48535A",
"!{	c #41474B",
"~{	c #4A494C",
"{{	c #4F5157",
"]{	c #1C1B1B",
"^{	c #51565A",
"/{	c #5A5A5B",
"({	c #574B45",
"_{	c #503A32",
":{	c #4C3933",
"<{	c #483E3C",
"[{	c #453A37",
"}{	c #503B32",
"|{	c #B0CBF5",
"1{	c #AFCAF4",
"2{	c #36302E",
"3{	c #373738",
"4{	c #37393E",
"5{	c #222527",
"6{	c #0A0600",
"7{	c #2F373C",
"8{	c #343B40",
"9{	c #333639",
"0{	c #303030",
"a{	c #282321",
"b{	c #2D2823",
"c{	c #292422",
"d{	c #333331",
"e{	c #2E2E2C",
"f{	c #272625",
"g{	c #464040",
"h{	c #3F3635",
"i{	c #3D3430",
"j{	c #3D332E",
"k{	c #3D312D",
"l{	c #3C2F2C",
"m{	c #382F2F",
"n{	c #090A0A",
"o{	c #1D1718",
"p{	c #292021",
"q{	c #1D1918",
"r{	c #161312",
"s{	c #191613",
"t{	c #191716",
"u{	c #1C1919",
"v{	c #2C2F31",
"w{	c #4B545C",
"x{	c #38393C",
"y{	c #49494A",
"z{	c #4D4D51",
"A{	c #1D1C1B",
"B{	c #595D60",
"C{	c #636163",
"D{	c #5A4C45",
"E{	c #51382E",
"F{	c #51392E",
"G{	c #4D423C",
"H{	c #4B413D",
"I{	c #514035",
"J{	c #ACC7F1",
"K{	c #A4BFE9",
"L{	c #A0BAE5",
"M{	c #9FBAE4",
"N{	c #A1BBE6",
"O{	c #2D2828",
"P{	c #242626",
"Q{	c #090401",
"R{	c #2C333B",
"S{	c #313943",
"T{	c #3A4247",
"U{	c #2C2927",
"V{	c #1F1C1D",
"W{	c #242225",
"X{	c #2B2C2C",
"Y{	c #2A2A2A",
"Z{	c #494242",
"`{	c #3E332F",
" ]	c #40332D",
".]	c #3E322D",
"+]	c #3F332E",
"@]	c #473932",
"#]	c #52453F",
"$]	c #382F2D",
"%]	c #0C0D0E",
"&]	c #292121",
"*]	c #1C1819",
"=]	c #171615",
"-]	c #191817",
";]	c #1C1B1A",
">]	c #545D64",
",]	c #383739",
"']	c #414243",
")]	c #444545",
"!]	c #2B2B2C",
"~]	c #B2CDF6",
"{]	c #B2CDF7",
"]]	c #B1CCF6",
"^]	c #AFCAF5",
"/]	c #B0CBF6",
"(]	c #AFCBF5",
"_]	c #A4BFEA",
":]	c #8DA7D3",
"<]	c #7E98C5",
"[]	c #88A2CE",
"}]	c #B1CBF5",
"|]	c #2D373E",
"1]	c #2F3A44",
"2]	c #384247",
"3]	c #373C3E",
"4]	c #343430",
"5]	c #211D1B",
"6]	c #2B2826",
"7]	c #323032",
"8]	c #353636",
"9]	c #383A38",
"0]	c #333433",
"a]	c #4B4444",
"b]	c #3E3734",
"c]	c #3C312D",
"d]	c #40332F",
"e]	c #3E312D",
"f]	c #3D322E",
"g]	c #3E3531",
"h]	c #483D38",
"i]	c #4E4441",
"j]	c #483C38",
"k]	c #3A322E",
"l]	c #0F1010",
"m]	c #201C19",
"n]	c #281F1D",
"o]	c #141515",
"p]	c #161615",
"q]	c #151515",
"r]	c #303233",
"s]	c #50575E",
"t]	c #46474B",
"u]	c #3C3A3C",
"v]	c #3D3B3B",
"w]	c #404243",
"x]	c #ABC7F3",
"y]	c #ABC6F2",
"z]	c #AAC5F0",
"A]	c #AAC5EF",
"B]	c #AFC9F3",
"C]	c #B2CCF5",
"D]	c #B4CDF6",
"E]	c #B3CDF5",
"F]	c #A0BAE3",
"G]	c #748DBB",
"H]	c #4F6B9F",
"I]	c #4D6A9E",
"J]	c #718BB9",
"K]	c #9CB7E1",
"L]	c #ACC8F4",
"M]	c #A9C5F3",
"N]	c #3B464E",
"O]	c #374146",
"P]	c #2F3336",
"Q]	c #2C2B27",
"R]	c #231F1C",
"S]	c #332F2D",
"T]	c #404140",
"U]	c #494342",
"V]	c #433A35",
"W]	c #42352E",
"X]	c #40332E",
"Y]	c #3E322E",
"Z]	c #3A302D",
"`]	c #3A302E",
" ^	c #4B413C",
".^	c #4E403B",
"+^	c #413734",
"@^	c #0C0D0C",
"#^	c #1E1816",
"$^	c #29201D",
"%^	c #121212",
"&^	c #131113",
"*^	c #1D1B1C",
"=^	c #1D191A",
"-^	c #282725",
";^	c #353334",
">^	c #393839",
",^	c #424346",
"'^	c #A6C3F3",
")^	c #9BBAEF",
"!^	c #97B5E9",
"~^	c #94B0DE",
"{^	c #92ACD8",
"]^	c #92ACD7",
"^^	c #9AB4DF",
"/^	c #A8C3EE",
"(^	c #BAD1F6",
"_^	c #BFD5F7",
":^	c #BFD4F7",
"<^	c #A8BDE1",
"[^	c #6E84AE",
"}^	c #2D4F87",
"|^	c #284B85",
"1^	c #294C85",
"2^	c #6780AE",
"3^	c #9CB6E0",
"4^	c #ABC7F4",
"5^	c #9FBDF0",
"6^	c #92B2EC",
"7^	c #7CA2E7",
"8^	c #3E474C",
"9^	c #2C2A24",
"0^	c #32302E",
"a^	c #3B3B39",
"b^	c #363838",
"c^	c #383A3C",
"d^	c #47403F",
"e^	c #493D39",
"f^	c #483A32",
"g^	c #42332C",
"h^	c #3E312B",
"i^	c #3E322C",
"j^	c #3C302C",
"k^	c #463933",
"l^	c #493933",
"m^	c #3C302B",
"n^	c #080A09",
"o^	c #1E1715",
"p^	c #2F2422",
"q^	c #161313",
"r^	c #151311",
"s^	c #1D1A1B",
"t^	c #171315",
"u^	c #A0BEF1",
"v^	c #86A9E9",
"w^	c #7498DA",
"x^	c #6D8BC3",
"y^	c #6984B3",
"z^	c #6A84B4",
"A^	c #819BC8",
"B^	c #A2BCE6",
"C^	c #B7CFF5",
"D^	c #C4D7F7",
"E^	c #CBDCF7",
"F^	c #CADBF6",
"G^	c #B1C2DF",
"H^	c #7283A8",
"I^	c #26457C",
"J^	c #1F417A",
"K^	c #21427A",
"L^	c #647CA7",
"M^	c #9BB4DE",
"N^	c #A4C1F1",
"O^	c #89ABEA",
"P^	c #729AE5",
"Q^	c #6290E2",
"R^	c #578AE0",
"S^	c #403D3B",
"T^	c #424341",
"U^	c #4A4140",
"V^	c #463936",
"W^	c #47372F",
"X^	c #42302A",
"Y^	c #3B2B24",
"Z^	c #3C2E27",
"`^	c #473B33",
" /	c #3F302A",
"./	c #3E2E27",
"+/	c #342A25",
"@/	c #090C0B",
"#/	c #2B201D",
"$/	c #251D19",
"%/	c #181212",
"&/	c #161110",
"*/	c #1E1C1A",
"=/	c #1A1617",
"-/	c #1E1D1F",
";/	c #202022",
">/	c #212323",
",/	c #A4C1F2",
"'/	c #95B4EB",
")/	c #7298DD",
"!/	c #527DC8",
"~/	c #466AAA",
"{/	c #49679D",
"]/	c #5A76A7",
"^/	c #7F98C4",
"//	c #A6BEE6",
"(/	c #BDD3F6",
"_/	c #C7DAF7",
":/	c #CADAF4",
"</	c #C4D2EB",
"[/	c #A9B7D1",
"}/	c #6C7B9E",
"|/	c #244176",
"1/	c #1D3D74",
"2/	c #1F3E74",
"3/	c #5C739E",
"4/	c #8FA8D2",
"5/	c #A3BEE8",
"6/	c #94B2E6",
"7/	c #749BE3",
"8/	c #5B8CE1",
"9/	c #3C3D3B",
"0/	c #3E403E",
"a/	c #4B4140",
"b/	c #443734",
"c/	c #44342D",
"d/	c #413029",
"e/	c #3B2A24",
"f/	c #3A2A26",
"g/	c #3C2E29",
"h/	c #41332D",
"i/	c #3C2E2A",
"j/	c #3C2D29",
"k/	c #372D2A",
"l/	c #0E1110",
"m/	c #1E1819",
"n/	c #231B19",
"o/	c #191513",
"p/	c #0F0E0D",
"q/	c #120E0D",
"r/	c #171413",
"s/	c #181615",
"t/	c #151414",
"u/	c #B2CCF6",
"v/	c #92B3ED",
"w/	c #8BADEB",
"x/	c #8BAEEC",
"y/	c #7EA1E1",
"z/	c #5F85CA",
"A/	c #416BB2",
"B/	c #385E9D",
"C/	c #5370A3",
"D/	c #7993C0",
"E/	c #9AB2D9",
"F/	c #B7CBED",
"G/	c #C4D8F7",
"H/	c #C4D8F8",
"I/	c #B9CCEB",
"J/	c #A4B4D0",
"K/	c #8593B0",
"L/	c #55658C",
"M/	c #223F74",
"N/	c #1E3D73",
"O/	c #203D73",
"P/	c #4B6391",
"Q/	c #728BB8",
"R/	c #829CC9",
"S/	c #839DC9",
"T/	c #7897CF",
"U/	c #648EDB",
"V/	c #5689E1",
"W/	c #578AE1",
"X/	c #588BE1",
"Y/	c #5789E0",
"Z/	c #353535",
"`/	c #373939",
" (	c #393B3C",
".(	c #4A4343",
"+(	c #453B38",
"@(	c #3E302B",
"#(	c #3C2F2B",
"$(	c #3B302C",
"%(	c #3A2E2A",
"&(	c #3C322D",
"*(	c #382C28",
"=(	c #37302E",
"-(	c #0E1211",
";(	c #221D1C",
">(	c #0D0D0D",
",(	c #0E0E0E",
"'(	c #1D1E1E",
")(	c #202121",
"!(	c #ADC9F4",
"~(	c #9CBBEE",
"{(	c #7CA1E5",
"](	c #6792E0",
"^(	c #6692DF",
"/(	c #6893E0",
"((	c #5F88D1",
"_(	c #4B71B3",
":(	c #3A5D9A",
"<(	c #395B95",
"[(	c #647FAF",
"}(	c #94AED9",
"|(	c #B2C9EF",
"1(	c #C4D7F5",
"2(	c #C6D8F6",
"3(	c #B9CFF2",
"4(	c #A0B7DD",
"5(	c #768AAF",
"6(	c #4D5F88",
"7(	c #334A7A",
"8(	c #234075",
"9(	c #223F75",
"0(	c #355083",
"a(	c #4B6699",
"b(	c #5470A2",
"c(	c #5571A3",
"d(	c #5577B4",
"e(	c #5682D0",
"f(	c #5788DD",
"g(	c #5789DE",
"h(	c #5889DF",
"i(	c #5B8CE0",
"j(	c #363736",
"k(	c #393B3B",
"l(	c #494544",
"m(	c #47413F",
"n(	c #423A36",
"o(	c #3F3733",
"p(	c #3F3934",
"q(	c #393633",
"r(	c #35312E",
"s(	c #3A3531",
"t(	c #3F3B37",
"u(	c #393433",
"v(	c #0C100E",
"w(	c #111313",
"x(	c #111111",
"y(	c #A1BFF1",
"z(	c #8CACE7",
"A(	c #698FD5",
"B(	c #4E7CCB",
"C(	c #4D7BCB",
"D(	c #4E7CCC",
"E(	c #4873BD",
"F(	c #3C609E",
"G(	c #305088",
"H(	c #33538A",
"I(	c #6882B0",
"J(	c #9DB7E1",
"K(	c #B9D1F8",
"L(	c #BED1F0",
"M(	c #A4BBE0",
"N(	c #829AC3",
"O(	c #516895",
"P(	c #1C3C73",
"Q(	c #1D3C73",
"R(	c #27457B",
"S(	c #2D4D84",
"T(	c #305189",
"U(	c #3A5F9E",
"V(	c #4974BD",
"W(	c #507DCB",
"X(	c #507ECC",
"Y(	c #5281D1",
"Z(	c #5687DC",
"`(	c #6794E3",
" _	c #8DAFEC",
"._	c #393B3A",
"+_	c #383738",
"@_	c #333133",
"#_	c #433F41",
"$_	c #423D3D",
"%_	c #433F39",
"&_	c #413C35",
"*_	c #3F3A36",
"=_	c #313131",
"-_	c #464444",
";_	c #0E0F0D",
">_	c #1A1514",
",_	c #131111",
"'_	c #131211",
")_	c #313130",
"!_	c #8CAEEB",
"~_	c #7096DA",
"{_	c #557BBF",
"]_	c #426AAF",
"^_	c #4169AE",
"/_	c #3D63A4",
"(_	c #32538C",
"__	c #2B487E",
":_	c #667EA9",
"<_	c #9CB6DF",
"[_	c #B5CFF7",
"}_	c #BAD2F7",
"|_	c #ABC1E6",
"1_	c #859AC1",
"2_	c #5B719D",
"3_	c #375182",
"4_	c #1B3C73",
"5_	c #1F3D73",
"6_	c #244277",
"7_	c #25447B",
"8_	c #25457C",
"9_	c #26467D",
"0_	c #30528C",
"a_	c #3E63A4",
"b_	c #446BAF",
"c_	c #456CB0",
"d_	c #4974BE",
"e_	c #5483D5",
"f_	c #729BE5",
"g_	c #9AB9EF",
"h_	c #373636",
"i_	c #454143",
"j_	c #3F3832",
"k_	c #413831",
"l_	c #3F3834",
"m_	c #393735",
"n_	c #383A39",
"o_	c #454242",
"p_	c #3A3533",
"q_	c #13120E",
"r_	c #121012",
"s_	c #0F0E10",
"t_	c #171414",
"u_	c #323232",
"v_	c #343434",
"w_	c #A7C4F2",
"x_	c #98B7EC",
"y_	c #759BDF",
"z_	c #547FCA",
"A_	c #436AAB",
"B_	c #3C5D98",
"C_	c #3B5D97",
"D_	c #3B5E98",
"E_	c #3B5D98",
"F_	c #355790",
"G_	c #2B4A80",
"H_	c #203E74",
"I_	c #5D749F",
"J_	c #91A9D2",
"K_	c #A6C0E9",
"L_	c #A7C0E9",
"M_	c #93ABD3",
"N_	c #6379A2",
"O_	c #30497B",
"P_	c #244175",
"Q_	c #2B497F",
"R_	c #34558D",
"S_	c #395A93",
"T_	c #395B94",
"U_	c #4066A9",
"V_	c #4E7BC9",
"W_	c #7198DF",
"X_	c #96B5EC",
"Y_	c #A6C3F2",
"Z_	c #333636",
"`_	c #343535",
" :	c #383836",
".:	c #383734",
"+:	c #392C28",
"@:	c #3B2B28",
"#:	c #382E2B",
"$:	c #413D3A",
"%:	c #393331",
"&:	c #181713",
"*:	c #231C1A",
"=:	c #121010",
"-:	c #1D1917",
";:	c #30312F",
">:	c #2B3130",
",:	c #A3C1F2",
"':	c #93B4ED",
"):	c #80A2E1",
"!:	c #6086CC",
"~:	c #446EB5",
"{:	c #3C609F",
"]:	c #395A92",
"^:	c #395991",
"/:	c #365A92",
"(:	c #2E5992",
"_:	c #28538B",
"::	c #24477D",
"<:	c #4C628F",
"[:	c #748AB3",
"}:	c #849CC5",
"|:	c #839BC4",
"1:	c #7289B3",
"2:	c #485F8C",
"3:	c #1A3A71",
"4:	c #233F74",
"5:	c #264378",
"6:	c #2C4A80",
"7:	c #2F4D83",
"8:	c #2F4E84",
"9:	c #365996",
"0:	c #456DB3",
"a:	c #6389CD",
"b:	c #81A3E2",
"c:	c #8EB0EB",
"d:	c #313433",
"e:	c #353634",
"f:	c #393A37",
"g:	c #4D4A49",
"h:	c #3C3634",
"i:	c #392F2D",
"j:	c #3B2F2D",
"k:	c #3D3332",
"l:	c #413E3B",
"m:	c #41413F",
"n:	c #3E3C3A",
"o:	c #3E3A37",
"p:	c #3F3A39",
"q:	c #131513",
"r:	c #241C1A",
"s:	c #2C221F",
"t:	c #1D1714",
"u:	c #241F1B",
"v:	c #80A5E8",
"w:	c #638CD5",
"x:	c #4D73B6",
"y:	c #3E629F",
"z:	c #3B5C97",
"A:	c #405B94",
"B:	c #485C93",
"C:	c #44568C",
"D:	c #32497E",
"E:	c #224075",
"F:	c #334C7E",
"G:	c #516793",
"H:	c #475E8C",
"I:	c #334C7D",
"J:	c #264479",
"K:	c #27447A",
"L:	c #27457A",
"M:	c #2E4D85",
"N:	c #3A5D99",
"O:	c #4E74B7",
"P:	c #6C97E3",
"Q:	c #343534",
"R:	c #383938",
"S:	c #474242",
"T:	c #403B3A",
"U:	c #433834",
"V:	c #443A35",
"W:	c #3D332F",
"X:	c #453834",
"Y:	c #3C2E2C",
"Z:	c #3C2E2D",
"`:	c #383130",
" <	c #0F1514",
".<	c #2E231F",
"+<	c #3D2D26",
"@<	c #3B2D26",
"#<	c #2A1F1C",
"$<	c #231D1A",
"%<	c #373633",
"&<	c #9FBDF1",
"*<	c #789FE6",
"=<	c #5180D0",
"-<	c #4168AC",
";<	c #3A5A93",
"><	c #375B94",
",<	c #385B95",
"'<	c #5C5E93",
")<	c #82628F",
"!<	c #815D87",
"~<	c #554C7C",
"{<	c #1F3F75",
"]<	c #213F74",
"^<	c #274479",
"/<	c #304F85",
"(<	c #4065A7",
"_<	c #507ECE",
":<	c #353637",
"<<	c #3A3C3B",
"[<	c #474041",
"}<	c #443E3D",
"|<	c #413A35",
"1<	c #423029",
"2<	c #463128",
"3<	c #442D26",
"4<	c #412D25",
"5<	c #412D27",
"6<	c #372C29",
"7<	c #0D1514",
"8<	c #352A25",
"9<	c #433128",
"0<	c #382820",
"a<	c #2B201C",
"b<	c #302D2B",
"c<	c #779FE6",
"d<	c #507FD0",
"e<	c #4068AB",
"f<	c #355B95",
"g<	c #7A6290",
"h<	c #B66B88",
"i<	c #B5667F",
"j<	c #765079",
"k<	c #1A3F75",
"l<	c #1D3C72",
"m<	c #29467B",
"n<	c #3A5F9F",
"o<	c #4D7CCC",
"p<	c #5689E0",
"q<	c #363738",
"r<	c #393A3A",
"s<	c #353739",
"t<	c #433D3F",
"u<	c #444141",
"v<	c #45423E",
"w<	c #402F28",
"x<	c #413028",
"y<	c #43342B",
"z<	c #42352C",
"A<	c #3F3029",
"B<	c #45352D",
"C<	c #3D3230",
"D<	c #111818",
"E<	c #362924",
"F<	c #46332A",
"G<	c #3F2F27",
"H<	c #2D221C",
"I<	c #9FBCEF",
"J<	c #779CE1",
"K<	c #4F7CCA",
"L<	c #4067A9",
"M<	c #385991",
"N<	c #3B5890",
"O<	c #4C578E",
"P<	c #935F88",
"Q<	c #D36C7C",
"R<	c #D06875",
"S<	c #875175",
"T<	c #163F75",
"U<	c #254379",
"V<	c #2C4B84",
"W<	c #3D63A6",
"X<	c #363638",
"Y<	c #373A3A",
"Z<	c #4A4848",
"`<	c #4A4B49",
" [	c #454642",
".[	c #3D2F2B",
"+[	c #3D322C",
"@[	c #392F2A",
"#[	c #453833",
"$[	c #453B39",
"%[	c #151A1A",
"&[	c #2E211D",
"*[	c #442F27",
"=[	c #46352C",
"-[	c #332721",
";[	c #27201C",
">[	c #332F2B",
",[	c #9FBBEA",
"'[	c #7395D2",
")[	c #4871B8",
"![	c #3D62A2",
"~[	c #375991",
"{[	c #34538A",
"][	c #4B4E83",
"^[	c #714B7B",
"/[	c #AA5272",
"([	c #DD6069",
"_[	c #D65E69",
":[	c #8A4D71",
"<[	c #153F75",
"[[	c #2C4C86",
"}[	c #3A60A2",
"|[	c #4873BE",
"1[	c #5383D5",
"2[	c #38383A",
"3[	c #4F4A4A",
"4[	c #484445",
"5[	c #3A312E",
"6[	c #362E2C",
"7[	c #3F3431",
"8[	c #3E3631",
"9[	c #3D3732",
"0[	c #433A37",
"a[	c #403939",
"b[	c #161B1A",
"c[	c #2E221F",
"d[	c #3E2B25",
"e[	c #3A2A24",
"f[	c #271D19",
"g[	c #241C18",
"h[	c #2C2421",
"i[	c #AECAF4",
"j[	c #9BB7E4",
"k[	c #6D8ABF",
"l[	c #3F63A2",
"m[	c #395C97",
"n[	c #33568E",
"o[	c #2D4C82",
"p[	c #584274",
"q[	c #893B63",
"r[	c #B64057",
"s[	c #D94C54",
"t[	c #CD4E5D",
"u[	c #84466D",
"v[	c #174075",
"w[	c #234076",
"x[	c #345794",
"y[	c #4873BF",
"z[	c #3C3D3D",
"A[	c #363939",
"B[	c #443E3E",
"C[	c #423D3C",
"D[	c #3E3836",
"E[	c #343232",
"F[	c #353333",
"G[	c #121818",
"H[	c #332927",
"I[	c #3D2D2A",
"J[	c #2E2120",
"K[	c #211B1C",
"L[	c #1E1A1A",
"M[	c #282323",
"N[	c #9CBBEF",
"O[	c #8FABDD",
"P[	c #6380B3",
"Q[	c #2E5088",
"R[	c #28467C",
"S[	c #553C6D",
"T[	c #85345B",
"U[	c #A93651",
"V[	c #C24053",
"W[	c #B5445E",
"X[	c #75416D",
"Y[	c #1A4075",
"Z[	c #28467B",
"`[	c #4F7DCC",
" }	c #588AE1",
".}	c #35383A",
"+}	c #333738",
"@}	c #333537",
"#}	c #393434",
"$}	c #3D3835",
"%}	c #3E3935",
"&}	c #3A3736",
"*}	c #3D3E3C",
"=}	c #323235",
"-}	c #131717",
";}	c #322825",
">}	c #2D221F",
",}	c #211D1D",
"'}	c #211C1B",
")}	c #6B96E4",
"!}	c #7DA2E8",
"~}	c #7598D7",
"{}	c #5575AE",
"]}	c #36568D",
"^}	c #29487E",
"/}	c #254277",
"(}	c #433D70",
"_}	c #663967",
":}	c #803A63",
"<}	c #913F64",
"[}	c #864169",
"}}	c #584071",
"|}	c #1E3F75",
"1}	c #3F65A6",
"2}	c #517FCF",
"3}	c #36373A",
"4}	c #37383A",
"5}	c #3B3838",
"6}	c #3D3B3A",
"7}	c #3F3B3A",
"8}	c #3D3D3B",
"9}	c #191B18",
"0}	c #28201D",
"a}	c #322623",
"b}	c #2E2420",
"c}	c #241D1A",
"d}	c #5B8BE0",
"e}	c #5F8DDD",
"f}	c #5984CF",
"g}	c #496EB0",
"h}	c #395A95",
"i}	c #2E4D84",
"j}	c #2D4277",
"k}	c #394073",
"l}	c #433F72",
"m}	c #4C4072",
"n}	c #474174",
"o}	c #354277",
"p}	c #254378",
"q}	c #2B497E",
"r}	c #34548C",
"s}	c #4269AB",
"t}	c #373737",
"u}	c #3A3A3C",
"v}	c #3A3C3F",
"w}	c #3F4244",
"x}	c #414242",
"y}	c #3C3C3E",
"z}	c #1B1D1A",
"A}	c #322724",
"B}	c #332A26",
"C}	c #598CE2",
"D}	c #598BE1",
"E}	c #5586DB",
"F}	c #4F7DCE",
"G}	c #4A77C3",
"H}	c #4872BB",
"I}	c #365792",
"J}	c #2E4C82",
"K}	c #29497F",
"L}	c #1F4379",
"M}	c #143F75",
"N}	c #0D3F75",
"O}	c #174379",
"P}	c #27497F",
"Q}	c #2E4C83",
"R}	c #2D4B81",
"S}	c #2D4B80",
"T}	c #304E84",
"U}	c #37568E",
"V}	c #4369AB",
"W}	c #454749",
"X}	c #3D4044",
"Y}	c #3F4144",
"Z}	c #434445",
"`}	c #454746",
" |	c #393A3D",
".|	c #191A19",
"+|	c #588ADF",
"@|	c #5282D3",
"#|	c #4872B9",
"$|	c #466FB6",
"%|	c #4E7BC8",
"&|	c #4C78C3",
"*|	c #3F64A3",
"=|	c #36568E",
"-|	c #35558D",
";|	c #315188",
">|	c #26477C",
",|	c #1E4075",
"'|	c #1C4075",
")|	c #24477C",
"!|	c #305188",
"~|	c #36568F",
"{|	c #37578F",
"]|	c #5280D0",
"^|	c #343437",
"/|	c #333236",
"(|	c #424549",
"_|	c #454949",
":|	c #41464A",
"<|	c #3C4144",
"[|	c #434748",
"}|	c #3E4145",
"||	c #5382D4",
"1|	c #5382D3",
"2|	c #4D79C5",
"3|	c #4268A8",
"4|	c #446BAE",
"5|	c #436AAC",
"6|	c #3C5E98",
"7|	c #4166A7",
"8|	c #3C5E99",
"9|	c #4166A6",
"0|	c #4167A7",
"a|	c #313537",
"b|	c #343637",
"c|	c #323338",
"d|	c #44494C",
"e|	c #464B4B",
"f|	c #454648",
"g|	c #464A4C",
"h|	c #434749",
"i|	c #42484B",
"j|	c #5281D2",
"k|	c #4B76C0",
"l|	c #4972B9",
"m|	c #3D609D",
"n|	c #395A91",
"o|	c #37588F",
"p|	c #335289",
"q|	c #314F85",
"r|	c #3F63A1",
"s|	c #4064A2",
"t|	c #4D79C4",
"u|	c #507DCC",
"v|	c #5586D9",
"w|	c #333536",
"x|	c #323136",
"y|	c #42454A",
"z|	c #464647",
"A|	c #444546",
"B|	c #476FB5",
"C|	c #4065A4",
"D|	c #456DB1",
"E|	c #3D5F9B",
"F|	c #3C5E9A",
"G|	c #3C5F9A",
"H|	c #5686DA",
"I|	c #5586DA",
"J|	c #5687DB",
"K|	c #343436",
"L|	c #2F2D30",
"M|	c #2C2B2F",
"N|	c #44474C",
"O|	c #454A4A",
"P|	c #424241",
"Q|	c #444343",
"R|	c #5484D6",
"S|	c #4B76C1",
"T|	c #466EB3",
"U|	c #466EB4",
"V|	c #446BAD",
"W|	c #3F62A0",
"X|	c #4C77C2",
"Y|	c #466FB4",
"Z|	c #4C77C1",
"`|	c #302F31",
" 1	c #505558",
".1	c #4C5152",
"+1	c #517FCE",
"@1	c #5383D4",
"#1	c #5788DC",
"$1	c #373739",
"%1	c #3B3C3B",
"&1	c #4F5253",
"*1	c #474B4C",
"=1	c #3E4043",
"-1	c #1F1D1D",
";1	c #38383B",
">1	c #4C4E50",
",1	c #3E403F",
"'1	c #3A3D3C",
")1	c #393C3C",
"!1	c #343738",
"~1	c #171718",
"{1	c #231E1D",
"]1	c #292321",
"^1	c #26221F",
"/1	c #231F1D",
"(1	c #1E1B18",
"_1	c #1F1C18",
":1	c #22211E",
"<1	c #252422",
"[1	c #242526",
"}1	c #2B2F32",
"|1	c #2D2D2F",
"11	c #353633",
"21	c #373836",
"31	c #3E454A",
"41	c #23282B",
"51	c #0B0C0C",
"61	c #303235",
"71	c #3A3D40",
"81	c #2A292A",
"91	c #1E1D1C",
"01	c #23211F",
"a1	c #272524",
"b1	c #333234",
"c1	c #333235",
"d1	c #333336",
"e1	c #2C2B2E",
"f1	c #191919",
"g1	c #262728",
"h1	c #363431",
"i1	c #383535",
"j1	c #303132",
"k1	c #1D1E1D",
"l1	c #333535",
"m1	c #323131",
"n1	c #323231",
"o1	c #30302F",
"p1	c #353437",
"q1	c #343336",
"r1	c #2E2E2E",
"s1	c #282627",
"t1	c #232324",
"u1	c #191714",
"v1	c #1B1A18",
"w1	c #1B1A1C",
"x1	c #181A1A",
"y1	c #222221",
"z1	c #242422",
"A1	c #262523",
"B1	c #262425",
"C1	c #282726",
"D1	c #212122",
"E1	c #1A1B1A",
"F1	c #1A1A1C",
"G1	c #1D1D1E",
"H1	c #1C1C1C",
"I1	c #1B1B1B",
"J1	c #1E1D1B",
"K1	c #22201E",
"L1	c #211F20",
"M1	c #252423",
"N1	c #292725",
"O1	c #2E2A2B",
"P1	c #2D2B2B",
"Q1	c #1E1E1E",
"R1	c #181819",
"S1	c #222323",
"T1	c #262625",
"U1	c #242123",
"V1	c #252324",
"W1	c #262525",
"X1	c #232223",
"Y1	c #222222",
"Z1	c #1D1E1F",
"`1	c #1F1E1E",
" 2	c #1A1A1A",
".2	c #18191A",
"+2	c #161919",
"@2	c #151816",
"#2	c #171515",
"$2	c #161614",
"%2	c #171817",
"&2	c #181716",
"*2	c #191B19",
"=2	c #141514",
"-2	c #141715",
";2	c #151614",
">2	c #151517",
",2	c #161619",
"'2	c #171819",
")2	c #1E1E1D",
"!2	c #21201F",
"~2	c #1F1D1E",
"{2	c #242224",
"]2	c #262524",
"^2	c #232122",
"/2	c #232021",
"(2	c #221F20",
"_2	c #201F1F",
":2	c #20211F",
"<2	c #1F201F",
"  . + @ # $ % & * = - ; > , ' ) ! ~ { ] ^ / ( _ : < [ } | 1 2 3 4 5 6 7 8 9 0 a b c d e f g h i j k l m n o p q r s t u v w x y ",
"z A B C D E F G H I J K L M N O P Q R S T U V W X Y Z `  ...+.3 @.#.$.%.&.*.=.-.;.>.,.'.).!.~.{.].^./.(.3 _.:.<.[.}.|.1.2.> 3.4.",
"5.6.7.8.9.0.a.b.c.d.e.f.g.h.i.j.k.l.m.n.o.p.q.r.Z s.t. .u.v.w.x.y.z.A.B.C.D.E.F.G.H.I.J.K.L.M.N.O.P.Q.R.S.T.U.V.W.X.Y.Z.`. +.+++",
"@+#+$+%+&+*+=+-+$+;+>+,+'+)+9.!+~+{+R ]+^+/+(+_+:+~+<+[+}+|+1+2+3+4+5+6+7+8+9+0+a+b+c+d+e+f+g+h+i+j+k+l+m+n+o+p+#+Y.q+r+s+t+u+v+",
"w+x+y+z+A+B+C+D+E+F+G+H+I+J+K+L+M+N+O+P+Q+R+S+T+U+V+U+W+X+Y+Z+`+3+ @.@+@@@#@$@%@&@*@=@-@;@>@,@'@)@!@~@{@]@! ^@/@(@_@:@<@[@}@|@1@",
"2@3@4@5@6@7@8@9@0@a@b@c@d@e@f@g@h@i@j@k@l@m@n@o@o@V+p@q@r@s@t@u@v@w@x@y@z@A@B@C@D@E@F@G@H@I@J@K@L@M@N@O@P@Q@R@S@T@U@V@W@X@Y@Z@`@",
" #.#+#@###$#%#&#D+W *#=#-#;#>#,#'#)#Y@!#~#{#]#^#t.M /#(#_#:#<#[#}#|#1#2#3#4#5#6#7#8#9#0#a#b#c#d#e#f#g#h#i#j#k#l#m#n#o#p#q#r#s#t#",
"u#v#w#D+x#y#z#A#B#e@C#D#E#F#G#H#I#J#K#L#M#N#O#P#u.Q#R#(#}+S#T#U#V#W#X#Y#Z#`# $.$+$@$#$$$%$&$*$=$-$;$>$,$,+'$)$!$~${$]$^$/$($_$:$",
"<$[$w#}$|$1$-+2$3$4$L+5$6$7$w 8$U+9$0$a$b$c$d$e$u.f$g$h$i$j$k$l$m$n$o$p$q$r$s$t$u$v$w$x$y$z$A$B$C$D$E$F$G$H$I$J$K$L$J$M$N$O$P$Q$",
"R$S$T$U$V$W$X$Y$Z$`$ %.%+%@%#%$%%%&%*%=%-%;%>%,%e$T+ .'%)%!%~%{%]%^%/%(%_%:%<%[%}%|%1%2%3%4%5%6%7%8%9%0%a%b%c%d%e%f%a%g%h%i%j%k%",
"U.l%m%n%o%p%q%r%s%t%u%v%w%x%y%z%A%B%C%D%E%F%G%H%'%.+[+(##%I%J%K%V#5 L%M%N%O%j#P%Q%s@R%S%T%U%V%W%X%Y%Z%`%8% &.&+&@&#&$&%&&&*&=&-&",
";&>&,&'&)&c.!&~&..{&]&^&/&(&_&:&<&[&}&|&1&2&3&4&r.5&t.6&7&8&9&0&a&b&c&)&d&e& .:&f&g&h&i&j&k&l&m&n&o&p&q&Y%r&s&t&u&v&w&x&y&z&*%A&",
"B&C&D&E&$+F&7&G&H&I&6.J&K&c&L&M&N&O&P&Q&R&S&T&U&_+!$V&W&X&Y&Z&{%`& *.*+*@*#*$*%*&***=*-*;*>*,*'*)*!*~*{*]*^*/*(*_*:*<*[*}*|*1*2*",
"3*4*/#/#5*6*7*8*9*0*a*b*c*d*e*f*g*h*i*j*k*l*m*n*F&V&o*~&p*q*r*s*t*u*v*w*x*y*z*A*|$B*C*D*E*F*G*H*I*J*K*L*M*N*O*P*Q*R*S*T*U*V*W*X*",
"Y*Z*3.5&p%f$m*`* =.=+=b*@=#=C#$=%=&=*===-=;=>=,=g$p%i.'=)=!=%=~={=]=^=/=(=_=:=<=[=}=|=1=2=3=4=5=6=7=8=9=0=a=b=c=d=e=f=g=h=i=j=k=",
"l=m=n=-+7.g$5*}+o=p=q=r=s=t=u=v=w=x=N$y=z=A=B=C=Q#>&##D=E=F=W*G=H=I=J=K=)=L=M=N=O=P=Q=R=S=T=U=V=W=d=X=Y=Z=`= -.-+-@-#-b=$-%-&-*-",
"=---;->-,-'-)-!-Y@]&S#~-{-]-^-/-(-_-:-<-[-}-|-1-g$2-3-A*&#4-+%5-6-7-8-x+r#9-0-a-b-c-d-0=e-f-!*7=g-h-i-T=j-k-l-m-m&n-o-p-!*8=q-r-",
"s-)=t-+*u-v-w-x-y-{&z-A-B-C-D-E-F-G-H-q&I-J-K-u%7.L-M-N-O-P-Q-G=R-S-T-U-V-W-X-Y-Z-`- ;.;+;@;#;$;%;&;*;=;j--;;;>;,;';o&);!;'*b=~;",
"{;];.*^;/;(;_;:;<;[;3$r=};|;1;2;3;S.d%c@4;5;6;7;8;9;+*0;a;b;c;d;R-e;f;g;h;i;j;k;l;m;n;o;p;q;r;s;t;Y=u;v;w;x;y;z;A;B;j&C;D;$;E;F;",
"n+G;v.n*L%H;4*I;f&J;K;r=s=L;R M;N;O;P;Q;R;S;T;U;V;W;X;Y;B+Z;`;l$ >.>+>##@>#>$>%>&>*>=>->;>>>,>'>)>!>~>{>]>^>/>o&(><-_>'*:><>[>}>",
"|>1>2>3>4>5>6>~$7>8>9>r=0>a>b>c>d>e>f>g>h>i>j>k>)-l>m>n>2>o>p>@&q>r>x+s>t>u>v>w>x>y>z>A>B>>>C>D>E>s;F>G>_>H>I>J>f%K>L>!*M>N>O>P>",
"Q>R>E&S>w-T>)&U>V>W>X>Y>Z>`>e> ,.,+,@,S.#,{#$,%,!-&,2-7.p@*,=,-,;,>,,,&#',),!,~,~@n;{,],^,/,(,_,@;:,<,[,},(>|,1,2,3,&$4,5,6,7,3,",
"8,r.T>9,L-0,a,b,c,d,&+e,<-!#H-.,f,g,h,.&-=i,j,k,l,^;D-Y m,n,o,p,q,r,s,t,u,v,w,x,y,z,A,B,C,C;D,E,F,G,H,I,7%J,K,L,M,N,O,P,Q,R,S,T,",
"m=^;V;U,,-V,W,X,Y,R#&*e,Z,`, '.'+'+'{-@'#'$'%'H%7.&'*'Y c.='_$-';'>',''')'!'~'{'=.]'^'/'('_':'<'F>['}'|'S=1'2'3'4'5'6'7'8'9'0'a'",
"b'2>c'd'2-3>&'E&e'Q#f']>g'2,8%h'i'j'k'l'm'n'o'n*i$2>p'5&q'r's'0&t'u'(@v'w'x'y'z'A'B'C'D'E'F'G'H'I'J'K'L'M'N'O'P'Q'R'S'T'U'~*V'p-",
"q'7.W'X'w-X'Y'c'q*Z'o=`'s; ).)+)@)#)$)%)&)*)G#H;Z !-=)-);)>)c>,)')))!)~){)])^)/)()_):)K>E'<)[)})|)1)2)3)4)5)6)7)8)9)0)a)b)c)d)'*",
"0.=)_+!-e)f)E&f)g)h)6&i)j)k)l)m)n)o)p)q)r)s)9>_;E&t)u)v)a.w)x)y)z)A)B)C)D)E)F)G)H)I)J)~-K)L)6)D$M)L)N)O)P)Q)R)S)T)U)V)W)X)Y)O>Z)",
"`)*# !{$W ;-)-.!U>+!@!i)#!$!==%!q)q)q)q)&!*!=!-!^;;!g;8.>!,!'!S )!!!~!B@{!]!^!/!(!_!:!<![!}!|!1!2!3!r#4!5!+&6!7!g,l.8!9!0!U*a!k)",
"0.=)b!c!d!e!t)V,V;f!g!h!$$<*8%i!j!c%]+k!l!m!v.n!b!o!e!--c&Z;3!(>p!q!r!s!t!u!v!w!x!y!z!A!B!C!D!E!F!G!H! +I!J!K!L!M!k@N!O!P!Q!R!S!",
"T!U!V!W!X!Y!Z!b,W!`! ~.~+~@~);#~]>$~%~3%&~*~=~k>-~;~[%>~H!,~($'~)~!~~~{~]~t-^~_=/~(~_~:~<~[~}~|~1~2~7$3~4~5~6~7~8~9~0~a~b~c~d~e~",
"f~W,V,`!g~h~i~j~k~i~l~m~n~o~p~l'0%*&q~z$r~s~t~p%u~Z [%v)v~w~x~y~z~A~B~C~D~E~F~G~j+H~I~J~K~L~M~N~O~P~h&=,Q~R~S~T~U~V~W~, X~Y~Z~1-",
"`~A. {R..{+{q)@{#{${%{&{*{={-{#~*{;{>{,{'{){!{_&H%s.>&m#~{{{~%]{^{/{({_{:{<{[{}{|{|{1{1{1{1{1{1{2{3{4{5{6{7{8{9{0{a{b{c{V)d{e{f{",
"g{h{i{j{k{l{q)@{#{${m{n{o{p{q{r{s{t{X*u{v{w{o'x{:+s.r.v*y{z{K&A{B{C{D{E{F{G{H{I{|{J{K{L{M{L{L{N{O{;!g$P{Q{R{S{T{$=U{|,V{W{X{Y{0>",
"Z{X-`{ ]z@.]+]@]#]''$]%]h=&]*]=]r=-];]b%T >]q.,]@!7.R#'])])+!]~]{]{]{]{]]]|{^]/](]_]:]<]<]<]<][]M{|{]]}]+'|]1]2]3]4]5]6]7]8]9]0]",
"a]b]c]d]e]f]g]h]i]j]k]l]m]n]*{o]p]q]L!h'r]s]t]u]v]N g$n*w],~x]y]z]A]A]J{B]}]C]D]E]F]G]H]I]I]H]J]K]|{]]^]L]M]N]O]P]Q]R]S]a@F+T]$+",
"U]V]W]X]Y]Z]`]V] ^.^+^@^#^$^n~%^-,&^*^=^-^e*,];^>^H%x+Q#,^'^)^!^~^{^]^^^/^E](^_^:^<^[^}^|^1^}^2^3^]]{]4^5^6^7^8^-#9^0^a^b^c^c.W ",
"d^e^f^g^h^i^j^+@k^l^m^n^o^p^@~q^r^8%>{s^t^*&M*v&|{|{|{}]|{u^v^w^x^y^z^A^B^C^D^E^F^G^H^I^J^K^I^L^M^|{]]N^O^P^Q^q)R^q)S^T^e$M c.@!",
"U^V^W^X^Y^Z^g#`^ /./+/@/l&#/$/%/&/:,*/M*=/-/;/>/j',/,/j',/'/)/!/~/{/]/^///(/_/:/</[/}/|/1/2/|/3/4/5/5/6/7/8/q)q)q)q)9/0/.+u.i$X ",
"a/b/c/d/e/f/g/h/i/j/k/l/m/n/o/p/q/r/s/t/.'+'u/,/v/w/w/x/w/y/z/A/B/C/D/E/F/G/H/I/J/K/L/M/N/O/M/P/Q/R/S/T/U/V/W/X/q)Y/Z/`/ (e$/#` ",
".(+(B.@(#($(%(&(*(k{=(-(B$;(.;>(,([,'()(|{|{!(~({(](^(/(](((_(:(<([(}(|(1(2(3(4(5(6(7(8(9(M/8(0(a(b(c(d(e(f(f(g(h(i(j(e'k(H%` t#",
"l(m(n(o(p(q(r(s(t(v-u(v(q{9=[,w(x(.&3{X{+'L]y(z(A(B(C(D(B(E(F(G(H(I(J(K(H/L(M(N(O(P(Q(8(8(8(8(R(S(G(T(U(V(W(X(Y(Z(`( _._b^> +_@_",
"#_$_%_&_*_2!^ =_>&-_h;;_y$>_,_.;'_{-g$)_|{j'!_~_{_]_^_]_]_/_(_I^__:_<_[_}_|_1_2_3_4_5_8(8(8(8(6_7_8_9_0_a_b_c_d_e_f_g_}]T+Y@h_r#",
"i_X!j_k_l_m_O+n_U@o_p_q_#^';r_s_t_u_}+v_w_x_y_z_A_B_C_D_E_F_G_H_|/I_J_K_L_M_N_O_P_8(8(8(8(8(8(8(|/|/|/Q_R_S_T_U_V_W_X_Y_Z_`_ :.:",
"U]R.+:@:@:#:u(l~$:D=%:&:*:~;#~=:-:;:>:,:':):!:~:{:]:^:/:(:_:::5_M/<:[:}:|:1:2:3:Q(8(8(8(8(8(8(8(4:M/M/5:6:7:8:9:0:a:b:c:d:e:f:S>",
"g:h:i:j:k:l:m:n:o:p:`!q:r:s:T,t:u: :|{u^v:w:x:y:z:${${A:B:C:D:9(E:F:2:G:G:H:I:9(M/8(8(8(8(8(8(8(8(8(8(|/J:K:L:M:N:O:w:P:Q:Z/R:e:",
"S:T:n(U: $V:W:X:Y:Z:`: <.<+<@<#<$<%<|{&<*<=<-<${;<><,<'<)<!<~<8({<E:]<]<]<]<E:8(8(8(8(8(8(8(8(8(8(8(8(8(8(8(8(^</<(<_<R^:<<<x+ +",
"[<}<|<X]1<2<3<4<5<X^6<7<8<9<0<a<{*b<|{5^c<d<e<;<;<f<,<g<h<i<j<8(k<]<l<3:3:l<]<8(8(8(8(8(8(8(8(8(8(8(8(8(8(M/4:P_m<n<o<p<q<r<*#s<",
"t<u<v<+]w<x<y<z<A<B<C<D<E<F<G<H<+~U{|{I<J<K<L<S_M<N<O<P<Q<R<S<8(T<8(8(8(8(8(8(8(8(8(8(8(8(8(8(8(8(8(8(8(8(8(8(U<V<W<_<q)X<{$_+Y<",
"Z<`< [g].[%(/~+[@[#[$[%[&[*[=[-[;[>[u/,['[)[![~[{[][^[/[([_[:[8(<[8(8(8(8(8(8(8(8(8(8(8(8(8(8(8(8(8(8(8(8(M/4:[[}[|[1[q)2[e'r<t=",
"3[4[W-x!5[6[7[8[9[0[a[b[c[d[e[f[g[h[i[j[k[l[m[n[o[p[q[r[s[t[u[8(v[8(8(8(8(8(8(8(8(8(8(8(8(8(8(8(8(8(8(8(8(M/w[x[y[1[f(q)z[b^A[-!",
"B[C[D[',D+E[F[T>1;V;^~G[H[I[J[K[L[M[N[O[P[]:R_Q[R[S[T[U[V[W[X[8(Y[8(8(8(8(8(8(8(8(8(8(8(8(8(8(8(8(8(8(8(8(P_Z[n<`[q) }q).+.}+}@}",
"9-#}$}%}u-&}*}v*Y Z/=}-};}i/>},}'})}!}~}{}]}8:^}/}(}_}:}<}[}}}M/|}M/M/M/M/M/M/M/M/M/M/M/M/M/M/M/M/M/M/M/M/^<8:1}2}X/X/q)k>3}4}n!",
"5}O b!6}7}6}8}U,3>v]>^9}0}a}b}c}q)d}e}f}g}h}i}L:5:j}k}l}m}n}o}5:p}5:5:5:5:5:5:5:5:5:5:5:5:5:5:5:5:5:5:p}5:q}r}s}@{q) }q)t}X<t.u}",
">~v}w}x}N ^;y}U@[%W$$+z}T,A}B}C}D}E}F}G}H}s}I}J}o[K}L}M}N}O}P}J}Q}Q}J}o[R}S}S}R}o[J}Q}Q}J}o[R}R}o[Q}Q}o[R}T}U}V}=<q) }q)4}k>_+X<",
"W}X}..m#1._&Y}Z}`}Z} |.|+|+|+|q)+|@|#|$|%|&|*|=|-|;|>|,|'|)|!|=|=|=|=|=|=|~|~|=|=|=|=|=|=|=|=|=|=|=|=|=|=|{|S_#{]|q) }q)^|n!`//|",
"(|x _|B+T!;#:|<|[|,~}|Q;||1|1|1|1|2|3|4|2}2}5|;<]:]}J}Z[Z[J}]}S_;<S_S_6|l[7|7|l[6|S_S_S_S_8|l[l[8|S_S_6|l[9|0|)[1|q)q)q)I-a|b|c|",
"x d|e|f|F )+g|h|i| }q)j|k|#|#|l|)[4|m|5|=<]|#{;<n|o|p|q|q|p|o|;<;<]:;<r|l|2|2|l|r|;<]:]:;<s|l|l|s|]:]:r|l|t|2|u|v|q)q)q)w|C%b|x|",
"l=y|m=c.L%z|A|Y&q) }q)Y(B|C|C|C|C|y:8|4|]|Y(D|E|F|F|E_E_E_E_F|G|E|F|G|4|u|H|H|u|4|G|F|F|G|b_u|u|b_F|F|4|u|I|H|J|g(q)q)q)K|x)L|M|",
"N|T-O|H;>~P|Q|q)q)q)q)R|S|T|T|U|T|V|W|B|1[R|X|B|Y|B|B|B|B|B|B|B|B|Y|B|Z|R|X/X/R|Z|B|Y|Y|B|X|R|R|X|Y|Y|Z|R|X/X/ }q)q)q)q)2.`|0{E#",
" 1.1{&2[q)q)q)q)q)q)q)Z(1|2}+12}2}K<]{q]J|Z(@1@{2}@{@{@{@{@{@{@{@{2}@{||#1X/X/#1||@{2}2}@{@1#1#1@12}2}||#1 }X/q)q)q)q)q)u)$1%1:<",
"&1*1=1*'q)q)q)q)q)q)q)+|g(g(g(g(g(f(-1]{+|+|g(g(g(g(g(g(g(g(g(g(g(g(g(g(+|q)q)+|g(g(g(g(g(g(+|+|g(g(g(g(+|q)q)q)q)q)q)q),];1z[@!",
">1&+p%i$,1q)q)'1)1T+!1~1{1]1^1/1(1_1:1<1[1}1|1P 1121F+v)w}3141516171K#819101a1b1c1d1e1f1g1;:h1i1l>=+B+j1k1l1`_m1n1Q-Q-o1t#p1$1q1",
"L;x)L$r1!]J$s1U*s1V*t1,+-]c%b%l)N'u1v1.&w1x1E%y1z1A1B1C1C1D1E15)F1G1H1I1f1L!J1K1L1H-w1S.E%; M1N1V)O1P1Q1R1)(S1k@T1k@U1V1x=};W1X1",
"N!N!9!Y1Q1G1Z1`1H1 2.2+2@2D'G=W)#2$2=]0&5-G=:~%2&2W):~:~,+0&*2.|q]=2o]~=G=,)-2;2q]-&>2,2'2=&)2!2!2L1~2w&Q&N!-@{2]2B1^2/2(2_2:2<2"};
