/* XPM */
static char * exit_opened_xpm[] = {
"64 64 3476 2",
"  	c #37393A",
". 	c #292B2D",
"+ 	c #534640",
"@ 	c #423B37",
"# 	c #313839",
"$ 	c #31393D",
"% 	c #323C3F",
"& 	c #343E41",
"* 	c #3C3C3B",
"= 	c #3E4141",
"- 	c #344246",
"; 	c #364549",
"> 	c #38474C",
", 	c #39494D",
"' 	c #3B4C50",
") 	c #3C4F53",
"! 	c #3B4B4E",
"~ 	c #4C423D",
"{ 	c #3F5157",
"] 	c #3F5358",
"^ 	c #42565C",
"/ 	c #455C63",
"( 	c #4F5A5F",
"_ 	c #6D524A",
": 	c #825C50",
"< 	c #4D6369",
"[ 	c #4B656C",
"} 	c #4C666F",
"| 	c #4D6670",
"1 	c #4E6771",
"2 	c #4E6770",
"3 	c #4F6972",
"4 	c #526F79",
"5 	c #61808B",
"6 	c #5F838F",
"7 	c #6A7A7F",
"8 	c #5B7C87",
"9 	c #557079",
"0 	c #5E6668",
"a 	c #536B74",
"b 	c #4D6870",
"c 	c #4E6064",
"d 	c #455F66",
"e 	c #41585E",
"f 	c #3F5258",
"g 	c #3B4C52",
"h 	c #494340",
"i 	c #524B45",
"j 	c #424E50",
"k 	c #3B4B4F",
"l 	c #39484D",
"m 	c #38464B",
"n 	c #374448",
"o 	c #364447",
"p 	c #3B4042",
"q 	c #454240",
"r 	c #333C40",
"s 	c #333C3F",
"t 	c #31393B",
"u 	c #403836",
"v 	c #5C4C44",
"w 	c #2A2B2D",
"x 	c #333536",
"y 	c #252629",
"z 	c #453731",
"A 	c #5A514C",
"B 	c #706158",
"C 	c #2B2C2D",
"D 	c #313639",
"E 	c #31393E",
"F 	c #323D41",
"G 	c #30383A",
"H 	c #313C40",
"I 	c #334045",
"J 	c #364449",
"K 	c #38484D",
"L 	c #3A4A4E",
"M 	c #3A4B50",
"N 	c #3B4D52",
"O 	c #574F4E",
"P 	c #41484C",
"Q 	c #3C4E54",
"R 	c #3E5056",
"S 	c #41535A",
"T 	c #43565D",
"U 	c #515457",
"V 	c #6B4E46",
"W 	c #6A4C44",
"X 	c #52595D",
"Y 	c #4A626B",
"Z 	c #4A636D",
"` 	c #4B646E",
" .	c #4C656E",
"..	c #56737D",
"+.	c #587682",
"@.	c #5A7B87",
"#.	c #5B808D",
"$.	c #5F7E88",
"%.	c #5C818E",
"&.	c #58737D",
"*.	c #7C5E53",
"=.	c #605E5F",
"-.	c #5B5E60",
";.	c #52595C",
">.	c #46595F",
",.	c #4C5053",
"'.	c #3E4D53",
").	c #39484E",
"!.	c #3A4549",
"~.	c #4C3F3B",
"{.	c #414C50",
"].	c #3A494E",
"^.	c #37474C",
"/.	c #37464B",
"(.	c #354247",
"_.	c #333E42",
":.	c #31373A",
"<.	c #313B40",
"[.	c #323A3E",
"}.	c #2C2F32",
"|.	c #745F56",
"1.	c #574F4C",
"2.	c #483B36",
"3.	c #252829",
"4.	c #232325",
"5.	c #2A2A2C",
"6.	c #353F42",
"7.	c #3D484C",
"8.	c #272325",
"9.	c #373132",
"0.	c #343B3F",
"a.	c #2B3236",
"b.	c #282F33",
"c.	c #2B3237",
"d.	c #2A3236",
"e.	c #2A3338",
"f.	c #2D373B",
"g.	c #2E383C",
"h.	c #2D393D",
"i.	c #2F3A3E",
"j.	c #292D30",
"k.	c #2F393E",
"l.	c #2F3B3F",
"m.	c #363739",
"n.	c #4B3C3A",
"o.	c #4E3C3A",
"p.	c #4A3735",
"q.	c #543832",
"r.	c #4D3935",
"s.	c #3C4347",
"t.	c #39464E",
"u.	c #37464E",
"v.	c #3A4A52",
"w.	c #3F525A",
"x.	c #3A4E55",
"y.	c #425761",
"z.	c #445B65",
"A.	c #405661",
"B.	c #405A64",
"C.	c #415B64",
"D.	c #415A63",
"E.	c #3D5058",
"F.	c #5A4844",
"G.	c #533E39",
"H.	c #533B33",
"I.	c #443D3C",
"J.	c #424344",
"K.	c #483431",
"L.	c #383333",
"M.	c #333638",
"N.	c #2E3438",
"O.	c #272A2C",
"P.	c #323133",
"Q.	c #2F383D",
"R.	c #2D363A",
"S.	c #293034",
"T.	c #2C3439",
"U.	c #333A3E",
"V.	c #28292C",
"W.	c #3E4649",
"X.	c #374044",
"Y.	c #2A2C2E",
"Z.	c #222326",
"`.	c #272424",
" +	c #231F1E",
".+	c #28282B",
"++	c #272628",
"@+	c #302B2A",
"#+	c #362E2D",
"$+	c #242527",
"%+	c #17181C",
"&+	c #141518",
"*+	c #111115",
"=+	c #111114",
"-+	c #111214",
";+	c #121215",
">+	c #444A4E",
",+	c #4C5055",
"'+	c #4B5257",
")+	c #495156",
"!+	c #495257",
"~+	c #4A5459",
"{+	c #4B555A",
"]+	c #4C565C",
"^+	c #4F595E",
"/+	c #4F595F",
"(+	c #4E5A5F",
"_+	c #4C595E",
":+	c #4C585E",
"<+	c #4B585D",
"[+	c #4B575D",
"}+	c #49565B",
"|+	c #49545B",
"1+	c #475459",
"2+	c #465358",
"3+	c #465257",
"4+	c #445155",
"5+	c #424E53",
"6+	c #414C51",
"7+	c #414B50",
"8+	c #2C3336",
"9+	c #121315",
"0+	c #131315",
"a+	c #131416",
"b+	c #181A1C",
"c+	c #24262A",
"d+	c #333436",
"e+	c #303130",
"f+	c #262527",
"g+	c #27282A",
"h+	c #201D1D",
"i+	c #262325",
"j+	c #2F2522",
"k+	c #312825",
"l+	c #2D2524",
"m+	c #342A27",
"n+	c #3D342F",
"o+	c #2E2C2B",
"p+	c #131316",
"q+	c #17181A",
"r+	c #17191A",
"s+	c #161719",
"t+	c #141417",
"u+	c #3E4B4D",
"v+	c #4D4E4C",
"w+	c #4D4E4D",
"x+	c #425258",
"y+	c #5C666B",
"z+	c #5E6568",
"A+	c #60686B",
"B+	c #626A6D",
"C+	c #62696E",
"D+	c #636A70",
"E+	c #646A70",
"F+	c #626A70",
"G+	c #626B71",
"H+	c #616A71",
"I+	c #606A71",
"J+	c #616B72",
"K+	c #626D73",
"L+	c #646D72",
"M+	c #646C72",
"N+	c #656C72",
"O+	c #676C72",
"P+	c #696E72",
"Q+	c #666C70",
"R+	c #656B6E",
"S+	c #646A6D",
"T+	c #555E61",
"U+	c #405257",
"V+	c #404F53",
"W+	c #59524E",
"X+	c #131417",
"Y+	c #151618",
"Z+	c #131415",
"`+	c #302E2E",
" @	c #353838",
".@	c #312E2B",
"+@	c #2D2725",
"@@	c #2E2624",
"#@	c #2A2222",
"$@	c #372924",
"%@	c #392D2A",
"&@	c #3C302D",
"*@	c #3E332E",
"=@	c #302925",
"-@	c #191A1B",
";@	c #101113",
">@	c #1D1E21",
",@	c #191A1C",
"'@	c #111315",
")@	c #101214",
"!@	c #394B4D",
"~@	c #4C4A49",
"{@	c #4A4341",
"]@	c #425055",
"^@	c #3C4245",
"/@	c #524540",
"(@	c #1B1D22",
"_@	c #3F213E",
":@	c #632A5C",
"<@	c #672A60",
"[@	c #672A5F",
"}@	c #5C2A56",
"|@	c #3E223C",
"1@	c #442142",
"2@	c #1E1C24",
"3@	c #4A2448",
"4@	c #3D243D",
"5@	c #4C2548",
"6@	c #41213E",
"7@	c #592752",
"8@	c #672B5F",
"9@	c #682C60",
"0@	c #682B5F",
"a@	c #4D2648",
"b@	c #201E24",
"c@	c #352D2D",
"d@	c #495A5D",
"e@	c #3E4446",
"f@	c #534C48",
"g@	c #445358",
"h@	c #191618",
"i@	c #1E1A1A",
"j@	c #101213",
"k@	c #1E1F22",
"l@	c #101112",
"m@	c #161819",
"n@	c #2C2826",
"o@	c #3D3530",
"p@	c #3A322E",
"q@	c #392C27",
"r@	c #382A25",
"s@	c #352D2B",
"t@	c #3A302E",
"u@	c #333739",
"v@	c #151517",
"w@	c #101014",
"x@	c #16171A",
"y@	c #1F2023",
"z@	c #191B1E",
"A@	c #181A1D",
"B@	c #2B3538",
"C@	c #323E43",
"D@	c #333F43",
"E@	c #303A3D",
"F@	c #1E2124",
"G@	c #354346",
"H@	c #3A4347",
"I@	c #37444A",
"J@	c #435055",
"K@	c #333233",
"L@	c #433D3C",
"M@	c #29242D",
"N@	c #A23B96",
"O@	c #EF59DE",
"P@	c #E455D6",
"Q@	c #E254D5",
"R@	c #CC4CC0",
"S@	c #7F3277",
"T@	c #C349B8",
"U@	c #492446",
"V@	c #50264E",
"W@	c #C448BB",
"X@	c #7D3276",
"Y@	c #CF4CC2",
"Z@	c #8F3585",
"`@	c #BE4BB1",
" #	c #E256D4",
".#	c #F459E5",
"+#	c #E154D3",
"@#	c #9F3F95",
"##	c #25212A",
"$#	c #3B3433",
"%#	c #3C3838",
"&#	c #3E494D",
"*#	c #374146",
"=#	c #45575D",
"-#	c #201B1C",
";#	c #191A1E",
">#	c #30393E",
",#	c #344348",
"'#	c #334246",
")#	c #313B3F",
"!#	c #1C1E21",
"~#	c #1B1C1F",
"{#	c #202023",
"]#	c #0F1012",
"^#	c #141517",
"/#	c #3C3F40",
"(#	c #34373A",
"_#	c #363331",
":#	c #392E2A",
"<#	c #2F3132",
"[#	c #363435",
"}#	c #3B494D",
"|#	c #141316",
"1#	c #151518",
"2#	c #202024",
"3#	c #212629",
"4#	c #111215",
"5#	c #212327",
"6#	c #6F6461",
"7#	c #4F4E4F",
"8#	c #2A2F33",
"9#	c #262B2E",
"0#	c #1F1F23",
"a#	c #37464C",
"b#	c #394B51",
"c#	c #3B4D54",
"d#	c #465156",
"e#	c #272A2F",
"f#	c #1F2126",
"g#	c #29222D",
"h#	c #A63E99",
"i#	c #D04AC0",
"j#	c #68275E",
"k#	c #592652",
"l#	c #422341",
"m#	c #362338",
"n#	c #A13A99",
"o#	c #AB3BA2",
"p#	c #B743AC",
"q#	c #9D3B95",
"r#	c #472544",
"s#	c #D14DC3",
"t#	c #923786",
"u#	c #3E253D",
"v#	c #672D5F",
"w#	c #F35AE2",
"x#	c #5B2853",
"y#	c #362237",
"z#	c #222228",
"A#	c #202126",
"B#	c #212328",
"C#	c #3B4549",
"D#	c #3B4C51",
"E#	c #42555C",
"F#	c #201C1E",
"G#	c #201C1D",
"H#	c #26292C",
"I#	c #282D30",
"J#	c #363D3F",
"K#	c #7A6B66",
"L#	c #121216",
"M#	c #212326",
"N#	c #212125",
"O#	c #151619",
"P#	c #3C464A",
"Q#	c #35373A",
"R#	c #33383A",
"S#	c #313334",
"T#	c #272C2F",
"U#	c #303639",
"V#	c #323437",
"W#	c #3B494E",
"X#	c #17171A",
"Y#	c #242B2E",
"Z#	c #222428",
"`#	c #2A2D31",
" $	c #323438",
".$	c #2A2F32",
"+$	c #202225",
"@$	c #1E1E21",
"#$	c #3B464D",
"$$	c #3A494F",
"%$	c #3A4C52",
"&$	c #414A50",
"*$	c #25292D",
"=$	c #202127",
"-$	c #29212C",
";$	c #A73F9A",
">$	c #E859D7",
",$	c #CF4CC1",
"'$	c #CD4BBF",
")$	c #5F2B5B",
"!$	c #23222A",
"~$	c #442642",
"{$	c #CA4BBD",
"]$	c #C444B7",
"^$	c #472744",
"/$	c #3E263D",
"($	c #CF4EC2",
"_$	c #913786",
":$	c #2B2430",
"<$	c #592B55",
"[$	c #F258E1",
"}$	c #4D2548",
"|$	c #222329",
"1$	c #202227",
"2$	c #222429",
"3$	c #3A4246",
"4$	c #394A50",
"5$	c #435157",
"6$	c #211D1F",
"7$	c #2A2324",
"8$	c #1F2024",
"9$	c #282D31",
"0$	c #2F3639",
"a$	c #2C3034",
"b$	c #222629",
"c$	c #242327",
"d$	c #191A1D",
"e$	c #36393C",
"f$	c #31383A",
"g$	c #292E31",
"h$	c #212527",
"i$	c #303B3E",
"j$	c #5B5859",
"k$	c #293236",
"l$	c #101013",
"m$	c #222528",
"n$	c #1E2023",
"o$	c #202325",
"p$	c #232529",
"q$	c #1D1C1F",
"r$	c #3A464C",
"s$	c #3F494C",
"t$	c #3D494D",
"u$	c #44484C",
"v$	c #25282D",
"w$	c #28232C",
"x$	c #A8419C",
"y$	c #DD55CD",
"z$	c #A13A95",
"A$	c #903488",
"B$	c #4B254A",
"C$	c #25232C",
"D$	c #4C2547",
"E$	c #D550C7",
"F$	c #D54BC6",
"G$	c #4F264B",
"H$	c #432840",
"I$	c #D14FC5",
"J$	c #913687",
"K$	c #2C2331",
"L$	c #5C2B58",
"M$	c #F159E1",
"N$	c #4B2547",
"O$	c #3A4548",
"P$	c #445056",
"Q$	c #222022",
"R$	c #312D2C",
"S$	c #2B2526",
"T$	c #24272A",
"U$	c #222427",
"V$	c #212225",
"W$	c #121416",
"X$	c #2C3438",
"Y$	c #27272C",
"Z$	c #1A1B1E",
"`$	c #444E51",
" %	c #333F42",
".%	c #24272B",
"+%	c #212528",
"@%	c #303C40",
"#%	c #736661",
"$%	c #1A1C1F",
"%%	c #2B2E32",
"&%	c #2F393D",
"*%	c #23272A",
"=%	c #202426",
"-%	c #1F2125",
";%	c #422F27",
">%	c #3C4446",
",%	c #3C4447",
"'%	c #434B4F",
")%	c #272A2E",
"!%	c #29252D",
"~%	c #D850C7",
"{%	c #832F78",
"]%	c #78306E",
"^%	c #5F2C59",
"/%	c #4E294D",
"(%	c #C94ABE",
"_%	c #7A2F71",
":%	c #96398D",
"<%	c #C245B4",
"[%	c #5C2C55",
"}%	c #D34EC6",
"|%	c #923687",
"1%	c #2A2330",
"2%	c #5B2958",
"3%	c #F15AE1",
"4%	c #4A2546",
"5%	c #252427",
"6%	c #384446",
"7%	c #3C4A4D",
"8%	c #3F4041",
"9%	c #464B4E",
"0%	c #222225",
"a%	c #303637",
"b%	c #523932",
"c%	c #242629",
"d%	c #212427",
"e%	c #323A3F",
"f%	c #2B2E33",
"g%	c #1C1D20",
"h%	c #5D5957",
"i%	c #333E43",
"j%	c #323F44",
"k%	c #746B68",
"l%	c #141416",
"m%	c #1B1D21",
"n%	c #2E3137",
"o%	c #303A3F",
"p%	c #101114",
"q%	c #222729",
"r%	c #232628",
"s%	c #1E1F24",
"t%	c #3D2C27",
"u%	c #4C3832",
"v%	c #384448",
"w%	c #394244",
"x%	c #344247",
"y%	c #3F464A",
"z%	c #363436",
"A%	c #4E4341",
"B%	c #26222B",
"C%	c #993A8E",
"D%	c #E453D4",
"E%	c #E350D7",
"F%	c #E252D7",
"G%	c #CC4CC3",
"H%	c #7B2E74",
"I%	c #A9409F",
"J%	c #332337",
"K%	c #332335",
"L%	c #B844AD",
"M%	c #732F6D",
"N%	c #BF45B3",
"O%	c #83327B",
"P%	c #25222D",
"Q%	c #4F274D",
"R%	c #DC52CD",
"S%	c #212228",
"T%	c #413635",
"U%	c #363232",
"V%	c #374245",
"W%	c #474241",
"X%	c #463D3C",
"Y%	c #544D4A",
"Z%	c #303D41",
"`%	c #4A4240",
" &	c #593A32",
".&	c #232629",
"+&	c #141418",
"@&	c #343D43",
"#&	c #2E3339",
"$&	c #1E1F23",
"%&	c #15161A",
"&&	c #676463",
"*&	c #24282B",
"=&	c #303D42",
"-&	c #334145",
";&	c #76716F",
">&	c #141317",
",&	c #1D1C22",
"'&	c #34333C",
")&	c #2E343C",
"!&	c #121116",
"~&	c #212227",
"{&	c #1E1E23",
"]&	c #52352D",
"^&	c #563E36",
"/&	c #323638",
"(&	c #484647",
"_&	c #3C3D3E",
":&	c #353D40",
"<&	c #363C3F",
"[&	c #3A454A",
"}&	c #474648",
"|&	c #464548",
"1&	c #56444F",
"2&	c #60475D",
"3&	c #674761",
"4&	c #664561",
"5&	c #5F435B",
"6&	c #584353",
"7&	c #4F4351",
"8&	c #47464C",
"9&	c #4D494E",
"0&	c #554652",
"a&	c #534954",
"b&	c #5B4658",
"c&	c #554753",
"d&	c #4F4B4F",
"e&	c #554952",
"f&	c #5A4357",
"g&	c #4E444E",
"h&	c #484348",
"i&	c #3E3F42",
"j&	c #3A3C3E",
"k&	c #34383C",
"l&	c #323639",
"m&	c #4F3833",
"n&	c #5A3F36",
"o&	c #554845",
"p&	c #222529",
"q&	c #333F45",
"r&	c #494041",
"s&	c #543B37",
"t&	c #6F4839",
"u&	c #292627",
"v&	c #212126",
"w&	c #16131B",
"x&	c #333940",
"y&	c #34353C",
"z&	c #1D1B22",
"A&	c #16151B",
"B&	c #6C6869",
"C&	c #334146",
"D&	c #797070",
"E&	c #18131A",
"F&	c #281B2C",
"G&	c #3A2C3E",
"H&	c #312C3A",
"I&	c #141019",
"J&	c #17161C",
"K&	c #20191C",
"L&	c #4B332D",
"M&	c #453631",
"N&	c #3A3A39",
"O&	c #2E3337",
"P&	c #4D3C38",
"Q&	c #513E3A",
"R&	c #3A3637",
"S&	c #363637",
"T&	c #4B4849",
"U&	c #475158",
"V&	c #4C545B",
"W&	c #49555D",
"X&	c #49565F",
"Y&	c #4A5760",
"Z&	c #485761",
"`&	c #475761",
" *	c #455762",
".*	c #445862",
"+*	c #455662",
"@*	c #48545C",
"#*	c #475A63",
"$*	c #445861",
"%*	c #44565F",
"&*	c #44555E",
"**	c #43555E",
"=*	c #52565A",
"-*	c #4B545A",
";*	c #525557",
">*	c #3A3738",
",*	c #402D2A",
"'*	c #613B30",
")*	c #54382F",
"!*	c #925F4A",
"~*	c #25272C",
"{*	c #354047",
"]*	c #414346",
"^*	c #423C3C",
"/*	c #463533",
"(*	c #513630",
"_*	c #1A171C",
":*	c #1A161D",
"<*	c #1B151F",
"[*	c #36313D",
"}*	c #3B2F41",
"|*	c #261829",
"1*	c #1A171E",
"2*	c #706B6C",
"3*	c #344045",
"4*	c #313D42",
"5*	c #24292B",
"6*	c #36464B",
"7*	c #354449",
"8*	c #7A7071",
"9*	c #1C151E",
"0*	c #6E2A65",
"a*	c #CA4DB9",
"b*	c #712B6A",
"c*	c #1B111F",
"d*	c #1B1920",
"e*	c #573731",
"f*	c #4C362F",
"g*	c #3E312E",
"h*	c #3E3A3A",
"i*	c #303336",
"j*	c #534B47",
"k*	c #3C4244",
"l*	c #333335",
"m*	c #373433",
"n*	c #384247",
"o*	c #36484D",
"p*	c #374B50",
"q*	c #39474C",
"r*	c #37494F",
"s*	c #384B52",
"t*	c #394E55",
"u*	c #3A5058",
"v*	c #3B525A",
"w*	c #3B525B",
"x*	c #3C535C",
"y*	c #3D555E",
"z*	c #3E5964",
"A*	c #5E5E5F",
"B*	c #476D79",
"C*	c #3C5762",
"D*	c #3B5560",
"E*	c #3C5761",
"F*	c #3E555F",
"G*	c #3F5158",
"H*	c #394C53",
"I*	c #414446",
"J*	c #513F3A",
"K*	c #573931",
"L*	c #442E2A",
"M*	c #794E3D",
"N*	c #795345",
"O*	c #23252A",
"P*	c #36444A",
"Q*	c #38474E",
"R*	c #3D4144",
"S*	c #403230",
"T*	c #443433",
"U*	c #573730",
"V*	c #221E24",
"W*	c #221924",
"X*	c #6E2B66",
"Y*	c #CD4EBE",
"Z*	c #732A6C",
"`*	c #1E1923",
" =	c #716D6E",
".=	c #344046",
"+=	c #352D2C",
"@=	c #37474B",
"#=	c #7A7575",
"$=	c #1F1921",
"%=	c #89357D",
"&=	c #F85DE5",
"*=	c #8D3383",
"==	c #1F1323",
"-=	c #1C1A21",
";=	c #5B3A30",
">=	c #4D3A32",
",=	c #413C3A",
"'=	c #433F3D",
")=	c #3A3739",
"!=	c #3E4445",
"~=	c #393D3D",
"{=	c #353A3C",
"]=	c #403432",
"^=	c #3E3B3C",
"/=	c #344347",
"(=	c #36474C",
"_=	c #394247",
":=	c #35474D",
"<=	c #374B51",
"[=	c #394F55",
"}=	c #3A5056",
"|=	c #3A5057",
"1=	c #3B5158",
"2=	c #3B5159",
"3=	c #3E545B",
"4=	c #505659",
"5=	c #475D64",
"6=	c #3F5C66",
"7=	c #3B4E56",
"8=	c #3A4D55",
"9=	c #3A4F55",
"0=	c #3A474C",
"a=	c #394448",
"b=	c #54403A",
"c=	c #6F4636",
"d=	c #694B3E",
"e=	c #4D413D",
"f=	c #5B4C47",
"g=	c #23262A",
"h=	c #35464B",
"i=	c #3C4345",
"j=	c #453A39",
"k=	c #463936",
"l=	c #573A30",
"m=	c #2D282A",
"n=	c #271F2A",
"o=	c #8A357E",
"p=	c #F95DE9",
"q=	c #8E3385",
"r=	c #221B26",
"s=	c #726F6F",
"t=	c #352F30",
"u=	c #362C2B",
"v=	c #777372",
"w=	c #201A23",
"x=	c #8A357F",
"y=	c #F95CE7",
"z=	c #8E3284",
"A=	c #241828",
"B=	c #232228",
"C=	c #603D34",
"D=	c #473A37",
"E=	c #423E3D",
"F=	c #453E3B",
"G=	c #303B3F",
"H=	c #424342",
"I=	c #51413B",
"J=	c #403736",
"K=	c #373738",
"L=	c #4B3A34",
"M=	c #434241",
"N=	c #364043",
"O=	c #364145",
"P=	c #35494F",
"Q=	c #384D53",
"R=	c #3A4F57",
"S=	c #3C5159",
"T=	c #545759",
"U=	c #40575E",
"V=	c #3C515A",
"W=	c #3C535D",
"X=	c #374D53",
"Y=	c #374B52",
"Z=	c #424649",
"`=	c #47413F",
" -	c #5C3D34",
".-	c #634337",
"+-	c #5D4943",
"@-	c #403937",
"#-	c #484749",
"$-	c #23272C",
"%-	c #34464B",
"&-	c #3B4146",
"*-	c #463C3B",
"=-	c #4B3A36",
"--	c #503932",
";-	c #322D31",
">-	c #2C2430",
",-	c #8B357F",
"'-	c #F95DEA",
")-	c #8F3486",
"!-	c #251C29",
"~-	c #737070",
"{-	c #3A4B51",
"]-	c #3B3332",
"^-	c #362C2C",
"/-	c #36454A",
"(-	c #384A4F",
"_-	c #837573",
":-	c #211A24",
"<-	c #8B3580",
"[-	c #FA5CE8",
"}-	c #8E3285",
"|-	c #261B2A",
"1-	c #26252C",
"2-	c #653D35",
"3-	c #3B3B3C",
"4-	c #3B4043",
"5-	c #2F3B41",
"6-	c #394348",
"7-	c #353032",
"8-	c #2F3235",
"9-	c #363A3B",
"0-	c #363333",
"a-	c #2E2F32",
"b-	c #3E3D3E",
"c-	c #353B3E",
"d-	c #373E41",
"e-	c #35454A",
"f-	c #34464C",
"g-	c #34454B",
"h-	c #374950",
"i-	c #424B51",
"j-	c #495054",
"k-	c #3C5057",
"l-	c #384D54",
"m-	c #3A4E56",
"n-	c #3A4E58",
"o-	c #394E56",
"p-	c #384E56",
"q-	c #36474E",
"r-	c #5E433A",
"s-	c #4B3935",
"t-	c #3B4143",
"u-	c #4A4746",
"v-	c #3B3637",
"w-	c #454649",
"x-	c #23282C",
"y-	c #33454A",
"z-	c #37484F",
"A-	c #3F3C3E",
"B-	c #493A37",
"C-	c #563A31",
"D-	c #4A3530",
"E-	c #372C32",
"F-	c #2E2431",
"G-	c #8C3580",
"H-	c #F95EEA",
"I-	c #8F3586",
"J-	c #261C2A",
"K-	c #777374",
"L-	c #3B4D53",
"M-	c #394C51",
"N-	c #7E7675",
"O-	c #211824",
"P-	c #8C3480",
"Q-	c #261A2B",
"R-	c #28252E",
"S-	c #673D36",
"T-	c #364044",
"U-	c #3D3E40",
"V-	c #364247",
"W-	c #2F3B40",
"X-	c #374047",
"Y-	c #434042",
"Z-	c #3B3A3C",
"`-	c #2A3135",
" ;	c #5F504B",
".;	c #303337",
"+;	c #2F3135",
"@;	c #4D3A36",
"#;	c #423D3D",
"$;	c #393C3D",
"%;	c #344146",
"&;	c #334148",
"*;	c #38444A",
"=;	c #3D464B",
"-;	c #38494F",
";;	c #374A51",
">;	c #374A52",
",;	c #384650",
"';	c #384851",
");	c #384A51",
"!;	c #394950",
"~;	c #39454C",
"{;	c #35434B",
"];	c #444041",
"^;	c #483835",
"/;	c #384246",
"(;	c #3E3F41",
"_;	c #383A3E",
":;	c #373638",
"<;	c #4F4745",
"[;	c #3E4145",
"};	c #22272D",
"|;	c #344047",
"1;	c #555658",
"2;	c #6B6059",
"3;	c #6F5C54",
"4;	c #6D5A52",
"5;	c #564744",
"6;	c #3F2F32",
"7;	c #2E2331",
"8;	c #FA5FEB",
"9;	c #8F3587",
"0;	c #797373",
"a;	c #3D4E55",
"b;	c #3C4D53",
"c;	c #393334",
"d;	c #3A2E2D",
"e;	c #36474D",
"f;	c #8A7D7C",
"g;	c #8B3380",
"h;	c #F95CE8",
"i;	c #271A2C",
"j;	c #29262F",
"k;	c #3E4043",
"l;	c #464041",
"m;	c #2F3C42",
"n;	c #343E44",
"o;	c #32353A",
"p;	c #2F3438",
"q;	c #2C3134",
"r;	c #484546",
"s;	c #333537",
"t;	c #2D3438",
"u;	c #46342F",
"v;	c #3B302F",
"w;	c #363335",
"x;	c #2D343A",
"y;	c #313337",
"z;	c #2E3539",
"A;	c #2E393F",
"B;	c #2E3A41",
"C;	c #2E3940",
"D;	c #2E3A40",
"E;	c #2E3A3F",
"F;	c #2F3840",
"G;	c #30383E",
"H;	c #474140",
"I;	c #3A464A",
"J;	c #373B3E",
"K;	c #383739",
"L;	c #453633",
"M;	c #403331",
"N;	c #2D3034",
"O;	c #384146",
"P;	c #22262B",
"Q;	c #343D42",
"R;	c #676869",
"S;	c #586165",
"T;	c #575A5D",
"U;	c #595D61",
"V;	c #666467",
"W;	c #39383E",
"X;	c #302431",
"Y;	c #8D3681",
"Z;	c #FA5EEB",
"`;	c #8F3487",
" >	c #261A29",
".>	c #84645C",
"+>	c #3F3433",
"@>	c #3C302E",
"#>	c #454A4D",
"$>	c #4D5052",
"%>	c #8A7F7F",
"&>	c #8B347F",
"*>	c #FA5DE8",
"=>	c #8E3286",
"->	c #281B2D",
";>	c #2A2730",
">>	c #653E35",
",>	c #36464C",
"'>	c #38464D",
")>	c #313E44",
"!>	c #22282D",
"~>	c #36454D",
"{>	c #3B4D58",
"]>	c #394A56",
"^>	c #324353",
"/>	c #334A59",
"(>	c #38515E",
"_>	c #365665",
":>	c #365564",
"<>	c #385765",
"[>	c #385665",
"}>	c #375565",
"|>	c #365565",
"1>	c #375463",
"2>	c #4F4E53",
"3>	c #3A5362",
"4>	c #385666",
"5>	c #375665",
"6>	c #355464",
"7>	c #365362",
"8>	c #48484F",
"9>	c #384B59",
"0>	c #365364",
"a>	c #385668",
"b>	c #38505F",
"c>	c #3C4C59",
"d>	c #424851",
"e>	c #4E474A",
"f>	c #3F4248",
"g>	c #272D33",
"h>	c #212529",
"i>	c #3E4A4E",
"j>	c #435054",
"k>	c #474747",
"l>	c #4F494A",
"m>	c #4C4A4B",
"n>	c #454A4E",
"o>	c #3C464D",
"p>	c #2F2431",
"q>	c #281E2B",
"r>	c #957469",
"s>	c #4F5559",
"t>	c #3D4A4F",
"u>	c #373233",
"v>	c #363131",
"w>	c #3B4F55",
"x>	c #89807F",
"y>	c #211924",
"z>	c #8A3680",
"A>	c #271C2C",
"B>	c #27262D",
"C>	c #664136",
"D>	c #35494E",
"E>	c #36484F",
"F>	c #384951",
"G>	c #324047",
"H>	c #191C20",
"I>	c #13131D",
"J>	c #13141E",
"K>	c #131A2B",
"L>	c #17213C",
"M>	c #1C7984",
"N>	c #1AA2A3",
"O>	c #162F51",
"P>	c #162444",
"Q>	c #131929",
"R>	c #151928",
"S>	c #151828",
"T>	c #171729",
"U>	c #171728",
"V>	c #18182A",
"W>	c #181A2E",
"X>	c #171C33",
"Y>	c #141A2D",
"Z>	c #151724",
"`>	c #192A41",
" ,	c #173154",
".,	c #1D979F",
"+,	c #1F8997",
"@,	c #1A2C51",
"#,	c #141A2C",
"$,	c #141827",
"%,	c #121621",
"&,	c #16171C",
"*,	c #1E2024",
"=,	c #22262A",
"-,	c #4B4B4B",
";,	c #BF8752",
">,	c #D49955",
",,	c #98643C",
"',	c #504E4E",
"),	c #47484B",
"!,	c #302432",
"~,	c #FA5EEA",
"{,	c #281F2C",
"],	c #977062",
"^,	c #44545B",
"/,	c #40474A",
"(,	c #343030",
"_,	c #2F3133",
":,	c #3F555C",
"<,	c #898280",
"[,	c #8B3581",
"},	c #FA5BE7",
"|,	c #8E3186",
"1,	c #271C2D",
"2,	c #2A2A32",
"3,	c #674136",
"4,	c #374A50",
"5,	c #384C53",
"6,	c #33454B",
"7,	c #282E33",
"8,	c #1E2127",
"9,	c #111218",
"0,	c #11131D",
"a,	c #121829",
"b,	c #13203A",
"c,	c #121C36",
"d,	c #1E5F8F",
"e,	c #1AE5E7",
"f,	c #1A899D",
"g,	c #173A6C",
"h,	c #137384",
"i,	c #196971",
"j,	c #1A3E50",
"k,	c #1E224B",
"l,	c #222147",
"m,	c #252147",
"n,	c #262147",
"o,	c #2C2953",
"p,	c #222956",
"q,	c #161D32",
"r,	c #144F54",
"s,	c #193359",
"t,	c #1E7192",
"u,	c #23EEF2",
"v,	c #1F7D9D",
"w,	c #162547",
"x,	c #16213E",
"y,	c #131A2D",
"z,	c #12192D",
"A,	c #202327",
"B,	c #24282C",
"C,	c #444344",
"D,	c #523D3B",
"E,	c #EE8749",
"F,	c #EC7A3C",
"G,	c #CF954D",
"H,	c #4D4547",
"I,	c #474C51",
"J,	c #8F3686",
"K,	c #241B28",
"L,	c #886B61",
"M,	c #645958",
"N,	c #41484B",
"O,	c #323031",
"P,	c #333032",
"Q,	c #3D5259",
"R,	c #40565E",
"S,	c #89817F",
"T,	c #221825",
"U,	c #8D3482",
"V,	c #FA5AE7",
"W,	c #8F3287",
"X,	c #2B2932",
"Y,	c #6B4339",
"Z,	c #384950",
"`,	c #2B363C",
" '	c #21262D",
".'	c #101117",
"+'	c #101217",
"@'	c #101623",
"#'	c #12192C",
"$'	c #162442",
"%'	c #182E5B",
"&'	c #19A1B2",
"*'	c #1BCFD5",
"='	c #183E6D",
"-'	c #17284B",
";'	c #20203D",
">'	c #2C224D",
",'	c #693082",
"''	c #843798",
")'	c #863797",
"!'	c #853695",
"~'	c #703084",
"{'	c #262155",
"]'	c #19525C",
"^'	c #152943",
"/'	c #173155",
"('	c #1DBFCA",
"_'	c #22C5D1",
":'	c #1A3668",
"<'	c #162443",
"['	c #13192D",
"}'	c #141B32",
"|'	c #10141E",
"1'	c #101219",
"2'	c #22252B",
"3'	c #24292E",
"4'	c #424C54",
"5'	c #513E3D",
"6'	c #DA964F",
"7'	c #EDAB5A",
"8'	c #BD8446",
"9'	c #494549",
"0'	c #425057",
"a'	c #302333",
"b'	c #8C3680",
"c'	c #251B29",
"d'	c #938580",
"e'	c #6C6A6B",
"f'	c #534744",
"g'	c #2C2728",
"h'	c #343031",
"i'	c #41585F",
"j'	c #716768",
"k'	c #231825",
"l'	c #8F3187",
"m'	c #271B2D",
"n'	c #2A2630",
"o'	c #694139",
"p'	c #3C484E",
"q'	c #394D54",
"r'	c #2E3A42",
"s'	c #232830",
"t'	c #121B32",
"u'	c #10131E",
"v'	c #101218",
"w'	c #12182D",
"x'	c #152444",
"y'	c #1B5482",
"z'	c #1CDADD",
"A'	c #1B8196",
"B'	c #162647",
"C'	c #643276",
"D'	c #77348B",
"E'	c #C752D3",
"F'	c #DE54E3",
"G'	c #DF54E4",
"H'	c #E055E4",
"I'	c #C64FCD",
"J'	c #4C2A65",
"K'	c #18254B",
"L'	c #152545",
"M'	c #185B85",
"N'	c #18DADF",
"O'	c #1D5D82",
"P'	c #152648",
"Q'	c #131E36",
"R'	c #141A2F",
"S'	c #11151E",
"T'	c #123138",
"U'	c #141C31",
"V'	c #23262E",
"W'	c #24282D",
"X'	c #43505B",
"Y'	c #785F57",
"Z'	c #763C2E",
"`'	c #81402F",
" )	c #6C3D32",
".)	c #545156",
"+)	c #435058",
"@)	c #2E2131",
"#)	c #FB5FEB",
"$)	c #968682",
"%)	c #495D65",
"&)	c #616262",
"*)	c #3A3839",
"=)	c #302F30",
"-)	c #3D4F54",
";)	c #40555D",
">)	c #8E7877",
",)	c #221824",
"')	c #8B3480",
"))	c #674137",
"!)	c #3A4C51",
"~)	c #2F3D44",
"{)	c #252B33",
"])	c #131E37",
"^)	c #152D4A",
"/)	c #111928",
"()	c #10141F",
"_)	c #0F5966",
":)	c #15213E",
"<)	c #172A51",
"[)	c #1B83A0",
"})	c #19BCC3",
"|)	c #175B78",
"1)	c #18213D",
"2)	c #201F43",
"3)	c #322B72",
"4)	c #3D3486",
"5)	c #413788",
"6)	c #673D99",
"7)	c #5D3482",
"8)	c #1D234B",
"9)	c #141D35",
"0)	c #153158",
"a)	c #17B5C0",
"b)	c #1AA5B3",
"c)	c #16294D",
"d)	c #162646",
"e)	c #11141F",
"f)	c #121723",
"g)	c #16364A",
"h)	c #172241",
"i)	c #262830",
"j)	c #25282E",
"k)	c #45515C",
"l)	c #614540",
"m)	c #CB9050",
"n)	c #D8A053",
"o)	c #AE6C3D",
"p)	c #5D4E4D",
"q)	c #435258",
"r)	c #2F2533",
"s)	c #251C2A",
"t)	c #837F80",
"u)	c #475D65",
"v)	c #485B63",
"w)	c #31373B",
"x)	c #37454A",
"y)	c #3C4D54",
"z)	c #887C7B",
"A)	c #231A25",
"B)	c #FA5BE8",
"C)	c #903287",
"D)	c #2A2931",
"E)	c #6A4338",
"F)	c #4D4B4B",
"G)	c #3C5158",
"H)	c #3C535B",
"I)	c #3C545C",
"J)	c #314046",
"K)	c #272F38",
"L)	c #172E57",
"M)	c #162541",
"N)	c #161E3A",
"O)	c #111621",
"P)	c #121722",
"Q)	c #142142",
"R)	c #193969",
"S)	c #1BCFD1",
"T)	c #1C8599",
"U)	c #142543",
"V)	c #156E77",
"W)	c #192248",
"X)	c #1C2451",
"Y)	c #1D244E",
"Z)	c #4E2D6A",
"`)	c #4B2A62",
" !	c #185974",
".!	c #15263D",
"+!	c #19587C",
"@!	c #1AD3D7",
"#!	c #1A4E79",
"$!	c #162343",
"%!	c #1B5563",
"&!	c #121624",
"*!	c #154C50",
"=!	c #133950",
"-!	c #152345",
";!	c #162B56",
">!	c #282C36",
",!	c #44515B",
"'!	c #8F4330",
")!	c #EDA759",
"!!	c #F08E4D",
"~!	c #D08B47",
"{!	c #704E46",
"]!	c #44525A",
"^!	c #2E2532",
"/!	c #89347E",
"(!	c #251D29",
"_!	c #7F7E7F",
":!	c #465C64",
"<!	c #435962",
"[!	c #2E363B",
"}!	c #272C30",
"|!	c #394549",
"1!	c #3D464A",
"2!	c #735B58",
"3!	c #251C27",
"4!	c #8C3581",
"5!	c #903187",
"6!	c #2B2831",
"7!	c #6E4537",
"8!	c #594A48",
"9!	c #3E5058",
"0!	c #3C545B",
"a!	c #3D555C",
"b!	c #354349",
"c!	c #2E3741",
"d!	c #193564",
"e!	c #183C6F",
"f!	c #141D37",
"g!	c #16203C",
"h!	c #131720",
"i!	c #131723",
"j!	c #112740",
"k!	c #162C53",
"l!	c #1D94A7",
"m!	c #20C2C8",
"n!	c #178A94",
"o!	c #154053",
"p!	c #1C7380",
"q!	c #1A4277",
"r!	c #1B4376",
"s!	c #1B4578",
"t!	c #1B4C71",
"u!	c #164C66",
"v!	c #1B7D8B",
"w!	c #1BA8B7",
"x!	c #1D99AB",
"y!	c #182C52",
"z!	c #175168",
"A!	c #151B2F",
"B!	c #131622",
"C!	c #1B2F53",
"D!	c #162649",
"E!	c #183464",
"F!	c #1B3D75",
"G!	c #2B2F3B",
"H!	c #25282C",
"I!	c #45525C",
"J!	c #8F4432",
"K!	c #EDAD5B",
"L!	c #EEA451",
"M!	c #CE8746",
"N!	c #745148",
"O!	c #425159",
"P!	c #2E2333",
"Q!	c #88347E",
"R!	c #FA5FEA",
"S!	c #8E3586",
"T!	c #241D29",
"U!	c #7E7D80",
"V!	c #465B64",
"W!	c #425861",
"X!	c #252A2E",
"Y!	c #363D42",
"Z!	c #504C4B",
"`!	c #917F7D",
" ~	c #241A26",
".~	c #8F3186",
"+~	c #271B2C",
"@~	c #72473A",
"#~	c #5D4742",
"$~	c #3F5057",
"%~	c #3D545B",
"&~	c #3D545C",
"*~	c #34434A",
"=~	c #303946",
"-~	c #121423",
";~	c #172D52",
">~	c #1A4177",
",~	c #192446",
"'~	c #17213F",
")~	c #151C33",
"!~	c #172A47",
"~~	c #152342",
"{~	c #193B67",
"]~	c #1FC8CE",
"^~	c #1A798C",
"/~	c #1D727D",
"(~	c #215569",
"_~	c #1E3763",
":~	c #213A6D",
"<~	c #275A7C",
"[~	c #1B2C58",
"}~	c #695289",
"|~	c #195F7B",
"1~	c #24D1D7",
"2~	c #165475",
"3~	c #1A6575",
"4~	c #1D2D4A",
"5~	c #194659",
"6~	c #194177",
"7~	c #1B3D73",
"8~	c #152F42",
"9~	c #292E39",
"0~	c #26282D",
"a~	c #48525C",
"b~	c #554947",
"c~	c #884131",
"d~	c #9B4C34",
"e~	c #6C3B2E",
"f~	c #545356",
"g~	c #404F56",
"h~	c #2F2233",
"i~	c #76767A",
"j~	c #425760",
"k~	c #2D3539",
"l~	c #334044",
"m~	c #445A60",
"n~	c #908889",
"o~	c #FB5AE7",
"p~	c #271A2D",
"q~	c #2B2731",
"r~	c #77493C",
"s~	c #6C463B",
"t~	c #5D4D4A",
"u~	c #40545B",
"v~	c #3F555E",
"w~	c #344149",
"x~	c #2C3340",
"y~	c #141626",
"z~	c #171D38",
"A~	c #663E81",
"B~	c #32336A",
"C~	c #1D284F",
"D~	c #21325B",
"E~	c #1D4679",
"F~	c #192444",
"G~	c #172C4D",
"H~	c #1D8DA0",
"I~	c #1EAAB7",
"J~	c #6E478B",
"K~	c #744491",
"L~	c #A24CB6",
"M~	c #A54FBB",
"N~	c #A14CB9",
"O~	c #64418D",
"P~	c #4A396C",
"Q~	c #22A3B4",
"R~	c #1FAABB",
"S~	c #182C51",
"T~	c #1B2042",
"U~	c #203963",
"V~	c #274679",
"W~	c #22305C",
"X~	c #1C254E",
"Y~	c #1D3D75",
"Z~	c #1B6A7E",
"`~	c #198089",
" {	c #2A3243",
".{	c #28252A",
"+{	c #49525D",
"@{	c #5D433F",
"#{	c #B27443",
"${	c #C18549",
"%{	c #8D5535",
"&{	c #544848",
"*{	c #2F2234",
"={	c #88337D",
"-{	c #79757A",
";{	c #41575F",
">{	c #2D3439",
",{	c #2D2E30",
"'{	c #3F4E53",
"){	c #3F565F",
"!{	c #877E80",
"~{	c #231925",
"{{	c #8C3481",
"]{	c #FA5AE6",
"^{	c #8F3086",
"/{	c #281A2D",
"({	c #2B2530",
"_{	c #76483B",
":{	c #664338",
"<{	c #504F4D",
"[{	c #565253",
"}{	c #535357",
"|{	c #313F46",
"1{	c #2E3646",
"2{	c #1D2D59",
"3{	c #192040",
"4{	c #6C3273",
"5{	c #283673",
"6{	c #253062",
"7{	c #694FA2",
"8{	c #29599C",
"9{	c #1A2345",
"0{	c #19294A",
"a{	c #184166",
"b{	c #1FC0CB",
"c{	c #195A79",
"d{	c #423C77",
"e{	c #734496",
"f{	c #76479A",
"g{	c #734598",
"h{	c #3E3971",
"i{	c #236687",
"j{	c #23BBC7",
"k{	c #185579",
"l{	c #192648",
"m{	c #1F2244",
"n{	c #274D88",
"o{	c #6C55AE",
"p{	c #2B3C7C",
"q{	c #247491",
"r{	c #585988",
"s{	c #1C5066",
"t{	c #1B203D",
"u{	c #2F384B",
"v{	c #25242A",
"w{	c #43505C",
"x{	c #994732",
"y{	c #F1B362",
"z{	c #F19C4F",
"A{	c #CD8742",
"B{	c #7C4F47",
"C{	c #435159",
"D{	c #88347D",
"E{	c #241B29",
"F{	c #7E7B7D",
"G{	c #40545D",
"H{	c #3C3331",
"I{	c #454445",
"J{	c #3F545C",
"K{	c #8D7E7F",
"L{	c #221A24",
"M{	c #8A3580",
"N{	c #903086",
"O{	c #2A1B2C",
"P{	c #352930",
"Q{	c #614239",
"R{	c #584D49",
"S{	c #4C4E4E",
"T{	c #323F45",
"U{	c #313B4B",
"V{	c #203E77",
"W{	c #203D77",
"X{	c #4E346A",
"Y{	c #303A78",
"Z{	c #2B2C5D",
"`{	c #CC62D9",
" ]	c #2F3870",
".]	c #182440",
"+]	c #173051",
"@]	c #189DAB",
"#]	c #19A3B3",
"$]	c #174870",
"%]	c #207C95",
"&]	c #20859B",
"*]	c #1D7C93",
"=]	c #4D5583",
"-]	c #1A869C",
";]	c #1DA8B8",
">]	c #193153",
",]	c #1A2443",
"']	c #1E203F",
")]	c #2D346B",
"!]	c #CC60DD",
"~]	c #363674",
"{]	c #2893AC",
"]]	c #1F234D",
"^]	c #1F2E63",
"/]	c #213979",
"(]	c #313A51",
"_]	c #24252C",
":]	c #954732",
"<]	c #F0B25E",
"[]	c #F1A250",
"}]	c #D18C47",
"|]	c #7C5147",
"1]	c #425359",
"2]	c #2E2534",
"3]	c #7E7C7E",
"4]	c #40565D",
"5]	c #405158",
"6]	c #2E2F31",
"7]	c #28292A",
"8]	c #3F4243",
"9]	c #3F535C",
"0]	c #97817B",
"a]	c #8A347F",
"b]	c #2C1D2C",
"c]	c #362A2D",
"d]	c #6F4539",
"e]	c #57403A",
"f]	c #5F443C",
"g]	c #514845",
"h]	c #415459",
"i]	c #364349",
"j]	c #333E4E",
"k]	c #161D35",
"l]	c #1B2F5A",
"m]	c #264583",
"n]	c #2C478A",
"o]	c #323370",
"p]	c #D261E0",
"q]	c #34316A",
"r]	c #1E2A4E",
"s]	c #162C49",
"t]	c #174469",
"u]	c #1EC1CF",
"v]	c #18879B",
"w]	c #19889B",
"x]	c #1C97A6",
"y]	c #1B939E",
"z]	c #175B77",
"A]	c #24C8D5",
"B]	c #1B617D",
"C]	c #182D4F",
"D]	c #192342",
"E]	c #1F315E",
"F]	c #303673",
"G]	c #CC58DA",
"H]	c #373E84",
"I]	c #3381A2",
"J]	c #293F87",
"K]	c #21326D",
"L]	c #1A1F3F",
"M]	c #303A51",
"N]	c #25272D",
"O]	c #47535F",
"P]	c #65433B",
"Q]	c #964C33",
"R]	c #AF613D",
"S]	c #864B36",
"T]	c #584E4E",
"U]	c #2E2533",
"V]	c #89337E",
"W]	c #FB5EEB",
"X]	c #231C28",
"Y]	c #7C7C7D",
"Z]	c #3F535B",
"`]	c #313233",
" ^	c #382E2E",
".^	c #443A37",
"+^	c #3E525A",
"@^	c #877F7D",
"#^	c #FB59E7",
"$^	c #903186",
"%^	c #291B2B",
"&^	c #2E272D",
"*^	c #6D4339",
"=^	c #414549",
"-^	c #3F484C",
";^	c #484A4B",
">^	c #42585C",
",^	c #383741",
"'^	c #173756",
")^	c #171E38",
"!^	c #202651",
"~^	c #7E4EB0",
"{^	c #323574",
"]^	c #D563E2",
"^^	c #485C95",
"/^	c #3A3867",
"(^	c #192949",
"_^	c #182846",
":^	c #17365A",
"<^	c #18A6B6",
"[^	c #2CA5B9",
"}^	c #3D7EA2",
"|^	c #4492AF",
"1^	c #396D94",
"2^	c #157693",
"3^	c #23B2BB",
"4^	c #1B3C62",
"5^	c #1A284D",
"6^	c #182D56",
"7^	c #222F5B",
"8^	c #47478D",
"9^	c #CD62DC",
"0^	c #374285",
"a^	c #5B599C",
"b^	c #233065",
"c^	c #191C3A",
"d^	c #18263F",
"e^	c #2F3A50",
"f^	c #495461",
"g^	c #4D4343",
"h^	c #A85D3B",
"i^	c #B9693D",
"j^	c #7F4630",
"k^	c #4A4D50",
"l^	c #415157",
"m^	c #2D2333",
"n^	c #FB5EEA",
"o^	c #231B28",
"p^	c #78777A",
"q^	c #3E5259",
"r^	c #323334",
"s^	c #3C2F2E",
"t^	c #6E4E43",
"u^	c #484C4E",
"v^	c #877D7B",
"w^	c #221925",
"x^	c #281A2B",
"y^	c #2A252E",
"z^	c #6B4038",
"A^	c #39464C",
"B^	c #394A4F",
"C^	c #3D4E54",
"D^	c #3E4E53",
"E^	c #323A41",
"F^	c #373741",
"G^	c #174467",
"H^	c #1A557B",
"I^	c #1E497A",
"J^	c #5A4490",
"K^	c #34397F",
"L^	c #D866E7",
"M^	c #51529E",
"N^	c #666B9B",
"O^	c #1D526D",
"P^	c #203A6D",
"Q^	c #213F6C",
"R^	c #1C6182",
"S^	c #23B8C7",
"T^	c #5E98C0",
"U^	c #6D9BC7",
"V^	c #6E8CBC",
"W^	c #21B5BD",
"X^	c #1A6486",
"Y^	c #1D3B65",
"Z^	c #2A487B",
"`^	c #1E3962",
" /	c #357E9B",
"./	c #4D57A4",
"+/	c #CE6BE1",
"@/	c #3E498F",
"#/	c #443C81",
"$/	c #1E4476",
"%/	c #1A5380",
"&/	c #1C4765",
"*/	c #303B52",
"=/	c #24262C",
"-/	c #4A5763",
";/	c #954734",
">/	c #F1B262",
",/	c #F0A04F",
"'/	c #D28A42",
")/	c #7F5348",
"!/	c #424F57",
"~/	c #2E2233",
"{/	c #89337D",
"]/	c #8E3486",
"^/	c #7A787C",
"//	c #3D5158",
"(/	c #313436",
"_/	c #2E2E30",
":/	c #464B4D",
"</	c #3E5057",
"[/	c #8A7673",
"}/	c #231926",
"|/	c #8B337F",
"1/	c #FA5BE6",
"2/	c #8F3185",
"3/	c #27192A",
"4/	c #2A242E",
"5/	c #653F37",
"6/	c #3C494E",
"7/	c #3B4E54",
"8/	c #2F3B43",
"9/	c #393A49",
"0/	c #15192F",
"a/	c #16203D",
"b/	c #2A508C",
"c/	c #373F8A",
"d/	c #D662E6",
"e/	c #39498C",
"f/	c #306089",
"g/	c #23618C",
"h/	c #6F4C9E",
"i/	c #5F4D96",
"j/	c #1F446A",
"k/	c #20B1C0",
"l/	c #3EA3BF",
"m/	c #6CB0CB",
"n/	c #41A7BE",
"o/	c #21B0BB",
"p/	c #1B547B",
"q/	c #28427B",
"r/	c #8855B0",
"s/	c #285091",
"t/	c #264D8C",
"u/	c #354A8B",
"v/	c #CD68DE",
"w/	c #6451A4",
"x/	c #56448F",
"y/	c #1B2C54",
"z/	c #151930",
"A/	c #303C53",
"B/	c #4A5663",
"C/	c #944432",
"D/	c #EFAB5A",
"E/	c #F0994B",
"F/	c #D5904C",
"G/	c #794F45",
"H/	c #445158",
"I/	c #302433",
"J/	c #87327C",
"K/	c #8E3386",
"L/	c #241A29",
"M/	c #79777A",
"N/	c #313234",
"O/	c #283033",
"P/	c #3E5359",
"Q/	c #5C6469",
"R/	c #735A56",
"S/	c #8E3084",
"T/	c #27192B",
"U/	c #2A252D",
"V/	c #653F36",
"W/	c #41484A",
"X/	c #404C50",
"Y/	c #5A4F4F",
"Z/	c #323E45",
"`/	c #323C4C",
" (	c #14192A",
".(	c #151D38",
"+(	c #1BB4B5",
"@(	c #21DBDB",
"#(	c #30467F",
"$(	c #D562E3",
"%(	c #394283",
"&(	c #27477A",
"*(	c #21487D",
"=(	c #8365BE",
"-(	c #68539F",
";(	c #4E60A1",
">(	c #1C83A1",
",(	c #22D0DA",
"'(	c #56D2E3",
")(	c #28D0D7",
"!(	c #1D8AA4",
"~(	c #6A6FB0",
"{(	c #305891",
"](	c #986CC6",
"^(	c #3F6A9A",
"/(	c #6470A4",
"((	c #405D9B",
"_(	c #CD5FDD",
":(	c #2D8CAE",
"<(	c #28A0B8",
"[(	c #171930",
"}(	c #151628",
"|(	c #2F3A51",
"1(	c #495562",
"2(	c #6B4238",
"3(	c #AD6E3E",
"4(	c #C58048",
"5(	c #985938",
"6(	c #604C49",
"7(	c #45545B",
"8(	c #372732",
"9(	c #FB5FEC",
"0(	c #241A28",
"a(	c #7D7A7B",
"b(	c #3C454A",
"c(	c #302C2D",
"d(	c #273134",
"e(	c #3F565D",
"f(	c #A07C71",
"g(	c #231D27",
"h(	c #89347F",
"i(	c #26192A",
"j(	c #28252D",
"k(	c #674237",
"l(	c #37464A",
"m(	c #364348",
"n(	c #384A50",
"o(	c #303947",
"p(	c #162543",
"q(	c #16294C",
"r(	c #1B2A54",
"s(	c #2983A7",
"t(	c #303F7A",
"u(	c #D764E3",
"v(	c #804BA2",
"w(	c #253C6C",
"x(	c #223363",
"y(	c #7E58B2",
"z(	c #6878B9",
"A(	c #7872C1",
"B(	c #529AC1",
"C(	c #2BDCDF",
"D(	c #62EEEB",
"E(	c #31DEDE",
"F(	c #3EA8C9",
"G(	c #9E85D5",
"H(	c #3879B6",
"I(	c #905CBA",
"J(	c #254B78",
"K(	c #257289",
"L(	c #6A428F",
"M(	c #CB5DDB",
"N(	c #374487",
"O(	c #545EA2",
"P(	c #6A478E",
"Q(	c #1A3F54",
"R(	c #2F3B51",
"S(	c #24252B",
"T(	c #494543",
"U(	c #9A5338",
"V(	c #A75638",
"W(	c #6B382B",
"X(	c #4F4E50",
"Y(	c #332532",
"Z(	c #7F7B7A",
"`(	c #3F4B4F",
" _	c #3C3A3A",
"._	c #2B2A2B",
"+_	c #272F33",
"@_	c #3D535A",
"#_	c #91807B",
"$_	c #221B25",
"%_	c #8A337F",
"&_	c #8F3285",
"*_	c #29262D",
"=_	c #694237",
"-_	c #36454B",
";_	c #37454B",
">_	c #384B50",
",_	c #2E3B41",
"'_	c #2E3848",
")_	c #192D53",
"!_	c #19325D",
"~_	c #19254B",
"{_	c #284486",
"]_	c #303778",
"^_	c #D663E4",
"/_	c #5C3F8A",
"(_	c #263C6C",
"__	c #233765",
":_	c #8C63BF",
"<_	c #6968B1",
"[_	c #8185CB",
"}_	c #73B4DC",
"|_	c #5DEBE9",
"1_	c #DCF9F8",
"2_	c #51EDEB",
"3_	c #59BEE0",
"4_	c #A291DB",
"5_	c #3861A5",
"6_	c #9363C0",
"7_	c #285680",
"8_	c #288598",
"9_	c #944DA9",
"0_	c #CB5FDC",
"a_	c #384488",
"b_	c #4A3670",
"c_	c #1B3F5D",
"d_	c #1B264C",
"e_	c #212329",
"f_	c #485663",
"g_	c #8B4534",
"h_	c #F1B560",
"i_	c #F1AE55",
"j_	c #D3904B",
"k_	c #6C4E46",
"l_	c #434F57",
"m_	c #3F2C37",
"n_	c #FC5FEC",
"o_	c #903587",
"p_	c #7E7571",
"q_	c #384449",
"r_	c #272D31",
"s_	c #394D53",
"t_	c #3C5157",
"u_	c #827977",
"v_	c #261A2A",
"w_	c #603E36",
"x_	c #37444B",
"y_	c #36484E",
"z_	c #2D383E",
"A_	c #1C4F6E",
"B_	c #1B5677",
"C_	c #1D899D",
"D_	c #2A5192",
"E_	c #313778",
"F_	c #D661E4",
"G_	c #393778",
"H_	c #253C6A",
"I_	c #24396C",
"J_	c #8A5FBF",
"K_	c #6A70B8",
"L_	c #7C7BCA",
"M_	c #79BADC",
"N_	c #4CECE9",
"O_	c #9CFCF7",
"P_	c #42ECEB",
"Q_	c #66C0E0",
"R_	c #A48DDA",
"S_	c #3F7AAF",
"T_	c #8F71C6",
"U_	c #27507E",
"V_	c #2790A1",
"W_	c #3A3678",
"X_	c #C95FD9",
"Y_	c #39468A",
"Z_	c #2B4583",
"`_	c #248196",
" :	c #235980",
".:	c #1F4B72",
"+:	c #2E3950",
"@:	c #2C292D",
"#:	c #4A5664",
"$:	c #964631",
"%:	c #EFA757",
"&:	c #F19C50",
"*:	c #D08E4B",
"=:	c #734E45",
"-:	c #48525A",
";:	c #452D37",
">:	c #8A337E",
",:	c #937064",
"':	c #4B4B4D",
"):	c #38454A",
"!:	c #262B2F",
"~:	c #3B4F56",
"{:	c #7F7474",
"]:	c #221724",
"^:	c #8F3286",
"/:	c #693F35",
"(:	c #3D4043",
"_:	c #374145",
"::	c #38464C",
"<:	c #36464D",
"[:	c #2D353D",
"}:	c #2F384A",
"|:	c #1B5076",
"1:	c #1D3261",
"2:	c #483E7A",
"3:	c #2C4B93",
"4:	c #303677",
"5:	c #D462E2",
"6:	c #3C6793",
"7:	c #424F80",
"8:	c #584082",
"9:	c #9A64C6",
"0:	c #6A65B3",
"a:	c #7C73C3",
"b:	c #5094BD",
"c:	c #26C6D0",
"d:	c #2FE5E7",
"e:	c #2DCBD6",
"f:	c #3695B9",
"g:	c #9D7FD5",
"h:	c #3764A3",
"i:	c #9361BE",
"j:	c #324C78",
"k:	c #2C839A",
"l:	c #346390",
"m:	c #CA6CDF",
"n:	c #2B4483",
"o:	c #233564",
"p:	c #1F3160",
"q:	c #205A7B",
"r:	c #2D374D",
"s:	c #27252A",
"t:	c #4A5462",
"u:	c #6D4035",
"v:	c #B16F40",
"w:	c #BE7D46",
"x:	c #8A5132",
"y:	c #684E4B",
"z:	c #434F58",
"A:	c #2E2332",
"B:	c #89327C",
"C:	c #FB5DEB",
"D:	c #903388",
"E:	c #927368",
"F:	c #3B4449",
"G:	c #2C2C2F",
"H:	c #242A2D",
"I:	c #7D7273",
"J:	c #26192B",
"K:	c #5B3932",
"L:	c #443937",
"M:	c #503934",
"N:	c #3B4448",
"O:	c #2C343B",
"P:	c #2D3545",
"Q:	c #18203E",
"R:	c #181C36",
"S:	c #57356D",
"T:	c #37478A",
"U:	c #313577",
"V:	c #D463E3",
"W:	c #8954A1",
"X:	c #243863",
"Y:	c #343F74",
"Z:	c #8659B8",
"`:	c #68559F",
" <	c #515D9D",
".<	c #1B6A90",
"+<	c #2ABDC8",
"@<	c #3AC6D2",
"#<	c #2ABAC9",
"$<	c #2086A1",
"%<	c #5B5798",
"&<	c #324E8D",
"*<	c #9272C5",
"=<	c #285681",
"-<	c #2C7894",
";<	c #69448E",
"><	c #CD63DC",
",<	c #2A4682",
"'<	c #205768",
")<	c #1C284F",
"!<	c #2E3141",
"~<	c #26252B",
"{<	c #475360",
"]<	c #50433F",
"^<	c #954832",
"/<	c #A15136",
"(<	c #784030",
"_<	c #504749",
":<	c #3E4B54",
"<<	c #2D2330",
"[<	c #89337C",
"}<	c #FB5DEC",
"|<	c #903387",
"1<	c #251A29",
"2<	c #7F6257",
"3<	c #3A4449",
"4<	c #3F3E40",
"5<	c #2B2A2D",
"6<	c #36494E",
"7<	c #384B51",
"8<	c #797071",
"9<	c #211923",
"0<	c #F95AE6",
"a<	c #26182A",
"b<	c #28242B",
"c<	c #593A34",
"d<	c #6A4437",
"e<	c #523A32",
"f<	c #523F3B",
"g<	c #373E42",
"h<	c #262931",
"i<	c #1A1D39",
"j<	c #242447",
"k<	c #1D2547",
"l<	c #2B4589",
"m<	c #323678",
"n<	c #D360E3",
"o<	c #425299",
"p<	c #2C5592",
"q<	c #1F466F",
"r<	c #534D93",
"s<	c #484E8B",
"t<	c #24517C",
"u<	c #2A8BA4",
"v<	c #3FA7B9",
"w<	c #40A7BD",
"x<	c #41A3BA",
"y<	c #2E95A7",
"z<	c #1F5179",
"A<	c #244273",
"B<	c #615099",
"C<	c #243862",
"D<	c #2D648A",
"E<	c #3A629E",
"F<	c #CE62DF",
"G<	c #344284",
"H<	c #3F4A8F",
"I<	c #1D4A67",
"J<	c #192242",
"K<	c #1E2550",
"L<	c #363743",
"M<	c #232429",
"N<	c #46515E",
"O<	c #8A412E",
"P<	c #EFB25B",
"Q<	c #F2AD56",
"R<	c #D28F4C",
"S<	c #6E4A40",
"T<	c #3C4A52",
"U<	c #2C2330",
"V<	c #8F3386",
"W<	c #241C28",
"X<	c #7F675B",
"Y<	c #3F3F3F",
"Z<	c #413634",
"`<	c #29282B",
" [	c #262B2D",
".[	c #776D6D",
"+[	c #201823",
"@[	c #845144",
"#[	c #48322E",
"$[	c #533931",
"%[	c #503B36",
"&[	c #383A3A",
"*[	c #28292D",
"=[	c #2D3745",
"-[	c #332F53",
";[	c #4C618F",
">[	c #3D6295",
",[	c #505AA5",
"'[	c #303475",
")[	c #D55FE4",
"![	c #434C96",
"~[	c #212F58",
"{[	c #1E2A4D",
"][	c #1F3258",
"^[	c #1E4572",
"/[	c #227797",
"([	c #31ABBD",
"_[	c #288BA8",
":[	c #247F9E",
"<[	c #1F88A0",
"[[	c #1D4E78",
"}[	c #1C4063",
"|[	c #1D2B49",
"1[	c #1E2748",
"2[	c #223D5C",
"3[	c #353E79",
"4[	c #CE60DF",
"5[	c #364583",
"6[	c #8D57B7",
"7[	c #1D5876",
"8[	c #1B728F",
"9[	c #32446C",
"0[	c #2D303D",
"a[	c #282629",
"b[	c #454F5A",
"c[	c #773A2B",
"d[	c #ECAA5D",
"e[	c #F09B4D",
"f[	c #CA8642",
"g[	c #704A3E",
"h[	c #3C484F",
"i[	c #2B212F",
"j[	c #88337B",
"k[	c #8E3485",
"l[	c #575452",
"m[	c #3C4143",
"n[	c #3E3532",
"o[	c #2F2B2B",
"p[	c #746A6A",
"q[	c #8E3184",
"r[	c #553E38",
"s[	c #734C41",
"t[	c #4E322C",
"u[	c #543932",
"v[	c #383837",
"w[	c #2A2B2E",
"x[	c #2D3441",
"y[	c #154F67",
"z[	c #183D5B",
"A[	c #6F59AD",
"B[	c #5058AB",
"C[	c #2E2F6B",
"D[	c #D45FE2",
"E[	c #372E67",
"F[	c #21254B",
"G[	c #1D2244",
"H[	c #1E3056",
"I[	c #1E5B76",
"J[	c #533D79",
"K[	c #586797",
"L[	c #9D6CBF",
"M[	c #9A6ABE",
"N[	c #9468BA",
"O[	c #4B598A",
"P[	c #1E5C72",
"Q[	c #1D6377",
"R[	c #1C2F52",
"S[	c #1B2445",
"T[	c #1F2A4E",
"U[	c #2D2756",
"V[	c #CE5CD8",
"W[	c #36437E",
"X[	c #2A4890",
"Y[	c #233B78",
"Z[	c #1E3C6E",
"`[	c #1A5474",
" }	c #2C3341",
".}	c #24252A",
"+}	c #424B55",
"@}	c #52332F",
"#}	c #A8683E",
"$}	c #BB7A45",
"%}	c #824C30",
"&}	c #50423F",
"*}	c #3C474D",
"=}	c #2B202F",
"-}	c #88327B",
";}	c #FB5EEC",
">}	c #454F55",
",}	c #383F43",
"'}	c #302B2B",
")}	c #27292D",
"!}	c #343C41",
"~}	c #343D41",
"{}	c #494E52",
"]}	c #8C3380",
"^}	c #FA59E6",
"/}	c #251729",
"(}	c #27212A",
"_}	c #473837",
":}	c #4D3D3A",
"<}	c #563831",
"[}	c #5C3930",
"}}	c #403634",
"|}	c #2B2A2E",
"1}	c #2B303C",
"2}	c #18446A",
"3}	c #1A467B",
"4}	c #1C3C6D",
"5}	c #7A459D",
"6}	c #2C3369",
"7}	c #A957C8",
"8}	c #2E4D92",
"9}	c #1E2346",
"0}	c #1A2447",
"a}	c #1C2F5B",
"b}	c #22628A",
"c}	c #24839D",
"d}	c #238AA3",
"e}	c #238EA9",
"f}	c #2791AF",
"g}	c #2993B0",
"h}	c #24889E",
"i}	c #218497",
"j}	c #226E87",
"k}	c #1D355F",
"l}	c #1A2346",
"m}	c #1A1F3D",
"n}	c #253E7E",
"o}	c #A655C2",
"p}	c #2C3A6E",
"q}	c #273F7E",
"r}	c #1B244B",
"s}	c #1E326A",
"t}	c #1E3368",
"u}	c #2C303B",
"v}	c #393B42",
"w}	c #423130",
"x}	c #8C472E",
"y}	c #985132",
"z}	c #773E2C",
"A}	c #44393A",
"B}	c #394048",
"C}	c #2C202F",
"D}	c #89337B",
"E}	c #424C53",
"F}	c #36393B",
"G}	c #292B2E",
"H}	c #282A2D",
"I}	c #2E3134",
"J}	c #32383B",
"K}	c #594F51",
"L}	c #241826",
"M}	c #F959E5",
"N}	c #251728",
"O}	c #453634",
"P}	c #3D3737",
"Q}	c #5B3F38",
"R}	c #613E35",
"S}	c #40302D",
"T}	c #2E2628",
"U}	c #2A2D38",
"V}	c #164B68",
"W}	c #19284C",
"X}	c #2C4183",
"Y}	c #212D5B",
"Z}	c #26407C",
"`}	c #294F92",
" |	c #1C2146",
".|	c #1B264B",
"+|	c #323260",
"@|	c #8943A0",
"#|	c #423562",
"$|	c #1C3F5E",
"%|	c #21828F",
"&|	c #224D71",
"*|	c #2698A5",
"=|	c #18435C",
"-|	c #1F7D88",
";|	c #1B5667",
">|	c #1A2A50",
",|	c #1A2547",
"'|	c #1A294B",
")|	c #1D3E75",
"!|	c #27437F",
"~|	c #213362",
"{|	c #254482",
"]|	c #1D3368",
"^|	c #181C39",
"/|	c #1A264B",
"(|	c #282E38",
"_|	c #36373C",
":|	c #4D312D",
"<|	c #E8A352",
"[|	c #EF9F4F",
"}|	c #CD954F",
"||	c #44383B",
"1|	c #373C45",
"2|	c #2B202E",
"3|	c #FC5DEC",
"4|	c #8F3387",
"5|	c #504849",
"6|	c #2E3235",
"7|	c #585B5C",
"8|	c #303335",
"9|	c #725F5D",
"0|	c #F95AE5",
"a|	c #8D3183",
"b|	c #241727",
"c|	c #262129",
"d|	c #423533",
"e|	c #393636",
"f|	c #483B38",
"g|	c #604139",
"h|	c #44312E",
"i|	c #2A2425",
"j|	c #292D35",
"k|	c #183C61",
"l|	c #1A407A",
"m|	c #1E4182",
"n|	c #15203B",
"o|	c #141C34",
"p|	c #182243",
"q|	c #583473",
"r|	c #1C264F",
"s|	c #1D2C56",
"t|	c #443769",
"u|	c #363365",
"v|	c #453E74",
"w|	c #1C5A7C",
"x|	c #1D5D7D",
"y|	c #1C3B6C",
"z|	c #1C4A70",
"A|	c #1F6183",
"B|	c #1C5C79",
"C|	c #1B325C",
"D|	c #1C2950",
"E|	c #1B3256",
"F|	c #1A213D",
"G|	c #161D37",
"H|	c #17203C",
"I|	c #141727",
"J|	c #1C386C",
"K|	c #1F427E",
"L|	c #182547",
"M|	c #272C36",
"N|	c #343539",
"O|	c #4B302B",
"P|	c #EBA857",
"Q|	c #F19F4E",
"R|	c #CE974D",
"S|	c #433638",
"T|	c #35393F",
"U|	c #291E2C",
"V|	c #FB5CEC",
"W|	c #3E464A",
"X|	c #30383D",
"Y|	c #282B2D",
"Z|	c #424B4E",
"`|	c #696766",
" 1	c #493E3E",
".1	c #221A25",
"+1	c #8B347E",
"@1	c #F959E4",
"#1	c #8D3182",
"$1	c #221725",
"%1	c #212023",
"&1	c #3B3331",
"*1	c #3A3332",
"=1	c #4D3F3B",
"-1	c #242425",
";1	c #282D35",
">1	c #1E3B78",
",1	c #1A3770",
"'1	c #131A2E",
")1	c #12182A",
"!1	c #111E37",
"~1	c #192649",
"{1	c #1E3667",
"]1	c #2A5C78",
"^1	c #7987BA",
"/1	c #208293",
"(1	c #1B899F",
"_1	c #22A0B8",
":1	c #1E9DB4",
"<1	c #1C96AE",
"[1	c #2198B0",
"}1	c #219CB5",
"|1	c #259FB3",
"11	c #1F909C",
"21	c #4A748D",
"31	c #5E6E94",
"41	c #1A2647",
"51	c #16203B",
"61	c #141A31",
"71	c #142237",
"81	c #131623",
"91	c #172C52",
"01	c #1C417A",
"a1	c #272C33",
"b1	c #202226",
"c1	c #313438",
"d1	c #554038",
"e1	c #9F663D",
"f1	c #B57746",
"g1	c #814D31",
"h1	c #32393D",
"i1	c #271E2B",
"j1	c #89317B",
"k1	c #FA5BEB",
"l1	c #8D3384",
"m1	c #211925",
"n1	c #393F43",
"o1	c #2E3236",
"p1	c #594944",
"q1	c #36302F",
"r1	c #26282C",
"s1	c #353F43",
"t1	c #9D8279",
"u1	c #1D1620",
"v1	c #54274F",
"w1	c #903C86",
"x1	c #583057",
"y1	c #1F1821",
"z1	c #1E1E22",
"A1	c #3A312F",
"B1	c #383232",
"C1	c #3A2F2D",
"D1	c #353334",
"E1	c #262A2D",
"F1	c #292E36",
"G1	c #171C39",
"H1	c #181C3A",
"I1	c #111829",
"J1	c #111C30",
"K1	c #14213A",
"L1	c #131C33",
"M1	c #192E5A",
"N1	c #1B2246",
"O1	c #89499E",
"P1	c #673C81",
"Q1	c #1C2851",
"R1	c #1C576D",
"S1	c #2892A7",
"T1	c #2398AD",
"U1	c #1C688E",
"V1	c #1E7592",
"W1	c #1E8292",
"X1	c #1C4877",
"Y1	c #1A3A69",
"Z1	c #242E57",
"`1	c #994EAC",
" 2	c #18203C",
".2	c #1C2E58",
"+2	c #151B32",
"@2	c #151E34",
"#2	c #141B2E",
"$2	c #121623",
"%2	c #141B31",
"&2	c #151F38",
"*2	c #272B31",
"=2	c #453E3E",
"-2	c #463A39",
";2	c #49423E",
">2	c #413E3E",
",2	c #1F1622",
"'2	c #5A3057",
")2	c #93408C",
"!2	c #532751",
"~2	c #1C1720",
"{2	c #655753",
"]2	c #5B514E",
"^2	c #3B4246",
"/2	c #292A2B",
"(2	c #373F42",
"_2	c #816A65",
":2	c #18151C",
"<2	c #3E3642",
"[2	c #373842",
"}2	c #17141A",
"|2	c #1A191E",
"12	c #382B2B",
"22	c #3C2D2C",
"32	c #3D2E2C",
"42	c #313235",
"52	c #24262B",
"62	c #272A32",
"72	c #1B1F46",
"82	c #121A2F",
"92	c #10192C",
"02	c #11182D",
"a2	c #131931",
"b2	c #173463",
"c2	c #1A2A52",
"d2	c #1B2B55",
"e2	c #1F2F60",
"f2	c #1F3163",
"g2	c #1F4075",
"h2	c #1F528C",
"i2	c #1D5387",
"j2	c #1D538A",
"k2	c #1F6199",
"l2	c #1C73A2",
"m2	c #1B5F90",
"n2	c #234E88",
"o2	c #285590",
"p2	c #21508D",
"q2	c #275593",
"r2	c #1F497E",
"s2	c #192B56",
"t2	c #19294E",
"u2	c #151D35",
"v2	c #13182A",
"w2	c #111625",
"x2	c #131829",
"y2	c #272A30",
"z2	c #2E3135",
"A2	c #2C2E30",
"B2	c #1F1B20",
"C2	c #18111B",
"D2	c #3D3942",
"E2	c #423947",
"F2	c #211926",
"G2	c #17151C",
"H2	c #80716B",
"I2	c #46474A",
"J2	c #262627",
"K2	c #232528",
"L2	c #313739",
"M2	c #323C40",
"N2	c #625B5C",
"O2	c #151217",
"P2	c #1C1A20",
"Q2	c #2C292F",
"R2	c #2E343A",
"S2	c #121115",
"T2	c #33363A",
"U2	c #2C2C2E",
"V2	c #312525",
"W2	c #422D28",
"X2	c #323134",
"Y2	c #303034",
"Z2	c #25252A",
"`2	c #12162B",
" 3	c #10172A",
".3	c #121F33",
"+3	c #111628",
"@3	c #14233D",
"#3	c #17223D",
"$3	c #1A2C55",
"%3	c #1B2D57",
"&3	c #1C3362",
"*3	c #224D88",
"=3	c #244E89",
"-3	c #234C86",
";3	c #224B87",
">3	c #204A84",
",3	c #1E4681",
"'3	c #1E4079",
")3	c #2F4075",
"!3	c #1E305C",
"~3	c #1A2C58",
"{3	c #32375C",
"]3	c #1B2F5E",
"^3	c #1A2F5B",
"/3	c #151E3A",
"(3	c #121522",
"_3	c #131728",
":3	c #111728",
"<3	c #131729",
"[3	c #282B31",
"}3	c #292A2F",
"|3	c #211F22",
"13	c #19191C",
"23	c #1A191C",
"33	c #1D1D21",
"43	c #2C2F34",
"53	c #17181E",
"63	c #2F3338",
"73	c #2A292F",
"83	c #1E1C22",
"93	c #161419",
"03	c #635A58",
"a3	c #313538",
"b3	c #222527",
"c3	c #303535",
"d3	c #30383C",
"e3	c #5A5555",
"f3	c #131215",
"g3	c #2B3033",
"h3	c #353A3E",
"i3	c #4B5357",
"j3	c #252729",
"k3	c #302625",
"l3	c #332B2C",
"m3	c #342A2A",
"n3	c #24272C",
"o3	c #111726",
"p3	c #0F1423",
"q3	c #1A374B",
"r3	c #0F121F",
"s3	c #1B3B6F",
"t3	c #182648",
"u3	c #18274B",
"v3	c #192851",
"w3	c #1A2C5A",
"x3	c #1F4884",
"y3	c #1D2E54",
"z3	c #9751AA",
"A3	c #573E7F",
"B3	c #6B3E87",
"C3	c #1B2F59",
"D3	c #192E55",
"E3	c #8954A4",
"F3	c #1D2D56",
"G3	c #1B376D",
"H3	c #1F3F7C",
"I3	c #1A2B56",
"J3	c #172548",
"K3	c #1B2A4E",
"L3	c #12172B",
"M3	c #101420",
"N3	c #121725",
"O3	c #111522",
"P3	c #222327",
"Q3	c #2B3135",
"R3	c #282B2F",
"S3	c #252528",
"T3	c #1D1B1F",
"U3	c #394044",
"V3	c #383E41",
"W3	c #1A1C20",
"X3	c #2B3034",
"Y3	c #1D1E22",
"Z3	c #131317",
"`3	c #605653",
" 4	c #313A3D",
".4	c #303437",
"+4	c #242427",
"@4	c #232426",
"#4	c #303131",
"$4	c #424D51",
"%4	c #121314",
"&4	c #282F34",
"*4	c #111113",
"=4	c #2B2E2F",
"-4	c #2A2E31",
";4	c #444B4D",
">4	c #2F2626",
",4	c #322928",
"'4	c #252324",
")4	c #121828",
"!4	c #183466",
"~4	c #16325F",
"{4	c #141D36",
"]4	c #43345A",
"^4	c #18274E",
"/4	c #1E3A72",
"(4	c #1F477C",
"_4	c #2E2B58",
":4	c #A24CB0",
"<4	c #73438E",
"[4	c #8E4A9F",
"}4	c #182A4B",
"|4	c #162E4E",
"14	c #1C7586",
"24	c #643D7F",
"34	c #7C428C",
"44	c #1A305F",
"54	c #224E93",
"64	c #182A52",
"74	c #2A304E",
"84	c #141E37",
"94	c #182545",
"04	c #1A2A54",
"a4	c #111524",
"b4	c #111622",
"c4	c #111421",
"d4	c #232326",
"e4	c #312F2F",
"f4	c #293133",
"g4	c #282B2E",
"h4	c #3B4245",
"i4	c #2E3335",
"j4	c #2C3232",
"k4	c #17191C",
"l4	c #292D32",
"m4	c #475153",
"n4	c #2E3436",
"o4	c #232527",
"p4	c #292D2F",
"q4	c #2C3133",
"r4	c #3B484C",
"s4	c #121415",
"t4	c #25272A",
"u4	c #262C30",
"v4	c #232729",
"w4	c #474D4F",
"x4	c #43484B",
"y4	c #221E1F",
"z4	c #2B2626",
"A4	c #282426",
"B4	c #14171E",
"C4	c #10131C",
"D4	c #142240",
"E4	c #183362",
"F4	c #151F37",
"G4	c #151D36",
"H4	c #19213F",
"I4	c #25519A",
"J4	c #1A3052",
"K4	c #427895",
"L4	c #5685A5",
"M4	c #41809A",
"N4	c #4C819E",
"O4	c #207E8F",
"P4	c #1E8090",
"Q4	c #2097A4",
"R4	c #3A8197",
"S4	c #5A85A3",
"T4	c #1B4865",
"U4	c #1E417F",
"V4	c #1E4683",
"W4	c #182544",
"X4	c #161F38",
"Y4	c #161F37",
"Z4	c #172648",
"`4	c #182852",
" 5	c #10121B",
".5	c #11131B",
"+5	c #262A2F",
"@5	c #242123",
"#5	c #32383C",
"$5	c #394043",
"%5	c #444B4E",
"&5	c #16171B",
"*5	c #272B2F",
"=5	c #1A1C1E",
"-5	c #3A484C",
";5	c #2B2F32",
">5	c #292C2E",
",5	c #292A2D",
"'5	c #353434",
")5	c #3A464B",
"!5	c #242428",
"~5	c #202224",
"{5	c #26282B",
"]5	c #26292D",
"^5	c #1F1C1E",
"/5	c #2A2526",
"(5	c #282224",
"_5	c #2A2D32",
":5	c #292E35",
"<5	c #15213B",
"[5	c #182E58",
"}5	c #161E37",
"|5	c #193063",
"15	c #214D96",
"25	c #1E8890",
"35	c #26E3E3",
"45	c #2BECEB",
"55	c #2BEDEC",
"65	c #2BECEC",
"75	c #2AEDEC",
"85	c #29EDEB",
"95	c #1FA9B0",
"05	c #1A3263",
"a5	c #224992",
"b5	c #1B2745",
"c5	c #2A465E",
"d5	c #182850",
"e5	c #21252B",
"f5	c #282C31",
"g5	c #27282B",
"h5	c #221E21",
"i5	c #25282B",
"j5	c #2B2D30",
"k5	c #151418",
"l5	c #282C2E",
"m5	c #374046",
"n5	c #1F1F22",
"o5	c #1F1E22",
"p5	c #17181B",
"q5	c #18191C",
"r5	c #1D1C21",
"s5	c #202125",
"t5	c #19181B",
"u5	c #221E20",
"v5	c #1E1B1F",
"w5	c #18181C",
"x5	c #30363C",
"y5	c #2E3037",
"z5	c #2D3036",
"A5	c #2C2E35",
"B5	c #2F3339",
"C5	c #2C3139",
"D5	c #292F38",
"E5	c #27303A",
"F5	c #25313B",
"G5	c #25333C",
"H5	c #25323C",
"I5	c #26323C",
"J5	c #27323B",
"K5	c #27313A",
"L5	c #282E37",
"M5	c #282B34",
"N5	c #272A31",
"O5	c #262B30",
"P5	c #282C32",
"Q5	c #282C33",
"R5	c #2B3037",
"S5	c #262429",
"T5	c #232126",
"U5	c #1A171B",
"V5	c #1D1C20",
"W5	c #1A181D",
"X5	c #232225",
"Y5	c #3C4449",
"Z5	c #333539",
"`5	c #2F3336",
" 6	c #303438",
".6	c #5B5353",
"+6	c #4E433F",
"@6	c #1D1E20",
"#6	c #242528",
"$6	c #100F11",
"%6	c #101012",
"&6	c #0F1013",
"*6	c #111013",
"=6	c #171A1D",
"-6	c #1A1C21",
";6	c #1A1B20",
">6	c #191B20",
",6	c #181A1F",
"'6	c #181C21",
")6	c #181D21",
"!6	c #181D22",
"~6	c #191D22",
"{6	c #181C20",
"]6	c #191A1F",
"^6	c #1A1B1F",
"/6	c #1F2025",
"(6	c #1D1F23",
"_6	c #121113",
":6	c #100F12",
"<6	c #100F13",
"[6	c #1D1F22",
"}6	c #141519",
"|6	c #474343",
"16	c #636264",
"26	c #3B3B3D",
"36	c #2D3134",
"46	c #2E3136",
"56	c #363B3C",
"66	c #6C5C54",
"76	c #3C3836",
"86	c #202022",
"96	c #2F3031",
"06	c #424343",
"a6	c #434545",
"b6	c #464848",
"c6	c #3E3F40",
"d6	c #4D4D4E",
"e6	c #5B5351",
"f6	c #5B524E",
"g6	c #505050",
"h6	c #4F4F50",
"i6	c #4D4E4F",
"j6	c #515252",
"k6	c #535455",
"l6	c #545455",
"m6	c #565657",
"n6	c #565758",
"o6	c #565757",
"p6	c #58595A",
"q6	c #585859",
"r6	c #58585A",
"s6	c #585959",
"t6	c #575859",
"u6	c #575858",
"v6	c #515152",
"w6	c #4F4F51",
"x6	c #4F5050",
"y6	c #535353",
"z6	c #565656",
"A6	c #5A5857",
"B6	c #5A5654",
"C6	c #5C5551",
"D6	c #44413F",
"E6	c #444445",
"F6	c #424244",
"G6	c #3E4041",
"H6	c #2E3133",
"I6	c #1F2124",
"J6	c #16181B",
"K6	c #3C3433",
"L6	c #7B665E",
"M6	c #3F4140",
"N6	c #2F3234",
"O6	c #2E2F33",
"P6	c #292C2F",
"Q6	c #322D2E",
"R6	c #6D5C53",
"S6	c #635249",
"T6	c #2B3335",
"U6	c #514743",
"V6	c #89756E",
"W6	c #695D59",
"X6	c #504D4B",
"Y6	c #5F453B",
"Z6	c #654A3E",
"`6	c #594F4A",
" 7	c #5C5350",
".7	c #5B5958",
"+7	c #4D4B49",
"@7	c #5F5956",
"#7	c #5C5A59",
"$7	c #715C55",
"%7	c #725D55",
"&7	c #755F56",
"*7	c #6F6058",
"=7	c #7F685D",
"-7	c #82665C",
";7	c #7F635A",
">7	c #7A655C",
",7	c #83685E",
"'7	c #7C685F",
")7	c #756660",
"!7	c #796E69",
"~7	c #817B77",
"{7	c #817C78",
"]7	c #807C78",
"^7	c #817D7A",
"/7	c #837E7B",
"(7	c #817975",
"_7	c #786C65",
":7	c #7B6B61",
"<7	c #846D62",
"[7	c #7F6258",
"}7	c #7D645A",
"|7	c #7B655B",
"17	c #735E54",
"27	c #775D54",
"37	c #6C635F",
"47	c #4E4D4D",
"57	c #5C5B59",
"67	c #525556",
"77	c #525456",
"87	c #5A453F",
"97	c #64483D",
"07	c #5D4940",
"a7	c #494C4D",
"b7	c #605D5D",
"c7	c #957E76",
"d7	c #5E4F48",
"e7	c #2C3435",
"f7	c #614E46",
"g7	c #6F5E57",
"h7	c #3B3230",
"i7	c #2A2C2D",
"j7	c #3E3633",
"k7	c #424445",
"l7	c #59524F",
"m7	c #4A403C",
"n7	c #414242",
"o7	c #65534E",
"p7	c #394446",
"q7	c #54433E",
"r7	c #4C4140",
"s7	c #374247",
"t7	c #3C4549",
"u7	c #494A49",
"v7	c #686968",
"w7	c #404346",
"x7	c #494244",
"y7	c #524440",
"z7	c #51433E",
"A7	c #514A49",
"B7	c #765147",
"C7	c #8B5746",
"D7	c #7A574B",
"E7	c #625855",
"F7	c #755953",
"G7	c #5F5859",
"H7	c #52575C",
"I7	c #566267",
"J7	c #616D72",
"K7	c #5E6B70",
"L7	c #5E6D74",
"M7	c #617177",
"N7	c #637278",
"O7	c #626F74",
"P7	c #576165",
"Q7	c #5F5755",
"R7	c #745A54",
"S7	c #7C594E",
"T7	c #935A46",
"U7	c #7D5344",
"V7	c #5A4B48",
"W7	c #504847",
"X7	c #574440",
"Y7	c #484142",
"Z7	c #3F4244",
"`7	c #4C5356",
" 8	c #56595B",
".8	c #374348",
"+8	c #3C474A",
"@8	c #494745",
"#8	c #5A413A",
"$8	c #5D514D",
"%8	c #494847",
"&8	c #443F3C",
"*8	c #2B2D2E",
"=8	c #534C4A",
"-8	c #3E4244",
";8	c #443C3A",
">8	c #262629",
",8	c #232324",
"'8	c #2F373A",
")8	c #33383B",
"!8	c #393131",
"~8	c #49423F",
"{8	c #624F49",
"]8	c #3E4144",
"^8	c #3A3F43",
"/8	c #353E43",
"(8	c #323A3D",
"_8	c #474F52",
":8	c #353B41",
"<8	c #333A3F",
"[8	c #35393C",
"}8	c #343C40",
"|8	c #363C41",
"18	c #453C3B",
"28	c #3D4245",
"38	c #6B483E",
"48	c #484E50",
"58	c #3F545B",
"68	c #3E515C",
"78	c #3E535E",
"88	c #3F545D",
"98	c #3E545C",
"08	c #3D4F56",
"a8	c #3D4D56",
"b8	c #3E515B",
"c8	c #40555F",
"d8	c #415861",
"e8	c #415760",
"f8	c #40545C",
"g8	c #474D52",
"h8	c #3F4A50",
"i8	c #534949",
"j8	c #68483E",
"k8	c #563E37",
"l8	c #403E3F",
"m8	c #383D43",
"n8	c #373C41",
"o8	c #343A3E",
"p8	c #333A3D",
"q8	c #363E42",
"r8	c #494B4E",
"s8	c #394246",
"t8	c #3B4346",
"u8	c #3E4245",
"v8	c #584B47",
"w8	c #4D4441",
"x8	c #363737",
"y8	c #2C2A2C",
"z8	c #343639",
"A8	c #34393D",
"B8	c #28292B",
"C8	c #201F21",
"D8	c #1E1E1F",
"E8	c #201D1E",
"F8	c #241F20",
"G8	c #3A2926",
"H8	c #362928",
"I8	c #382E2C",
"J8	c #393330",
"K8	c #4E3D39",
"L8	c #543931",
"M8	c #533A32",
"N8	c #473732",
"O8	c #383F42",
"P8	c #31383D",
"Q8	c #33383D",
"R8	c #31373C",
"S8	c #363638",
"T8	c #353638",
"U8	c #433633",
"V8	c #664237",
"W8	c #4A4140",
"X8	c #3B4C53",
"Y8	c #3D4E58",
"Z8	c #3D505A",
"`8	c #3C4F57",
" 9	c #3A484F",
".9	c #3B4851",
"+9	c #3D4E57",
"@9	c #40565F",
"#9	c #3D5159",
"$9	c #3C4950",
"%9	c #3B484F",
"&9	c #3C4346",
"*9	c #483A36",
"=9	c #4F342E",
"-9	c #47332F",
";9	c #37393D",
">9	c #333B40",
",9	c #31383C",
"'9	c #4F3A33",
")9	c #513932",
"!9	c #543A33",
"~9	c #4B3D38",
"{9	c #383433",
"]9	c #352F2E",
"^9	c #362B2A",
"/9	c #3A2C29",
"(9	c #252122",
"_9	c #232022",
":9	c #1F1E21",
"<9	c #18191A",
"[9	c #1F1F20",
"}9	c #212122",
"|9	c #252021",
"19	c #29201F",
"29	c #282020",
"39	c #292221",
"49	c #2C2726",
"59	c #2B2828",
"69	c #4C3731",
"79	c #4D3831",
"89	c #4C3932",
"99	c #453632",
"09	c #25282A",
"a9	c #282A2C",
"b9	c #292A2C",
"c9	c #332A28",
"d9	c #2B2627",
"e9	c #2B2728",
"f9	c #2F2423",
"g9	c #392B27",
"h9	c #2F2D2E",
"i9	c #2E363A",
"j9	c #303E43",
"k9	c #303E44",
"l9	c #2E373D",
"m9	c #2D373C",
"n9	c #2E393E",
"o9	c #2F3C41",
"p9	c #313F45",
"q9	c #312C2B",
"r9	c #312625",
"s9	c #312423",
"t9	c #302423",
"u9	c #2B292A",
"v9	c #272B2E",
"w9	c #4B3934",
"x9	c #4C3933",
"y9	c #4D3A35",
"z9	c #282828",
"A9	c #262122",
"B9	c #292120",
"C9	c #2C2120",
"D9	c #262222",
"E9	c #212224",
"F9	c #1F2022",
"G9	c #1A1A1D",
"  . + @ # $ % & * = - ; > , ' ) ! ~ { ] ^ / ( _ : < [ } | 1 2 3 4 5 6 7 8 9 0 a b c d e f g h i j k l m n o p q % r s t u v w x ",
"y z A B C D E F G H I J K L M N O P Q R S T U V W X Y Z Z `  ...+.@.#.$.%.&.*.=.-.;.>.,.'.).!.~.{.].l ^./.(._.:.<.r [.}.|.1.2.3.",
"4.5.6.7.8.9.0.a.b.c.d.e.f.g.h.i.j.k.l.m.n.o.p.q.r.s.t.u.v.w.x.y.z.A.B.C.D.E.F.G.H.I.J.K.L.M.N.O.P.Q.g.g.R.c.a.S.T._.U.V.W.X.Y.Z.",
"`. +.+++@+#+$+%+&+*+=+-+-+-+;+;+>+,+'+)+!+~+{+]+^+/+(+( (+_+:+:+<+:+<+[+}+|+1+2+3+4+5+6+{.7+8+&+;+;+9+9+9+9+0+a+b+c+d+e+f+g+h+i+",
"j+k+l+m+n+o+9+a+p+q+r+r+q+s+t+u+v+w+x+y+z+A+B+C+D+E+F+G+H+I+J+J+K+L+M+N+O+P+Q+R+S+z+T+U+V+W+1+X+Y+q+r+q+q+q+q+Z+Z+-+`+ @.@+@@@#@",
"$@%@&@*@=@-@;@s+>@,@'@)@-+-+9+!@~@{@]@^@/@(@_@:@<@[@}@|@1@2@2@3@4@5@6@7@8@9@0@a@b@c@m.d@e@f@g@h@i@;@;@;@;@j@b+k@Y+l@m@n@o@p@q@r@",
"s@t@u@= v@w@x@y@z@A@B@C@D@E@F@G@H@I@J@K@L@M@N@O@P@Q@R@S@T@U@V@W@X@Y@Z@`@ #.#+#@###$#%#&#l *#=#i@-#;#>#,#'#)#!#~#{#q+]#^#/#(#_#:#",
"<#[#M.}#|#1#2#3#4#5#6#7#8#9#0#a#b#c#d#e#f#g#h#i#j#k#l#m#n#o#p#q#r#s#t#u#v#w#x#y#z#A#B#C#g D#E#F#G#y@H#I#J#K#c+L#M#N#O#t+P#Q#R#S#",
"T#U#V#W#|#X#Z.Y#w@Z#`# $.$+$@$#$$$%$&$*$=$-$;$>$,$'$)$!$~${$]$^$/$($_$:$<$[$}$|$1$A#2$3$4$}#5$6$7$8$M#9$0$a$M#p+b$c$d$1#7.e$f$g$",
"h$i$F j$0+,@H#k$l$m$n$o$+$p$q$r$s$t$u$v$1$w$x$y$z$A$B$C$D$E$F$G$H$I$J$K$L$M$N$|$1$A#2$O$4$].P$Q$R$S$T$U$V$k@M#W$X$Y$Z$s+`$ %H .%",
"+%@%C@#%Z+$%%%&%w@*%m$=%U$-%;%m >%,%'%)%+$!%x$~%{%]%^%/%(%_%:%<%[%}%|%1%2%3%4%|$1$5%m$6%7%8%9%0%a%b%+%c%M#d%+%W$e%f%g%x@h%i%H T$",
"d%@%j%k%l%m%n%o%p%q%r%m$s%t%u%v%w%x%y%z%A%B%C%D%E%F%G%H%I%J%K%L%M%N%O%P%Q%R%l#S%1$T%U%V%W%X%Y%h$Z%`% &+$T$.&U$+&@&#&$&%&&&C@<.*&",
"m$=&-&;&>&,&'&)&!&-%~&{&]&^&/&(&_&:&<&[&}&|&1&2&3&4&5&6&7&8&9&0&a&b&c&d&e&f&g&h&i&j&k&l&m&n&o&p&q&r&s&t&u&5#v&w&x&y&z&A&B&C@<..%",
"*%C&x%D&E&F&G&H&I&J&K&L&M&N&O&P&Q&R&S&_.T&U&V&W&X&Y&Z&`& *.*.*+* *@*#*$*%*&***=*-*;*>*,*'*)*!*~*{*]*^*/*(*_*:*<*[*}*|*1*2*3*4*.%",
"5*6*7*8*9*0*a*b*c*d*e*f*g*h*i*j*k*l*m*  n*o*p*q*r*s*t*u*v*w*x*y*z*A*B*C*D*E*F*G*H*I*J*K*L*M*N*O*P*Q*R*S*T*U*V*W*X*Y*Z*`* =J .=)%",
"+=@=a##=$=%=&=*===-=;=>=,='=)=!=~={=]=^=/=/.(=_=:=<=[=}=|=1=2=3=4=5=6=7=8=}=9='.0=a=b=c=d=e=f=g=h=K i=j=k=l=m=n=o=p=q=r=s=K r*t=",
"u=7*(=v=w=x=y=z=A=B=C=D=E=F=G=H=I=J=K=L=M=N=(.O=:=P=<=Q=t*R=S=T=U=V=W=8=R=X=Y=Z=`=Z= -.-+-@-#-$-%-<=&-*-=---;->-,-'-)-!-~-{-{-]-",
"^-/-(-_-:-<-[-}-|-1-2-3-X%4-5-6-7-8-9-0-a-b-c-d-e-f-g-h-i-j-k-l-m-m-n-o-p-Y=q-P*r-s-t-u-^=v-w-x-y-z-A-B-C-D-E-F-G-H-I-J-K-L-g ]-",
"+=(=M-N-O-P-[-q=Q-R-S-T-U-V-W-X-Y-Z-`- ;.;+;@;#;$;%;&;*;=;-;;;>;,;';);h-!;~;{;];^;/;(;_;:;<;[;};|;1;2;3;4;5;6;7;G-8;9;|-0;a;b;c;",
"d;e;6+f;O-g;h;q=i;j;2-k;l;P*m;n;o;p;q;r;s;>*t;u;v;w;x;>*y;z;A;B;C;D;E;A;D;F;G;H;I;J;K;L;M;N;O;P;Q;R;S;T;U;V;W;X;Y;Z;`; >.>x+a;+>",
"@>#>$>%>O-&>*>=>->;>>>,>> '>)>!>~>{>]>^>/>(>_>:><>[>}>|>1>2>3>4>5>:>|>6>7>8>9>0>a>b>c>d>e>f>g>h>i>j>k>l>m>n>o>p>Y;Z;`;q>r>s>t>u>",
"v>w>3=x>y>z>y=}-A>B>C>D>E>F>G>Z#H>%&I>J>K>L>M>N>O>P>Q>R>S>T>U>T>V>W>X>Y>Z>`> ,.,+,@,#,$,%,&,*,=,7.-,;,>,,,',),!,Y;~,9;{,],^,/,(,",
"_,k-:,<,O-[,},|,1,2,3,E>4,5,6,7,8,9,0,a,b,c,d,e,f,g,h,i,j,k,l,m,n,o,p,q,r,s,t,u,v,w,x,y,z,9,A,B,C,D,E,F,G,H,I,!,G-~,J,K,L,M,N,O,",
"P,Q,R,S,T,U,V,W,->X,Y,Z,s*o-l-`, '.'+'@'#'$'%'&'*'='-';'>',''')'!'~'{']'^'/'('_':'<'['}'|'1'2'3'4'5'6'7'8'9'0'a'b'8;9;c'd'e'f'g'",
"h'Q,i'j'k'U,V,l'm'n'o'p'q'u*u*r's't'u'v'w't'x'y'z'A'B'C'D'E'F'G'H'I'J'K'L'M'N'O'P'Q'R'S'T'U'V'W'X'Y'Z'`' ).)+)@)b'#)`;J-$)%)&)*)",
"=)-);)>),)')V,l'->;>))!)}=v*v*~){)])^)/)()_):)<)[)})|)1)2)3)4)5)6)7)8)9)0)a)b)c)d)}'e)f)g)h)i)j)k)l)m)n)o)p)q)r)o=8;`;s)t)u)v)w)",
"g$x)y)z)A)<-B)C)m'D)E)F)G)H)I)J)K)L)M)N)O)P)Q'Q)R)S)T)U)V)W)X)Y)Z)`) !.!+!@!#!$!%!&!*!=!-!;!>!v$,!'!)!!!~!{!]!^!/!~,I-(!_!:!<![!",
"}!|!1!2!3!4!},5!m'6!7!8!9!0!a!b!c!d!e!f!g!h!i!j!k!l!m!n!o!p!q!r!s!t!u!v!w!x!y!z!A!B!C!D!E!F!G!H!I!J!K!L!M!N!O!P!Q!R!S!T!U!V!W![!",
"X!Y!Z!`! ~g;V,.~+~6!@~#~$~%~&~*~=~-~;~>~,~'~)~!~~~{~]~^~/~(~_~:~<~[~}~|~1~2~,~3~X>4~5~6~7~8~9~0~a~b~c~d~e~f~g~h~Q!~,I-!-i~.*j~k~",
"*$l~m~n~k'g;o~5!p~q~r~s~t~u~v~w~x~y~z~A~B~C~D~E~F~G~H~I~J~K~L~M~N~O~P~Q~R~S~T~U~V~W~X~Y~Z~`~ {.{+{@{#{${%{&{+)*{={~,)-c'-{j~;{>{",
",{'{){!{~{{{]{^{/{({_{:{<{[{}{|{1{2{3{4{5{6{7{8{9{0{a{b{c{d{e{f{g{h{i{j{k{l{m{n{o{p{q{r{s{t{u{v{w{x{y{z{A{B{C{P!D{R!)-E{F{;{G{t;",
"H{I{J{K{L{M{},N{O{P{Y,Q{R{S{Q,T{U{V{W{X{Y{Z{`{ ]t{.]+]@]#]$]%]&]*]=]-];]>],]'])]!]~]{]]]^]/](]_]w{:]<][]}]|]1]2]={~,)-K,3]4]5]6]",
"7]8]9]0]y>a]V,5!b]c]d]e]f]g]h]i]j]k]l]m]n]o]p]q]r].]s]t]u]v]w]x]y]z]A]B]C]D]E]F]G]H]I]J]K]L]M]N]O]P]Q]R]S]T]U+U]V]W]I-X]Y];)Z]`]",
" ^.^+^@^O-')#^$^%^&^*^=^-^;^>^x),^'^)^!^~^{^]^^^/^(^_^:^<^[^}^|^1^2^3^4^5^6^7^8^9^0^a^b^c^d^e^j)f^g^h^i^j^k^l^m^V]n^I-o^p^Z]q^r^",
"s^t^u^v^w^g;o~$^x^y^z^A^B^C^D^E^F^G^H^I^J^K^L^M^N^O^P^Q^R^S^T^U^V^W^X^Y^Z^`^ /./+/@/#/$/%/&/*/=/-/;/>/,/'/)/!/~/{/W]]/E{^/+^//(/",
"_/:/</[/}/|/1/2/3/4/5/I@6/7/7/8/9/0/a/p!b/c/d/e/f/g/h/i/j/k/l/m/n/o/p/q/r/s/t/u/v/w/x/y/z~z/A/_]B/C/D/E/F/G/H/I/J/8;K/L/M///7=N/",
"O/P/Q/R/w^a]1/S/T/U/V/x)W/X/Y/Z/`/ (.(+(@(#($(%(&(*(=(-(;(>(,('()(!(~({(](^(/(((_(e/:(<([(}(|(_]1(2(3(4(5(6(7(8({/9()-0(a(</b(c(",
"d(%~e(f(g(h(1/2/i(j(k(l(m(n(Q =&o(p(q(r(s(t(u(v(w(x(y(z(A(B(C(D(E(F(G(H(I(J(K(L(M(N(O(P(Q()^R(S(O]T(U(V(W(X(=#Y(={9(`;K,Z(`( _._",
"+_@_@_#_$_%_V,&_Q-*_=_a#-_;_>_,_'_)_!_~_{_]_^_/_(___:_<_[_}_|_1_2_3_4_5_6_7_8_9_0_a_8^b_c_d_R(e_f_g_h_i_j_k_l_m_{/n_o_E{p_'%q_j.",
"r_s_t_u_,)%_V,}-v_*_w_;_x_a#y_z_u{A_B_C_D_E_F_G_H_I_J_K_L_M_N_O_P_Q_R_S_T_U_V_W_X_Y_Z_`_ :.:+:@:#:$:%:&:*:=:-:;:>:9(o_L/,:':):I#",
"!:s*~:{:]:|/V,^:i(y^/:(:_:::<:[:}:|:1:2:3:4:5:6:7:8:9:0:a:b:c:d:e:f:g:h:i:j:k:l:m:Y_n:o:p:q:r:s:t:u:v:w:x:y:z:A:B:C:D:v_E:t>F:G:",
"H:4,q'I:,)%_1/&_J:!%K:L:M:N:P*O:P:Q:R:S:T:U:V:W:X:Y:Z:`: <.<+<@<#<$<%<&<*<=<-<;<><N(,<'<N))<!<~<{<]<^</<(<_<:<<<[<}<|<1<2<3<4<5<",
"T#6<7<8<9<a]0<2/a<b<c<d<e<f<g<`#h<i<j<k<l<m<n<o<p<q<r<s<t<u<v<w<x<y<z<A<B<C<D<E<F<G<H<I<J<K<L<M<N<O<P<Q<R<S<T<U<[<}<V<W<X<Y<Z<`<",
" [h=r*.[+[')},&_|*b<@[#[$[%[&[*[=[-[;[>[,['[)[![~[{[{[][^[/[([_[:[<[[[}[|[1[2[3[4[5[6[7[8[9[0[a[b[c[d[e[f[g[h[i[j[W]k[K,l[m[n[o[",
"9#,#(=p[y>&>V,q[|*b<r[s[t[u[v[w[x[y[z[A[B[C[D[E[F[G[H[I[J[K[L[M[N[O[P[Q[R[S[T[U[V[W[X[Y[Z[`[ }.}+}@}#}$}%}&}*}=}-};}k[0(>},}S&'}",
")}!}~}{}~{]}^}q[/}(}_}:}<}[}}}|}1}2}3}4}5}6}7}8}9}0}a}b}c}d}e}f}g}h}i}j}k}l}m}n}o}p}q}r}s}t}u}z#v}w}x}y}z}A}B}C}D}}<)-1<E}j&F}G}",
"H}I}J}K}L}|/M}q[N}(}O}P}Q}R}S}T}U}V}W}r(X}Y}Z}`} |.|+|@|#|$|%|&|*|=|-|;|>|,|'|)|!|~|{|]|^|/|(|z#_|:|<|[|}|||1|2|D}3|4|1<5|w%D@Y.",
"6|7|8|9|k'&>0|a|b|c|d|e|f|g|h|i|j|k|l|m|n|o|p|q|r|s|t|u|v|w|x|y|z|A|B|C|y/D|E|F|G|H|I|J|K|L|M|~&N|O|P|Q|R|S|T|U|[<V|V<0(W|_.X|.+",
"Y|Z|`| 1.1+1@1#1$1%1&1*1H{S*=1-1;1>1,1'1)1!1;~~1{1]1^1/1(1_1:1<1[1}1|11121316^41516171819101a1b1c1d1e1f1g1^*h1i1j1k1l1m1n1o1p1q1",
"r1s1':t1u1v1w1x1y1z1A1B1A1C1D1E1F1G1H1I1J1K1L1M1N1O1P1Q1R1S1T1U1V1W1X1Y1Z1`1 2.2+2@2#2$2%2&2*2U$o1T(=2-2;2>2a$,2'2)2!2~2{2]2^2/2",
"p$h1(2_2:2$_<2[2}2|2122232(,42526272829202a2b2c2d2e2f2g2h2i2j2k2l2m2n2o2p2q2r2s2t2u2v2w2x2%2y2U$c$z2y;V#/&A2B2C2D2E2F2G2H2I2e|J2",
"K2L2M2N2O2P2Q2R2S2T2U2V2W2X2Y2Z2j)`2 3.3+3@3#3$3%3r(&3*3=3-3;3>3,3'3)3!3~3{3]3^3/3R'(3_3:3<3[3Z#}3|313132333435363738393039-a3y ",
"b3c3d3e3f3~#g3a.S2h3i3j3k3l3m35%n3o3p3q3r3s3t3u3v3w3x3y3z3A3B3C3D3C3E3F3G3H3I3x,J3K3L3M3N3O3[3P3Q3R3O.S3T3U3V3W3X343Y3Z3`3 4.4+4",
"@4#40$$4%4Z$j.&4*4=4-4;47]>4,4'4n3S')4u'!4~4{4]4^4/4(4_4:4<4[4}4|414243444546474849404a4b4c4v$d4e4f4g42#h4i4j4k4.$l4g%^#m4d3n4$+",
"o4p4q4r4s4b+t4u4p%v4w4x4g<y4z4A4l4B4C4D4E4F4G4H4s2I4J4K4L4M4N4O4P4Q4R4S4T4U4V4W4X4Y4Z4`4 5.5+5M#G}V.@5#5$5%5 [&5*5r1=5^#-5p;;5o4",
">5,5'5)50+13!5*$l@~5)}{5]5^5/5(5_5:5<5[5@2u2}5L||515253545555565656575859505a5b5c5X4X4d561e5f5V$R3g5h5H#i5j5N#k5i5S3,@t+[&d+. l5",
"V.6|a3m5n5t+o5K2p5q5r5s5Z#t5u5v5w5#&x5y5z5A5z5B5C5a1D5E5F5G5G5H5I5I5J5K5L5M5N5*2O5*2P5Q5R5p;$%0#S5T5U5U$2#V5W5+&T$2#&+X5Y5Z5I}V.",
"y `5 6Q#.6+6a+@6#6g%$6%6l$&6*6*4l$X+=6-6;6W3W3W3>6,6>6'6)6!6!6~6)6)6)6{6>6]6^6*,-%/6A#b1(6&+w@*6_6*4]#*4:6<6[6T$y@}6|61626 6I}S3",
">53646 6566676q+869606a6b6c6d6e6f6g6h6i6h6j6k6l6m6n6m6o6p6q6r6p6s6t6t6t6t6u6u6o6l6v6w6x6v6y6z6A6B6C6D6E6F6G6H6I6J6K6L6M6.4N6O6,5",
"P6Q6R6S6T6U6V6W6X6Y6Z6`6 7.7+7@7#7$7%7&7|.*7=7-7;7>7,7'7)7!7~7{7]7^7/7(7_7:7<7-7[7}7|71727%737`|47576777879707a7b7c7d7e7f7g7h7i7",
".+j7k7l7/2m7n7o7p7q7r7s.s7t7u7v7w7r&x7y7z7A7B7C7D7E7F7G7H7I7J7K7L7M7N7O7P7Q7R7S7T7U7V7W7X7Y7Z7`7 8;^.8v%+8@8#8v%$8%8&8*8=8-8;8g+",
">8,8'8)8g'!8U%~8{8]8(:^8/8(8_8Y!:8<8[8}8|818283848586878889808a8b8c8d8e8f8g8h8i8j8k8l8m8n8o8p8q8^8r8#5_:s8t8u8v8w8x8D1y8z8A8B8y ",
"C8D8E8F8G8H8I8J8K8L8L8M8N8O8P8Q8#5R8S8(#T8h|U8V8W8X8Y8Z8`87= 9.9+988@9#9v.$9%9&9*9=9-9;9>9P8,9h1#5:.N6'9)9M8!9~9{9]9^9/9(9_9:9N#",
"<9[9}9|919293949596979899909{5a9b9p4c9d9e9f9j+g9h9i9m;j9k9m;l9m9n9o9p9D;m9[!R.q9r9s9t9u95.I#g4g4v9o4j3w9x9x9y9z9z4A9B9C9D9E9F9G9"};
