/* XPM */
static char * face_xpm[] = {
"64 64 2866 2",
"  	c #60676D",
". 	c #595E64",
"+ 	c #5A5E63",
"@ 	c #5B5F63",
"# 	c #595E61",
"$ 	c #53585D",
"% 	c #585E61",
"& 	c #575C60",
"* 	c #5A6064",
"= 	c #52585E",
"- 	c #4A5055",
"; 	c #212221",
"> 	c #373839",
", 	c #474C4F",
"' 	c #505658",
") 	c #4D5456",
"! 	c #4A5053",
"~ 	c #494E50",
"{ 	c #434647",
"] 	c #232121",
"^ 	c #2E3132",
"/ 	c #51585D",
"( 	c #54595C",
"_ 	c #4E5052",
": 	c #4A4C4C",
"< 	c #47484B",
"[ 	c #4B4C4E",
"} 	c #525355",
"| 	c #4E5154",
"1 	c #505457",
"2 	c #2E3030",
"3 	c #1A1C1B",
"4 	c #5D666B",
"5 	c #5A6167",
"6 	c #545858",
"7 	c #555452",
"8 	c #4E4B4A",
"9 	c #4A4547",
"0 	c #544F4C",
"a 	c #5B514A",
"b 	c #655953",
"c 	c #5A4E4D",
"d 	c #514947",
"e 	c #2B2722",
"f 	c #5B453A",
"g 	c #70584E",
"h 	c #6E5F5A",
"i 	c #6F6661",
"j 	c #696562",
"k 	c #666362",
"l 	c #5A5556",
"m 	c #3F3A3A",
"n 	c #1B1B17",
"o 	c #545D60",
"p 	c #5F666B",
"q 	c #5E6366",
"r 	c #585D5E",
"s 	c #4B4E52",
"t 	c #4E5051",
"u 	c #4A4C4D",
"v 	c #424446",
"w 	c #3F4044",
"x 	c #43474B",
"y 	c #494A50",
"z 	c #5B6066",
"A 	c #4C4F52",
"B 	c #4B4D4E",
"C 	c #505252",
"D 	c #515354",
"E 	c #4A4D4F",
"F 	c #47484A",
"G 	c #4B4C4D",
"H 	c #4A4A4C",
"I 	c #494C50",
"J 	c #3B3F44",
"K 	c #1B1D1C",
"L 	c #2F3231",
"M 	c #3C3E41",
"N 	c #3F3F3F",
"O 	c #363435",
"P 	c #313030",
"Q 	c #363534",
"R 	c #303131",
"S 	c #1E1C1B",
"T 	c #303334",
"U 	c #4F5960",
"V 	c #464B4D",
"W 	c #3B3A3B",
"X 	c #3A3B3B",
"Y 	c #3A3A3B",
"Z 	c #3C3D3C",
"` 	c #3A3C3C",
" .	c #3C3E3E",
"..	c #404345",
"+.	c #3EC5C3",
"@.	c #3DC7C2",
"#.	c #3DC8C1",
"$.	c #3BC8C1",
"%.	c #39CAC1",
"&.	c #4E4641",
"*.	c #51463E",
"=.	c #4A3C37",
"-.	c #503F39",
";.	c #574339",
">.	c #5B463D",
",.	c #5B4C47",
"'.	c #4F4743",
").	c #272522",
"!.	c #4B3328",
"~.	c #5D3E31",
"{.	c #5D4338",
"].	c #58443A",
"^.	c #4D3C37",
"/.	c #594D48",
"(.	c #544A47",
"_.	c #363130",
":.	c #4A5054",
"<.	c #53565B",
"[.	c #55575A",
"}.	c #555758",
"|.	c #454748",
"1.	c #454444",
"2.	c #3E3C3E",
"3.	c #363538",
"4.	c #424445",
"5.	c #45484C",
"6.	c #575E62",
"7.	c #484B4C",
"8.	c #3E3E3F",
"9.	c #414143",
"0.	c #464849",
"a.	c #434345",
"b.	c #434444",
"c.	c #464745",
"d.	c #3E3F40",
"e.	c #424647",
"f.	c #353A3C",
"g.	c #131414",
"h.	c #282B2E",
"i.	c #404144",
"j.	c #424342",
"k.	c #333231",
"l.	c #2C2B2A",
"m.	c #302F2E",
"n.	c #262729",
"o.	c #1A1919",
"p.	c #303637",
"q.	c #505C63",
"r.	c #464B4F",
"s.	c #3B3B3C",
"t.	c #393A3B",
"u.	c #3A3C3D",
"v.	c #5DA09B",
"w.	c #2E9C95",
"x.	c #2B9892",
"y.	c #2A9992",
"z.	c #2A9993",
"A.	c #2B9891",
"B.	c #2C9791",
"C.	c #309690",
"D.	c #47A099",
"E.	c #5D9691",
"F.	c #534138",
"G.	c #544036",
"H.	c #4A3530",
"I.	c #534440",
"J.	c #494440",
"K.	c #1A1C1C",
"L.	c #37231B",
"M.	c #543729",
"N.	c #553A2D",
"O.	c #472F27",
"P.	c #473129",
"Q.	c #4C3932",
"R.	c #51433E",
"S.	c #3B3432",
"T.	c #181718",
"U.	c #44474F",
"V.	c #505258",
"W.	c #4F5154",
"X.	c #505253",
"Y.	c #505050",
"Z.	c #494848",
"`.	c #39373A",
" +	c #323034",
".+	c #333436",
"++	c #3B3D3E",
"@+	c #414245",
"#+	c #53595F",
"$+	c #434446",
"%+	c #3D3D3D",
"&+	c #3E3E41",
"*+	c #424447",
"=+	c #3E3E42",
"-+	c #424041",
";+	c #424141",
">+	c #414442",
",+	c #35393B",
"'+	c #161616",
")+	c #2D2F30",
"!+	c #474A4C",
"~+	c #393A3E",
"{+	c #37393B",
"]+	c #3E3F3C",
"^+	c #1C1B1C",
"/+	c #2A3033",
"(+	c #4C5960",
"_+	c #464C4F",
":+	c #3B3C3C",
"<+	c #383A3A",
"[+	c #57615E",
"}+	c #455C5A",
"|+	c #496A66",
"1+	c #427672",
"2+	c #319791",
"3+	c #27A8A1",
"4+	c #26A69F",
"5+	c #26A5A0",
"6+	c #29A5A0",
"7+	c #378985",
"8+	c #476D6B",
"9+	c #496464",
"0+	c #4E5758",
"a+	c #524239",
"b+	c #4B3D36",
"c+	c #504441",
"d+	c #4A4644",
"e+	c #1C1E1B",
"f+	c #2B1A13",
"g+	c #41281D",
"h+	c #462D23",
"i+	c #3B251E",
"j+	c #433027",
"k+	c #4C3931",
"l+	c #4C3C36",
"m+	c #322927",
"n+	c #181818",
"o+	c #4A4F54",
"p+	c #5D5F63",
"q+	c #555759",
"r+	c #454142",
"s+	c #363136",
"t+	c #313033",
"u+	c #2F3033",
"v+	c #343539",
"w+	c #3A3B3E",
"x+	c #4E545A",
"y+	c #3D3E3F",
"z+	c #3B3C39",
"A+	c #404241",
"B+	c #444649",
"C+	c #454546",
"D+	c #42413F",
"E+	c #3D3937",
"F+	c #363233",
"G+	c #383838",
"H+	c #303437",
"I+	c #1A191A",
"J+	c #333435",
"K+	c #4A4F50",
"L+	c #4B5152",
"M+	c #43494C",
"N+	c #3F4648",
"O+	c #424745",
"P+	c #353837",
"Q+	c #1D1D1F",
"R+	c #2A3234",
"S+	c #4B5960",
"T+	c #444C4F",
"U+	c #393B3D",
"V+	c #373B3C",
"W+	c #4A4E4B",
"X+	c #454A45",
"Y+	c #464F4A",
"Z+	c #3F5E5C",
"`+	c #33807B",
" @	c #289594",
".@	c #259D9C",
"+@	c #239B9A",
"@@	c #239A99",
"#@	c #219B99",
"$@	c #299592",
"%@	c #397E7B",
"&@	c #425F5E",
"*@	c #454A4A",
"=@	c #404040",
"-@	c #534E4D",
";@	c #4E4B4D",
">@	c #222223",
",@	c #30221B",
"'@	c #3C281E",
")@	c #3F2C23",
"!@	c #362421",
"~@	c #342420",
"{@	c #42322B",
"]@	c #41322D",
"^@	c #2D2624",
"/@	c #191A1A",
"(@	c #585C5E",
"_@	c #4E4F52",
":@	c #454548",
"<@	c #474647",
"[@	c #413D3F",
"}@	c #3C393A",
"|@	c #3B3A3A",
"1@	c #353738",
"2@	c #343639",
"3@	c #36363A",
"4@	c #4A4F58",
"5@	c #3B3C3E",
"6@	c #3F3F3B",
"7@	c #3F3E3C",
"8@	c #414140",
"9@	c #484743",
"0@	c #43403C",
"a@	c #3D3935",
"b@	c #373030",
"c@	c #373435",
"d@	c #313436",
"e@	c #181717",
"f@	c #343635",
"g@	c #474C4E",
"h@	c #454E50",
"i@	c #434B4F",
"j@	c #3F4649",
"k@	c #3F4342",
"l@	c #3F4241",
"m@	c #252424",
"n@	c #2C3335",
"o@	c #4D5B62",
"p@	c #424B4F",
"q@	c #383C3D",
"r@	c #3C3C3A",
"s@	c #3E413E",
"t@	c #3A5B56",
"u@	c #296D66",
"v@	c #19746E",
"w@	c #165A58",
"x@	c #212323",
"y@	c #202224",
"z@	c #212224",
"A@	c #211F20",
"B@	c #1A2629",
"C@	c #196564",
"D@	c #226C6C",
"E@	c #326767",
"F@	c #3D4A4C",
"G@	c #3A383A",
"H@	c #444242",
"I@	c #494749",
"J@	c #1C1C1B",
"K@	c #31241B",
"L@	c #3D2A20",
"M@	c #38261E",
"N@	c #35241E",
"O@	c #362823",
"P@	c #3E302A",
"Q@	c #463833",
"R@	c #322C29",
"S@	c #151716",
"T@	c #41484A",
"U@	c #515355",
"V@	c #4C4B4F",
"W@	c #434344",
"X@	c #403D3E",
"Y@	c #3D393B",
"Z@	c #3C3C39",
"`@	c #363637",
" #	c #323337",
".#	c #313236",
"+#	c #4B5158",
"@#	c #3A3C3E",
"##	c #3B3C38",
"$#	c #3E3B38",
"%#	c #413E3D",
"&#	c #48433F",
"*#	c #3C3434",
"=#	c #403A37",
"-#	c #3A3B3D",
";#	c #1A1A16",
">#	c #2F3131",
",#	c #43474A",
"'#	c #3E4648",
")#	c #495354",
"!#	c #464E4F",
"~#	c #35383B",
"{#	c #252223",
"]#	c #323A3A",
"^#	c #4F5D62",
"/#	c #414C4F",
"(#	c #373D3E",
"_#	c #3B4746",
":#	c #276F68",
"<#	c #197069",
"[#	c #163837",
"}#	c #1C2322",
"|#	c #262C2B",
"1#	c #1F4C47",
"2#	c #1B6F68",
"3#	c #19786F",
"4#	c #18776F",
"5#	c #205D59",
"6#	c #263B3C",
"7#	c #202324",
"8#	c #172024",
"9#	c #154B4E",
"0#	c #1D6F70",
"a#	c #2B5D5E",
"b#	c #37383A",
"c#	c #434143",
"d#	c #1D1A18",
"e#	c #241914",
"f#	c #2F201A",
"g#	c #271B17",
"h#	c #2E211E",
"i#	c #3B2F29",
"j#	c #352A24",
"k#	c #42362F",
"l#	c #342E2A",
"m#	c #181918",
"n#	c #3C4043",
"o#	c #464749",
"p#	c #414144",
"q#	c #434343",
"r#	c #404240",
"s#	c #393638",
"t#	c #353233",
"u#	c #343332",
"v#	c #343333",
"w#	c #353536",
"x#	c #353435",
"y#	c #4B535A",
"z#	c #393B3F",
"A#	c #393736",
"B#	c #433C3A",
"C#	c #453E3B",
"D#	c #403A39",
"E#	c #424240",
"F#	c #424645",
"G#	c #3D4144",
"H#	c #191916",
"I#	c #2D2D2E",
"J#	c #3E4044",
"K#	c #43484D",
"L#	c #464F50",
"M#	c #434849",
"N#	c #323538",
"O#	c #323335",
"P#	c #252323",
"Q#	c #303738",
"R#	c #4B5A5E",
"S#	c #404A4C",
"T#	c #394648",
"U#	c #2A6767",
"V#	c #0A8C89",
"W#	c #172829",
"X#	c #1B1F23",
"Y#	c #19938A",
"Z#	c #1A8982",
"`#	c #13A7A2",
" $	c #0DECDC",
".$	c #09F6E4",
"+$	c #08F6E5",
"@$	c #0DE2D2",
"#$	c #217774",
"$$	c #1A9D9A",
"%$	c #1A7576",
"&$	c #1E1F22",
"*$	c #145C5E",
"=$	c #187D7D",
"-$	c #2E474B",
";$	c #303439",
">$	c #1E1A18",
",$	c #1C1514",
"'$	c #211918",
")$	c #1E1717",
"!$	c #231B1A",
"~$	c #2D2420",
"{$	c #2E2621",
"]$	c #372E27",
"^$	c #292320",
"/$	c #393C3E",
"($	c #3B3D3F",
"_$	c #393A3C",
":$	c #3D3E3E",
"<$	c #383839",
"[$	c #302E30",
"}$	c #2F2D2F",
"|$	c #323030",
"1$	c #2F2E2F",
"2$	c #302F30",
"3$	c #2C2B2D",
"4$	c #54595F",
"5$	c #3A3B3F",
"6$	c #373131",
"7$	c #403938",
"8$	c #46413E",
"9$	c #3C4143",
"0$	c #3D4548",
"a$	c #495154",
"b$	c #1D1C19",
"c$	c #2F2E2E",
"d$	c #3B3B3F",
"e$	c #45494B",
"f$	c #373B3B",
"g$	c #343837",
"h$	c #21211F",
"i$	c #2D3132",
"j$	c #3B4449",
"k$	c #666565",
"l$	c #385A59",
"m$	c #0B958E",
"n$	c #135252",
"o$	c #1C2224",
"p$	c #23282B",
"q$	c #1E9A92",
"r$	c #199C95",
"s$	c #187A79",
"t$	c #15A098",
"u$	c #0DC2B7",
"v$	c #11C1B5",
"w$	c #1D8D87",
"x$	c #1A9590",
"y$	c #24AAA5",
"z$	c #237E7B",
"A$	c #262629",
"B$	c #183B3F",
"C$	c #16686A",
"D$	c #237777",
"E$	c #35383D",
"F$	c #221C19",
"G$	c #1A1413",
"H$	c #141010",
"I$	c #151113",
"J$	c #211C1D",
"K$	c #261F1D",
"L$	c #221B19",
"M$	c #211A19",
"N$	c #1B1617",
"O$	c #121112",
"P$	c #2C2D2F",
"Q$	c #2E2E30",
"R$	c #29282A",
"S$	c #2C2C2E",
"T$	c #2E2D2E",
"U$	c #2A292B",
"V$	c #2C2B2B",
"W$	c #262427",
"X$	c #222023",
"Y$	c #201E20",
"Z$	c #4F5359",
"`$	c #424143",
" %	c #3A3837",
".%	c #3E3A35",
"+%	c #433D39",
"@%	c #403E3E",
"#%	c #434648",
"$%	c #414648",
"%%	c #404649",
"&%	c #444A4E",
"*%	c #414447",
"=%	c #1F1D1A",
"-%	c #2B2A2A",
";%	c #404142",
">%	c #414445",
",%	c #444A4A",
"'%	c #3E4546",
")%	c #3A4043",
"!%	c #2B2E31",
"~%	c #1F1F1E",
"{%	c #1F2022",
"]%	c #33383C",
"^%	c #315050",
"/%	c #23726E",
"(%	c #1B5F5B",
"_%	c #14191C",
":%	c #1B1C1E",
"<%	c #272D32",
"[%	c #2F3636",
"}%	c #2A3433",
"|%	c #1C4443",
"1%	c #117F7C",
"2%	c #167373",
"3%	c #2B3030",
"4%	c #2F3B3A",
"5%	c #2C3B3A",
"6%	c #232C2D",
"7%	c #232123",
"8%	c #1C1C1D",
"9%	c #123D40",
"0%	c #196163",
"a%	c #256F6E",
"b%	c #4B4F53",
"c%	c #141110",
"d%	c #120E10",
"e%	c #161215",
"f%	c #1B1717",
"g%	c #171412",
"h%	c #171415",
"i%	c #181414",
"j%	c #171314",
"k%	c #131213",
"l%	c #191717",
"m%	c #1A1918",
"n%	c #1D1D1D",
"o%	c #1E1E1C",
"p%	c #181817",
"q%	c #161618",
"r%	c #191819",
"s%	c #161515",
"t%	c #110F10",
"u%	c #110F11",
"v%	c #484747",
"w%	c #3D3B38",
"x%	c #3C3835",
"y%	c #3F3B39",
"z%	c #3D3E40",
"A%	c #434848",
"B%	c #434949",
"C%	c #414649",
"D%	c #404549",
"E%	c #3A3D41",
"F%	c #1C1B18",
"G%	c #2A2B2B",
"H%	c #3F4142",
"I%	c #454A49",
"J%	c #444B49",
"K%	c #394041",
"L%	c #383D40",
"M%	c #323436",
"N%	c #212120",
"O%	c #296061",
"P%	c #1A706B",
"Q%	c #1B4243",
"R%	c #111416",
"S%	c #101215",
"T%	c #181719",
"U%	c #2E2828",
"V%	c #2C2726",
"W%	c #2D2A2A",
"X%	c #222525",
"Y%	c #59524F",
"Z%	c #403C3A",
"`%	c #302E2F",
" &	c #2A2A2A",
".&	c #242223",
"+&	c #322C2C",
"@&	c #252122",
"#&	c #111415",
"$&	c #0F1314",
"%&	c #152C2F",
"&&	c #1B575A",
"*&	c #1E7A7B",
"=&	c #3A5558",
"-&	c #161213",
";&	c #171213",
">&	c #1C1714",
",&	c #1A1716",
"'&	c #141213",
")&	c #141013",
"!&	c #191517",
"~&	c #1E1B1B",
"{&	c #1E1D1D",
"]&	c #18181A",
"^&	c #141414",
"/&	c #10100F",
"(&	c #111010",
"_&	c #0E0E0F",
":&	c #121211",
"<&	c #171616",
"[&	c #1A1B1B",
"}&	c #151415",
"|&	c #46484D",
"1&	c #3D3D3E",
"2&	c #3A3634",
"3&	c #373432",
"4&	c #3C3B3A",
"5&	c #3E4242",
"6&	c #424545",
"7&	c #414546",
"8&	c #414345",
"9&	c #1E1E19",
"0&	c #2C2B2C",
"a&	c #3B3C40",
"b&	c #3B3C3F",
"c&	c #3B3F41",
"d&	c #32383A",
"e&	c #383E3F",
"f&	c #36393B",
"g&	c #1B191D",
"h&	c #357979",
"i&	c #2D7774",
"j&	c #1B3434",
"k&	c #121416",
"l&	c #0F1012",
"m&	c #0F1113",
"n&	c #101114",
"o&	c #121316",
"p&	c #1A191B",
"q&	c #2A2525",
"r&	c #272323",
"s&	c #282727",
"t&	c #423E3D",
"u&	c #282525",
"v&	c #252221",
"w&	c #1F1C1C",
"x&	c #151416",
"y&	c #0E1214",
"z&	c #0F1215",
"A&	c #0F1214",
"B&	c #101416",
"C&	c #182023",
"D&	c #254F52",
"E&	c #228185",
"F&	c #3B5155",
"G&	c #1D1615",
"H&	c #1C1413",
"I&	c #1A1516",
"J&	c #171313",
"K&	c #1D1919",
"L&	c #1B1719",
"M&	c #2E2A2A",
"N&	c #2E2B2B",
"O&	c #272324",
"P&	c #221E1D",
"Q&	c #1C1A1A",
"R&	c #1E1E1F",
"S&	c #232629",
"T&	c #293032",
"U&	c #272C2F",
"V&	c #222225",
"W&	c #45454A",
"X&	c #39383C",
"Y&	c #393837",
"Z&	c #3C3C3B",
"`&	c #3B3D3D",
" *	c #3E4243",
".*	c #424646",
"+*	c #404445",
"@*	c #464A4B",
"#*	c #1C1C17",
"$*	c #2C2C2C",
"%*	c #3F4043",
"&*	c #3E3F43",
"**	c #323236",
"=*	c #2F3334",
"-*	c #373C3A",
";*	c #363A3A",
">*	c #202020",
",*	c #92563C",
"'*	c #77432E",
")*	c #272426",
"!*	c #1B1C20",
"~*	c #141618",
"{*	c #111214",
"]*	c #17171A",
"^*	c #111315",
"/*	c #181A1C",
"(*	c #18191A",
"_*	c #17191B",
":*	c #1A1D1E",
"<*	c #1A1D1D",
"[*	c #151718",
"}*	c #171819",
"|*	c #161818",
"1*	c #0E1012",
"2*	c #141619",
"3*	c #131518",
"4*	c #17191C",
"5*	c #6B3C25",
"6*	c #904D2A",
"7*	c #8C5D49",
"8*	c #1B1311",
"9*	c #1E1614",
"0*	c #261D1C",
"a*	c #1D1614",
"b*	c #201815",
"c*	c #241E1C",
"d*	c #1C1A18",
"e*	c #2A2221",
"f*	c #251C1C",
"g*	c #211818",
"h*	c #2B231F",
"i*	c #221C1B",
"j*	c #241F1F",
"k*	c #2C2D2E",
"l*	c #343A3A",
"m*	c #2D3234",
"n*	c #26282C",
"o*	c #1F1F22",
"p*	c #47494D",
"q*	c #3E4042",
"r*	c #3E4141",
"s*	c #3E4142",
"t*	c #3C4142",
"u*	c #3F4446",
"v*	c #43494B",
"w*	c #454A4D",
"x*	c #484C50",
"y*	c #45474A",
"z*	c #1D1B17",
"A*	c #2D2D2B",
"B*	c #3D3F42",
"C*	c #3D4043",
"D*	c #2E2F32",
"E*	c #282929",
"F*	c #62B5B5",
"G*	c #5DA9A5",
"H*	c #71989B",
"I*	c #4E676C",
"J*	c #815341",
"K*	c #6C3C2A",
"L*	c #362623",
"M*	c #1A1C1D",
"N*	c #191B1D",
"O*	c #151719",
"P*	c #161A1A",
"Q*	c #181B1C",
"R*	c #181C1D",
"S*	c #141718",
"T*	c #131517",
"U*	c #16181A",
"V*	c #121417",
"W*	c #1B1D20",
"X*	c #1E1E22",
"Y*	c #714027",
"Z*	c #8F4F29",
"`*	c #50433B",
" =	c #5F7875",
".=	c #459494",
"+=	c #5AAEAD",
"@=	c #2B221F",
"#=	c #1F1716",
"$=	c #241B1A",
"%=	c #27201E",
"&=	c #1B1819",
"*=	c #251C1F",
"==	c #201716",
"-=	c #1D1413",
";=	c #231A1A",
">=	c #201A18",
",=	c #191312",
"'=	c #24201E",
")=	c #2B2B2A",
"!=	c #282728",
"~=	c #2A2928",
"{=	c #211F1F",
"]=	c #3F4246",
"^=	c #414346",
"/=	c #3C3D3F",
"(=	c #3C3E40",
"_=	c #393D40",
":=	c #3D4245",
"<=	c #454B4E",
"[=	c #45494D",
"}=	c #414244",
"|=	c #262726",
"1=	c #37393C",
"2=	c #31A5AB",
"3=	c #3D9FA1",
"4=	c #318788",
"5=	c #3B6061",
"6=	c #386564",
"7=	c #425756",
"8=	c #414C4E",
"9=	c #38383B",
"0=	c #41312E",
"a=	c #83492B",
"b=	c #6C3C27",
"c=	c #362A28",
"d=	c #17181B",
"e=	c #1E1F21",
"f=	c #141617",
"g=	c #191A1B",
"h=	c #1B1E1E",
"i=	c #1D1F20",
"j=	c #1D2021",
"k=	c #191C1E",
"l=	c #1D1F22",
"m=	c #1C1E22",
"n=	c #201C1D",
"o=	c #703C28",
"p=	c #8B4928",
"q=	c #593528",
"r=	c #332E2D",
"s=	c #345253",
"t=	c #375A5D",
"u=	c #386A67",
"v=	c #2F8D8C",
"w=	c #3BA0A0",
"x=	c #62BFBF",
"y=	c #1F1918",
"z=	c #161514",
"A=	c #1D1817",
"B=	c #261E1A",
"C=	c #2C2420",
"D=	c #251A19",
"E=	c #241916",
"F=	c #1F1613",
"G=	c #221916",
"H=	c #201B1A",
"I=	c #211E1E",
"J=	c #282623",
"K=	c #211E1D",
"L=	c #45484D",
"M=	c #424547",
"N=	c #434644",
"O=	c #3D3F40",
"P=	c #3C4041",
"Q=	c #3B3F42",
"R=	c #414448",
"S=	c #3C3F42",
"T=	c #181714",
"U=	c #42B0B1",
"V=	c #427B7B",
"W=	c #396E6E",
"X=	c #366C6C",
"Y=	c #3F5050",
"Z=	c #2B6767",
"`=	c #255A56",
" -	c #293737",
".-	c #394042",
"+-	c #353333",
"@-	c #362722",
"#-	c #6D3E2C",
"$-	c #4A322C",
"%-	c #202427",
"&-	c #2D3031",
"*-	c #2F3232",
"=-	c #282C2D",
"--	c #2A2D2F",
";-	c #2C2F30",
">-	c #292C2E",
",-	c #242628",
"'-	c #303133",
")-	c #303233",
"!-	c #272A2C",
"~-	c #282121",
"{-	c #784028",
"]-	c #3A2D29",
"^-	c #312D2D",
"/-	c #383A39",
"(-	c #383E3D",
"_-	c #2A3A3C",
":-	c #2B6260",
"<-	c #2F7270",
"[-	c #3E5A58",
"}-	c #3B716D",
"|-	c #3C6B6B",
"1-	c #307F7D",
"2-	c #51AAAE",
"3-	c #1D1B19",
"4-	c #2D2520",
"5-	c #372E2A",
"6-	c #271C1B",
"7-	c #251817",
"8-	c #281D1B",
"9-	c #201918",
"0-	c #201919",
"a-	c #28211F",
"b-	c #201B19",
"c-	c #45464A",
"d-	c #3E3D3F",
"e-	c #3E3E3D",
"f-	c #403D3C",
"g-	c #3D3A39",
"h-	c #3F3E3B",
"i-	c #3E3D3C",
"j-	c #3A3A3A",
"k-	c #3A9F9F",
"l-	c #23A9A9",
"m-	c #426262",
"n-	c #386569",
"o-	c #3D4648",
"p-	c #455353",
"q-	c #4E3D37",
"r-	c #2E7069",
"s-	c #1C4440",
"t-	c #353939",
"u-	c #49413E",
"v-	c #A0542B",
"w-	c #B86334",
"x-	c #834B32",
"y-	c #414240",
"z-	c #485254",
"A-	c #202124",
"B-	c #282B2C",
"C-	c #2B2E30",
"D-	c #2B2D2F",
"E-	c #2E2F31",
"F-	c #2D2E30",
"G-	c #252528",
"H-	c #1E1F23",
"I-	c #424243",
"J-	c #3E4041",
"K-	c #463C39",
"L-	c #B66032",
"M-	c #AE6037",
"N-	c #764630",
"O-	c #444642",
"P-	c #3D4240",
"Q-	c #1E373B",
"R-	c #3E6F71",
"S-	c #4A3C35",
"T-	c #434E4E",
"U-	c #3E4241",
"V-	c #404141",
"W-	c #376564",
"X-	c #367675",
"Y-	c #2CACAE",
"Z-	c #43AAAF",
"`-	c #372F2B",
" ;	c #191112",
".;	c #1D1616",
"+;	c #201817",
"@;	c #211816",
"#;	c #2E2521",
"$;	c #251F1D",
"%;	c #424145",
"&;	c #3E3B3C",
"*;	c #403C3B",
"=;	c #3E3938",
"-;	c #3D3736",
";;	c #403B39",
">;	c #3C3938",
",;	c #363433",
"';	c #393A39",
");	c #3A6769",
"!;	c #316465",
"~;	c #3F3F40",
"{;	c #4F3932",
"];	c #3B5C57",
"^;	c #1B3635",
"/;	c #333535",
"(;	c #4B4641",
"_;	c #744636",
":;	c #8D4C2E",
"<;	c #BE6337",
"[;	c #854A32",
"};	c #435357",
"|;	c #394847",
"1;	c #5E665F",
"2;	c #467877",
"3;	c #3B9A9E",
"4;	c #738486",
"5;	c #6B8685",
"6;	c #20999B",
"7;	c #437173",
"8;	c #3F5457",
"9;	c #494F52",
"0;	c #463B37",
"a;	c #C4632F",
"b;	c #AB582B",
"c;	c #8B482A",
"d;	c #5E4942",
"e;	c #3D4643",
"f;	c #202D32",
"g;	c #3C5C62",
"h;	c #49342C",
"i;	c #4A3A34",
"j;	c #393C3F",
"k;	c #404042",
"l;	c #3B6460",
"m;	c #2F6C6B",
"n;	c #427B7D",
"o;	c #302825",
"p;	c #1F1816",
"q;	c #1D1717",
"r;	c #191414",
"s;	c #1B1514",
"t;	c #1E1817",
"u;	c #48494D",
"v;	c #424347",
"w;	c #424244",
"x;	c #3B3B3B",
"y;	c #3C3C3C",
"z;	c #414041",
"A;	c #3B3B3D",
"B;	c #363839",
"C;	c #3A4041",
"D;	c #434A4E",
"E;	c #454849",
"F;	c #363639",
"G;	c #363638",
"H;	c #353537",
"I;	c #343436",
"J;	c #323334",
"K;	c #343637",
"L;	c #1C2122",
"M;	c #161B1F",
"N;	c #244846",
"O;	c #325F5C",
"P;	c #655042",
"Q;	c #915236",
"R;	c #BC6135",
"S;	c #7E432B",
"T;	c #262D31",
"U;	c #46635F",
"V;	c #4C6A66",
"W;	c #397271",
"X;	c #59A69D",
"Y;	c #B55F41",
"Z;	c #AA614D",
"`;	c #1DA5A7",
" >	c #415056",
".>	c #425459",
"+>	c #3A4A50",
"@>	c #252426",
"#>	c #352B29",
"$>	c #C1612D",
"%>	c #B65F31",
"&>	c #845038",
"*>	c #4E5F59",
"=>	c #326561",
"->	c #191F23",
";>	c #2D2F31",
">>	c #343536",
",>	c #363738",
"'>	c #373739",
")>	c #3F444A",
"!>	c #626B73",
"~>	c #2F2623",
"{>	c #2A211E",
"]>	c #211C18",
"^>	c #161210",
"/>	c #17110F",
"(>	c #1D1612",
"_>	c #1E1615",
":>	c #1E1716",
"<>	c #171312",
"[>	c #464A4F",
"}>	c #404448",
"|>	c #404041",
"1>	c #3F4040",
"2>	c #3F4343",
"3>	c #394044",
"4>	c #3B434A",
"5>	c #3B4347",
"6>	c #474748",
"7>	c #2F3133",
"8>	c #313234",
"9>	c #323435",
"0>	c #262829",
"a>	c #373838",
"b>	c #1F2023",
"c>	c #242728",
"d>	c #2B4646",
"e>	c #404A46",
"f>	c #694535",
"g>	c #B45D32",
"h>	c #84472F",
"i>	c #3E3431",
"j>	c #282729",
"k>	c #343838",
"l>	c #353C3C",
"m>	c #203639",
"n>	c #168589",
"o>	c #1D9193",
"p>	c #1A9094",
"q>	c #15797E",
"r>	c #232A2E",
"s>	c #333536",
"t>	c #2B2C2C",
"u>	c #3E332E",
"v>	c #C05F2A",
"w>	c #854F36",
"x>	c #544239",
"y>	c #2D4747",
"z>	c #2A3233",
"A>	c #1D1C1E",
"B>	c #2F3031",
"C>	c #27272A",
"D>	c #454B51",
"E>	c #191412",
"F>	c #1E1B1A",
"G>	c #1C1A19",
"H>	c #181413",
"I>	c #241C16",
"J>	c #201916",
"K>	c #231E1C",
"L>	c #1B1A19",
"M>	c #494D50",
"N>	c #444749",
"O>	c #3C3D3E",
"P>	c #3B3939",
"Q>	c #3B3837",
"R>	c #393637",
"S>	c #3C3B3C",
"T>	c #3B3E41",
"U>	c #40464B",
"V>	c #40464A",
"W>	c #494C4D",
"X>	c #25292A",
"Y>	c #232425",
"Z>	c #212223",
"`>	c #1E1E21",
" ,	c #202021",
".,	c #242527",
"+,	c #1B1C1D",
"@,	c #252527",
"#,	c #2D3D3C",
"$,	c #303937",
"%,	c #3B3734",
"&,	c #AC5A32",
"*,	c #82462E",
"=,	c #282321",
"-,	c #462B21",
";,	c #232223",
">,	c #272627",
",,	c #262627",
"',	c #252526",
"),	c #242525",
"!,	c #242425",
"~,	c #202122",
"{,	c #1E1E1E",
"],	c #3A221C",
"^,	c #3A261F",
"/,	c #362D2B",
"(,	c #BC5C29",
"_,	c #704533",
":,	c #324341",
"<,	c #293232",
"[,	c #252629",
"},	c #212123",
"|,	c #252628",
"1,	c #232326",
"2,	c #272729",
"3,	c #2F2E30",
"4,	c #1C1716",
"5,	c #141012",
"6,	c #161314",
"7,	c #151514",
"8,	c #14100F",
"9,	c #251C19",
"0,	c #2B211C",
"a,	c #2D2723",
"b,	c #24211F",
"c,	c #434549",
"d,	c #3E3E40",
"e,	c #3A3937",
"f,	c #3A3838",
"g,	c #3F3D3D",
"h,	c #3F3E40",
"i,	c #44474A",
"j,	c #599996",
"k,	c #3F4F4F",
"l,	c #374445",
"m,	c #303A3B",
"n,	c #313130",
"o,	c #252627",
"p,	c #323233",
"q,	c #262727",
"r,	c #1C1D1F",
"s,	c #131417",
"t,	c #262424",
"u,	c #222424",
"v,	c #213A3B",
"w,	c #2A4A4B",
"x,	c #A25631",
"y,	c #7D3F23",
"z,	c #121213",
"A,	c #523327",
"B,	c #322522",
"C,	c #2D2D2D",
"D,	c #2E2F2E",
"E,	c #442F28",
"F,	c #39241E",
"G,	c #281C19",
"H,	c #B9612E",
"I,	c #4E5551",
"J,	c #244143",
"K,	c #242324",
"L,	c #212122",
"M,	c #131315",
"N,	c #323235",
"O,	c #282627",
"P,	c #323132",
"Q,	c #364243",
"R,	c #2A787A",
"S,	c #221F1D",
"T,	c #242020",
"U,	c #201D1D",
"V,	c #231C1B",
"W,	c #241819",
"X,	c #302422",
"Y,	c #372A25",
"Z,	c #312623",
"`,	c #424548",
" '	c #3D3A38",
".'	c #3B3737",
"+'	c #393636",
"@'	c #3E3A3A",
"#'	c #403C3C",
"$'	c #3F3D3C",
"%'	c #454446",
"&'	c #5A5D5C",
"*'	c #313D3E",
"='	c #353D3D",
"-'	c #383534",
";'	c #443733",
">'	c #2B2D2C",
",'	c #202022",
"''	c #141518",
")'	c #1F2325",
"!'	c #178784",
"~'	c #1A9496",
"{'	c #A25732",
"]'	c #844427",
"^'	c #19191B",
"/'	c #1D1D1E",
"('	c #252525",
"_'	c #262625",
":'	c #262626",
"<'	c #1C1D1D",
"['	c #222323",
"}'	c #212121",
"|'	c #2D3133",
"1'	c #372B28",
"2'	c #BF682E",
"3'	c #479995",
"4'	c #159795",
"5'	c #201D1E",
"6'	c #282B2D",
"7'	c #303134",
"8'	c #2C2624",
"9'	c #443430",
"0'	c #313434",
"a'	c #313739",
"b'	c #2F2A26",
"c'	c #241D1C",
"d'	c #241D1D",
"e'	c #362D29",
"f'	c #3C312A",
"g'	c #322621",
"h'	c #352723",
"i'	c #312421",
"j'	c #322723",
"k'	c #29211E",
"l'	c #3C3A3B",
"m'	c #403E3C",
"n'	c #3C3939",
"o'	c #3F3C3D",
"p'	c #3F3D3B",
"q'	c #3A3B38",
"r'	c #3F4041",
"s'	c #526E6D",
"t'	c #364242",
"u'	c #3C3837",
"v'	c #383736",
"w'	c #2E3031",
"x'	c #292B2C",
"y'	c #272829",
"z'	c #151619",
"A'	c #242829",
"B'	c #178383",
"C'	c #1A9192",
"D'	c #9A5230",
"E'	c #824126",
"F'	c #2E2F30",
"G'	c #313133",
"H'	c #29292A",
"I'	c #292A2A",
"J'	c #2C2D2D",
"K'	c #282A2A",
"L'	c #262728",
"M'	c #333839",
"N'	c #372A26",
"O'	c #B7632F",
"P'	c #479290",
"Q'	c #169794",
"R'	c #1F1B1C",
"S'	c #111113",
"T'	c #101113",
"U'	c #151517",
"V'	c #242426",
"W'	c #282A2C",
"X'	c #313232",
"Y'	c #3D3B39",
"Z'	c #4C5A5D",
"`'	c #2A2423",
" )	c #261F1E",
".)	c #25201F",
"+)	c #302B29",
"@)	c #2D2623",
"#)	c #2A201E",
"$)	c #332822",
"%)	c #2F241E",
"&)	c #2F231E",
"*)	c #271D1C",
"=)	c #3F4345",
"-)	c #3F3F3E",
";)	c #3F3E3D",
">)	c #3E3B3B",
",)	c #3C3B3D",
"')	c #373938",
"))	c #3D3F41",
"!)	c #355A59",
"~)	c #293031",
"{)	c #252427",
"])	c #2A2C2D",
"^)	c #292A2C",
"/)	c #1A1B1E",
"()	c #18191B",
"_)	c #17181A",
":)	c #232324",
"<)	c #1F5A5A",
"[)	c #266A6C",
"})	c #955333",
"|)	c #7B3E23",
"1)	c #222426",
"2)	c #232424",
"3)	c #1D1E1E",
"4)	c #272929",
"5)	c #292B2B",
"6)	c #2A2B2C",
"7)	c #272728",
"8)	c #2E221F",
"9)	c #AC5D31",
"0)	c #456564",
"a)	c #256569",
"b)	c #1A2022",
"c)	c #1C1C1E",
"d)	c #292A2B",
"e)	c #2A282A",
"f)	c #34494F",
"g)	c #5B7074",
"h)	c #2B2420",
"i)	c #221E1A",
"j)	c #1E1C17",
"k)	c #1F1B19",
"l)	c #221E1C",
"m)	c #26201C",
"n)	c #1F1713",
"o)	c #424344",
"p)	c #3E3E3E",
"q)	c #3C3A39",
"r)	c #3D3C3C",
"s)	c #5A7B7F",
"t)	c #344E50",
"u)	c #2E4041",
"v)	c #373535",
"w)	c #2E2B2D",
"x)	c #252529",
"y)	c #1C1E20",
"z)	c #494B4C",
"A)	c #8F8F8F",
"B)	c #1B1C1F",
"C)	c #292727",
"D)	c #292728",
"E)	c #3A4245",
"F)	c #9A5737",
"G)	c #783F23",
"H)	c #242325",
"I)	c #2B2C2D",
"J)	c #323333",
"K)	c #303132",
"L)	c #272828",
"M)	c #1D1E1F",
"N)	c #2F231F",
"O)	c #AC5E31",
"P)	c #4A3C36",
"Q)	c #222121",
"R)	c #676969",
"S)	c #8B8B8B",
"T)	c #222222",
"U)	c #373533",
"V)	c #343433",
"W)	c #343738",
"X)	c #354343",
"Y)	c #526063",
"Z)	c #201C1A",
"`)	c #1C1715",
" !	c #1A1613",
".!	c #13110F",
"+!	c #1A1411",
"@!	c #211916",
"#!	c #1F1815",
"$!	c #3D3C3D",
"%!	c #3C3B3B",
"&!	c #3D3D3C",
"*!	c #2E8D8D",
"=!	c #325D5F",
"-!	c #2A7C7E",
";!	c #2F5E60",
">!	c #3A4040",
",!	c #363E3F",
"'!	c #30383A",
")!	c #25292C",
"!!	c #222326",
"~!	c #181B1E",
"{!	c #6E7071",
"]!	c #C4C4C4",
"^!	c #212226",
"/!	c #232B2C",
"(!	c #2B2E2F",
"_!	c #3F484C",
":!	c #9E5838",
"<!	c #7A4024",
"[!	c #2E2E2F",
"}!	c #333334",
"|!	c #202121",
"1!	c #2A2A2C",
"2!	c #1D1C1D",
"3!	c #342926",
"4!	c #AE5F2F",
"5!	c #4E3E38",
"6!	c #727371",
"7!	c #B2B2B2",
"8!	c #252524",
"9!	c #272A2A",
"0!	c #353938",
"a!	c #393C3C",
"b!	c #38383A",
"c!	c #1B9A90",
"d!	c #2C4343",
"e!	c #217574",
"f!	c #2C2A29",
"g!	c #171716",
"h!	c #1A1917",
"i!	c #292523",
"j!	c #211C1A",
"k!	c #3E3F41",
"l!	c #39393A",
"m!	c #325B5D",
"n!	c #343839",
"o!	c #38595B",
"p!	c #316B6D",
"q!	c #1C676B",
"r!	c #1C5C61",
"s!	c #214B50",
"t!	c #262D2F",
"u!	c #2C2B2E",
"v!	c #4F4F51",
"w!	c #6E6D6F",
"x!	c #242A2B",
"y!	c #303030",
"z!	c #3E494C",
"A!	c #9B5639",
"B!	c #773A23",
"C!	c #2B2A2B",
"D!	c #2D2C2D",
"E!	c #29292B",
"F!	c #323133",
"G!	c #2B2A2C",
"H!	c #302F31",
"I!	c #2A2B2D",
"J!	c #212020",
"K!	c #31231F",
"L!	c #AF5F30",
"M!	c #503E39",
"N!	c #696A6A",
"O!	c #B1B2B2",
"P!	c #373738",
"Q!	c #272C2B",
"R!	c #2A3C3F",
"S!	c #1D535A",
"T!	c #185A60",
"U!	c #28585C",
"V!	c #2F5255",
"W!	c #333538",
"X!	c #313638",
"Y!	c #59959A",
"Z!	c #33302F",
"`!	c #232323",
" ~	c #222423",
".~	c #2F2C2A",
"+~	c #252120",
"@~	c #393838",
"#~	c #383635",
"$~	c #3B3839",
"%~	c #3D3B3C",
"&~	c #3A393B",
"*~	c #2D5354",
"=~	c #343334",
"-~	c #474945",
";~	c #454747",
">~	c #245154",
",~	c #25474B",
"'~	c #203337",
")~	c #212227",
"!~	c #626262",
"~~	c #171617",
"{~	c #212021",
"]~	c #2A3132",
"^~	c #2D3A3B",
"/~	c #32302F",
"(~	c #3F4C50",
"_~	c #97573D",
":~	c #793E26",
"<~	c #282323",
"[~	c #302A2B",
"}~	c #2A2425",
"|~	c #2E2C2D",
"1~	c #28282B",
"2~	c #2B2829",
"3~	c #312F30",
"4~	c #372825",
"5~	c #AD5F30",
"6~	c #513F39",
"7~	c #35383A",
"8~	c #606262",
"9~	c #575758",
"0~	c #19181C",
"a~	c #1B1B1C",
"b~	c #1C292B",
"c~	c #1C3B3E",
"d~	c #1D4448",
"e~	c #3E3D3E",
"f~	c #484748",
"g~	c #363436",
"h~	c #353F3F",
"i~	c #218C89",
"j~	c #242627",
"k~	c #2A2C2E",
"l~	c #444446",
"m~	c #3D3B3D",
"n~	c #393738",
"o~	c #3C3838",
"p~	c #3E3939",
"q~	c #459497",
"r~	c #2B575A",
"s~	c #3F3A38",
"t~	c #3A3232",
"u~	c #284E4F",
"v~	c #264F51",
"w~	c #1C393D",
"x~	c #1C1C1F",
"y~	c #535353",
"z~	c #161413",
"A~	c #444344",
"B~	c #2D2E2E",
"C~	c #31302E",
"D~	c #3F4C4F",
"E~	c #955539",
"F~	c #7E432A",
"G~	c #352C2A",
"H~	c #393130",
"I~	c #342D2C",
"J~	c #382F2C",
"K~	c #4E5153",
"L~	c #545A5D",
"M~	c #53595E",
"N~	c #535A5E",
"O~	c #50575B",
"P~	c #44494C",
"Q~	c #372C2A",
"R~	c #322D2C",
"S~	c #393432",
"T~	c #44342E",
"U~	c #AE6031",
"V~	c #54423B",
"W~	c #323234",
"X~	c #3A3B3C",
"Y~	c #493F3A",
"Z~	c #48413E",
"`~	c #111112",
" {	c #1E373C",
".{	c #214044",
"+{	c #343234",
"@{	c #434141",
"#{	c #394A4D",
"${	c #2F8E90",
"%{	c #445056",
"&{	c #4D5960",
"*{	c #536169",
"={	c #4C5C65",
"-{	c #4B5B64",
";{	c #4B565D",
">{	c #423F42",
",{	c #3D3837",
"'{	c #3F3936",
"){	c #41C6D0",
"!{	c #34686E",
"~{	c #383735",
"{{	c #312E2C",
"]{	c #423D39",
"^{	c #13676D",
"/{	c #1B353A",
"({	c #114750",
"_{	c #28292A",
":{	c #131112",
"<{	c #191A1C",
"[{	c #272827",
"}{	c #2C2E2E",
"|{	c #2D2D2C",
"1{	c #3B494E",
"2{	c #915136",
"3{	c #7B4027",
"4{	c #342B2B",
"5{	c #2B2525",
"6{	c #3F2A23",
"7{	c #3C2B27",
"8{	c #212225",
"9{	c #202023",
"0{	c #1F1F21",
"a{	c #412F2A",
"b{	c #3D2924",
"c{	c #292321",
"d{	c #38302E",
"e{	c #3E2E28",
"f{	c #AC6230",
"g{	c #52403A",
"h{	c #2C2D2C",
"i{	c #2A2C2C",
"j{	c #5B5C5D",
"k{	c #3C3431",
"l{	c #313031",
"m{	c #0F3840",
"n{	c #106264",
"o{	c #3A484A",
"p{	c #504847",
"q{	c #3B3838",
"r{	c #374848",
"s{	c #42C7C8",
"t{	c #4A5257",
"u{	c #434D53",
"v{	c #3E474E",
"w{	c #3D4347",
"x{	c #433D41",
"y{	c #403B3C",
"z{	c #3E3736",
"A{	c #3C3331",
"B{	c #3C322F",
"C{	c #375659",
"D{	c #384544",
"E{	c #2B4649",
"F{	c #2D4C4D",
"G{	c #204A4C",
"H{	c #0F6166",
"I{	c #14373B",
"J{	c #152126",
"K{	c #4D5354",
"L{	c #141112",
"M{	c #1A1616",
"N{	c #1A1A1B",
"O{	c #272727",
"P{	c #292C2D",
"Q{	c #262E30",
"R{	c #2C4C50",
"S{	c #904F31",
"T{	c #743A20",
"U{	c #121317",
"V{	c #121216",
"W{	c #251E1D",
"X{	c #372D29",
"Y{	c #403937",
"Z{	c #403A38",
"`{	c #413A37",
" ]	c #403835",
".]	c #372A28",
"+]	c #1B191B",
"@]	c #131416",
"#]	c #101315",
"$]	c #2B1E18",
"%]	c #AA6330",
"&]	c #524641",
"*]	c #2C3435",
"=]	c #32393B",
"-]	c #1E1E20",
";]	c #202325",
">]	c #28282A",
",]	c #36302E",
"']	c #2C393D",
")]	c #222628",
"!]	c #13676C",
"~]	c #285B5E",
"{]	c #354A4C",
"]]	c #324648",
"^]	c #394646",
"/]	c #3BA0A1",
"(]	c #292422",
"_]	c #333331",
":]	c #2E2E2C",
"<]	c #272625",
"[]	c #464040",
"}]	c #3F3635",
"|]	c #3D3430",
"1]	c #3D332E",
"2]	c #3D312D",
"3]	c #3C2F2C",
"4]	c #393737",
"5]	c #394A49",
"6]	c #2F4B4D",
"7]	c #264C4D",
"8]	c #204648",
"9]	c #1F2225",
"0]	c #181B1D",
"a]	c #2C2F2F",
"b]	c #1D1918",
"c]	c #161312",
"d]	c #191613",
"e]	c #1E201F",
"f]	c #3B3F3E",
"g]	c #2A2E31",
"h]	c #223C3E",
"i]	c #175D5F",
"j]	c #8F4C2E",
"k]	c #6D3820",
"l]	c #151519",
"m]	c #1A1B1D",
"n]	c #191A1D",
"o]	c #19191C",
"p]	c #2B1F1A",
"q]	c #A36030",
"r]	c #4C5450",
"s]	c #234649",
"t]	c #2B2B2C",
"u]	c #303737",
"v]	c #1A1B1C",
"w]	c #1D1F21",
"x]	c #3E4143",
"y]	c #2D2828",
"z]	c #3B393B",
"A]	c #29292D",
"B]	c #232628",
"C]	c #204044",
"D]	c #22474A",
"E]	c #244244",
"F]	c #2B4042",
"G]	c #353636",
"H]	c #363D3F",
"I]	c #1F1C1D",
"J]	c #242225",
"K]	c #494242",
"L]	c #3F3735",
"M]	c #3E332F",
"N]	c #40332D",
"O]	c #3E3029",
"P]	c #3E322D",
"Q]	c #595B5B",
"R]	c #3A3A39",
"S]	c #383737",
"T]	c #2E2D2D",
"U]	c #252626",
"V]	c #515254",
"W]	c #292121",
"X]	c #1C1819",
"Y]	c #171615",
"Z]	c #1C1E1D",
"`]	c #373A3A",
" ^	c #2C3032",
".^	c #233C3E",
"+^	c #195F62",
"@^	c #914F30",
"#^	c #6E3A22",
"$^	c #17181C",
"%^	c #272626",
"&^	c #2F2E2D",
"*^	c #302F2F",
"=^	c #2F2F2E",
"-^	c #2F2F2D",
";^	c #292828",
">^	c #222527",
",^	c #2D221C",
"'^	c #A8622F",
")^	c #4B5A56",
"!^	c #1F4749",
"~^	c #343737",
"{^	c #262828",
"]^	c #6B6C6D",
"^^	c #3B393A",
"/^	c #464548",
"(^	c #2D2C2C",
"_^	c #333332",
":^	c #565858",
"<^	c #211D1B",
"[^	c #2B2826",
"}^	c #323032",
"|^	c #383A38",
"1^	c #333433",
"2^	c #4B4444",
"3^	c #3E3734",
"4^	c #3C312D",
"5^	c #40332F",
"6^	c #3E312D",
"7^	c #3D322E",
"8^	c #6F7070",
"9^	c #79422B",
"0^	c #2C2A28",
"a^	c #343534",
"b^	c #383A3B",
"c^	c #281F1D",
"d^	c #141515",
"e^	c #1E1F1F",
"f^	c #37393A",
"g^	c #2F3234",
"h^	c #212E30",
"i^	c #1F555A",
"j^	c #975333",
"k^	c #723C24",
"l^	c #16171A",
"m^	c #1E1C1C",
"n^	c #2A2726",
"o^	c #2E2C2B",
"p^	c #2E2C2A",
"q^	c #2D2C2A",
"r^	c #272524",
"s^	c #2D211B",
"t^	c #AC632E",
"u^	c #515B58",
"v^	c #22464B",
"w^	c #646566",
"x^	c #353534",
"y^	c #292B2E",
"z^	c #643A28",
"A^	c #756A66",
"B^	c #231F1C",
"C^	c #332F2D",
"D^	c #404140",
"E^	c #494342",
"F^	c #433A35",
"G^	c #42352E",
"H^	c #40332E",
"I^	c #3E322E",
"J^	c #3A302D",
"K^	c #545152",
"L^	c #543C35",
"M^	c #33302E",
"N^	c #2E292A",
"O^	c #2E2524",
"P^	c #7D7E7E",
"Q^	c #233436",
"R^	c #225F63",
"S^	c #9B5635",
"T^	c #743E26",
"U^	c #111517",
"V^	c #141517",
"W^	c #19191A",
"X^	c #15171A",
"Y^	c #242123",
"Z^	c #312420",
"`^	c #524E4B",
" /	c #293B40",
"./	c #2D2C2E",
"+/	c #222324",
"@/	c #676869",
"#/	c #282D2E",
"$/	c #2B2321",
"%/	c #282524",
"&/	c #4B372E",
"*/	c #584B48",
"=/	c #32302E",
"-/	c #3B3B39",
";/	c #363838",
">/	c #383A3C",
",/	c #47403F",
"'/	c #493D39",
")/	c #483A32",
"!/	c #42332C",
"~/	c #3E312B",
"{/	c #5D5552",
"]/	c #714230",
"^/	c #413F3E",
"//	c #2E2B2A",
"(/	c #222022",
"_/	c #373737",
":/	c #52433E",
"</	c #4F3125",
"[/	c #372F2C",
"}/	c #707274",
"|/	c #151617",
"1/	c #353637",
"2/	c #2B2D2E",
"3/	c #243537",
"4/	c #256268",
"5/	c #A15734",
"6/	c #763D24",
"7/	c #232021",
"8/	c #2A2626",
"9/	c #101214",
"0/	c #101115",
"a/	c #0F1115",
"b/	c #18181B",
"c/	c #292426",
"d/	c #332622",
"e/	c #AA6230",
"f/	c #535652",
"g/	c #29484C",
"h/	c #666767",
"i/	c #2A2E32",
"j/	c #5D3A29",
"k/	c #60483A",
"l/	c #2C3336",
"m/	c #191C1F",
"n/	c #483D3A",
"o/	c #6D4536",
"p/	c #876C62",
"q/	c #424341",
"r/	c #3C3F40",
"s/	c #3A393A",
"t/	c #4A4140",
"u/	c #463936",
"v/	c #47372F",
"w/	c #42302A",
"x/	c #3B2B24",
"y/	c #3C2E27",
"z/	c #757675",
"A/	c #3D3B3A",
"B/	c #352D2B",
"C/	c #262325",
"D/	c #090C0B",
"E/	c #2A2323",
"F/	c #2B201D",
"G/	c #5F6061",
"H/	c #2A2A2B",
"I/	c #26383B",
"J/	c #206066",
"K/	c #9E5431",
"L/	c #774B3B",
"M/	c #2A3435",
"N/	c #282423",
"O/	c #262221",
"P/	c #1D1B1C",
"Q/	c #111115",
"R/	c #111216",
"S/	c #272222",
"T/	c #262223",
"U/	c #272A2D",
"V/	c #343535",
"W/	c #A86030",
"X/	c #515954",
"Y/	c #28494C",
"Z/	c #323232",
"`/	c #313334",
" (	c #343636",
".(	c #201F21",
"+(	c #19181A",
"@(	c #656767",
"#(	c #2F3135",
"$(	c #1C1F21",
"%(	c #585A5C",
"&(	c #1C1E24",
"*(	c #312A2B",
"=(	c #3B3436",
"-(	c #524F50",
";(	c #3C3D3B",
">(	c #3E403E",
",(	c #3B3E3F",
"'(	c #3D3F3F",
")(	c #4B4140",
"!(	c #443734",
"~(	c #44342D",
"{(	c #413029",
"](	c #3B2A24",
"^(	c #3A2A26",
"/(	c #3C2E29",
"((	c #5B5957",
"_(	c #463F3E",
":(	c #302A28",
"<(	c #252325",
"[(	c #4F4D4D",
"}(	c #1E1819",
"|(	c #231B19",
"1(	c #262527",
"2(	c #1A1A1C",
"3(	c #25393B",
"4(	c #1D5A61",
"5(	c #9B502F",
"6(	c #733E29",
"7(	c #304244",
"8(	c #34474A",
"9(	c #292323",
"0(	c #111116",
"a(	c #221E1F",
"b(	c #313D41",
"c(	c #2E3C40",
"d(	c #312F2E",
"e(	c #A45D2E",
"f(	c #4D524E",
"g(	c #2B494D",
"h(	c #2F2A2A",
"i(	c #3D3D3F",
"j(	c #111009",
"k(	c #2D292C",
"l(	c #372D2C",
"m(	c #3C3334",
"n(	c #514E4F",
"o(	c #353535",
"p(	c #373939",
"q(	c #393B3C",
"r(	c #4A4343",
"s(	c #453B38",
"t(	c #463A34",
"u(	c #3E302B",
"v(	c #3C2F2B",
"w(	c #3B302C",
"x(	c #3A2E2A",
"y(	c #3C322D",
"z(	c #382C28",
"A(	c #37302E",
"B(	c #0E1211",
"C(	c #221D1C",
"D(	c #333434",
"E(	c #253739",
"F(	c #1D585F",
"G(	c #9A502D",
"H(	c #6E3921",
"I(	c #272B2D",
"J(	c #323D3F",
"K(	c #2D2524",
"L(	c #261E1E",
"M(	c #121115",
"N(	c #281F1F",
"O(	c #31363A",
"P(	c #2B2F31",
"Q(	c #242121",
"R(	c #2D231F",
"S(	c #9C582C",
"T(	c #4D4D48",
"U(	c #2B494C",
"V(	c #352D2A",
"W(	c #362E2B",
"X(	c #2C2C2D",
"Y(	c #1B1B1D",
"Z(	c #3A3D3D",
"`(	c #2D3233",
" _	c #0C0C07",
"._	c #393537",
"+_	c #3C3737",
"@_	c #353131",
"#_	c #3C3A3A",
"$_	c #363736",
"%_	c #393B3B",
"&_	c #3B3C3D",
"*_	c #494544",
"=_	c #47413F",
"-_	c #423A36",
";_	c #3F3733",
">_	c #3F3934",
",_	c #393633",
"'_	c #35312E",
")_	c #3A3531",
"!_	c #3F3B37",
"~_	c #393433",
"{_	c #0C100E",
"]_	c #243638",
"^_	c #1B585F",
"/_	c #9B512D",
"(_	c #6F3A22",
"__	c #1E1C1E",
":_	c #201C1E",
"<_	c #2F2120",
"[_	c #291D1C",
"}_	c #131316",
"|_	c #121215",
"1_	c #2D2020",
"2_	c #282020",
"3_	c #221F1F",
"4_	c #211E1F",
"5_	c #2E231F",
"6_	c #9F5829",
"7_	c #4D4A45",
"8_	c #2B484A",
"9_	c #312C2A",
"0_	c #1B1A1B",
"a_	c #434445",
"b_	c #252A2D",
"c_	c #0A0B08",
"d_	c #373333",
"e_	c #3D3936",
"f_	c #3D3B3E",
"g_	c #383938",
"h_	c #393B3A",
"i_	c #383738",
"j_	c #333133",
"k_	c #433F41",
"l_	c #423D3D",
"m_	c #433F39",
"n_	c #413C35",
"o_	c #3F3A36",
"p_	c #343435",
"q_	c #313131",
"r_	c #464444",
"s_	c #3B3836",
"t_	c #0E0F0D",
"u_	c #382C29",
"v_	c #392E2B",
"w_	c #253437",
"x_	c #1A5762",
"y_	c #99502D",
"z_	c #6E3B23",
"A_	c #1C1B1D",
"B_	c #161619",
"C_	c #141417",
"D_	c #111215",
"E_	c #30231F",
"F_	c #A4582B",
"G_	c #50443C",
"H_	c #324040",
"I_	c #392F2B",
"J_	c #171618",
"K_	c #575757",
"L_	c #10120F",
"M_	c #38322F",
"N_	c #3B3330",
"O_	c #383634",
"P_	c #373635",
"Q_	c #373636",
"R_	c #454143",
"S_	c #3F3832",
"T_	c #413831",
"U_	c #3F3834",
"V_	c #393735",
"W_	c #454242",
"X_	c #3A3533",
"Y_	c #13120E",
"Z_	c #535453",
"`_	c #1F1F20",
" :	c #282828",
".:	c #313231",
"+:	c #2C2F2E",
"@:	c #3D2D29",
"#:	c #3B2F2A",
"$:	c #2A2C2B",
"%:	c #333D41",
"&:	c #964F2D",
"*:	c #6E3C25",
"=:	c #1E1D1E",
"-:	c #1C1A1C",
";:	c #111114",
">:	c #A4592E",
",:	c #613B2B",
"':	c #362E29",
"):	c #262526",
"!:	c #555455",
"~:	c #161712",
"{:	c #3A2F2B",
"]:	c #3F322E",
"^:	c #383C3A",
"/:	c #333636",
"(:	c #383836",
"_:	c #383734",
"::	c #392C28",
"<:	c #3B2B28",
"[:	c #382E2B",
"}:	c #393533",
"|:	c #413D3A",
"1:	c #403A3A",
"2:	c #393331",
"3:	c #181713",
"4:	c #454645",
"5:	c #171818",
"6:	c #282928",
"7:	c #2D2E2D",
"8:	c #322E2B",
"9:	c #332C29",
"0:	c #2B2E2E",
"a:	c #2E2926",
"b:	c #533425",
"c:	c #96512D",
"d:	c #703E26",
"e:	c #201E1E",
"f:	c #161518",
"g:	c #1E1A19",
"h:	c #9D562D",
"i:	c #794026",
"j:	c #2C2723",
"k:	c #2F3839",
"l:	c #242424",
"m:	c #131613",
"n:	c #3A2D2B",
"o:	c #433632",
"p:	c #3E3A37",
"q:	c #363635",
"r:	c #333736",
"s:	c #313433",
"t:	c #353634",
"u:	c #393A37",
"v:	c #4D4A49",
"w:	c #3C3634",
"x:	c #392F2D",
"y:	c #3B2F2D",
"z:	c #3D3332",
"A:	c #413E3B",
"B:	c #41413F",
"C:	c #3E3C3A",
"D:	c #3F3A39",
"E:	c #484948",
"F:	c #212222",
"G:	c #412B25",
"H:	c #3C2D29",
"I:	c #392D28",
"J:	c #473028",
"K:	c #382B27",
"L:	c #5E3726",
"M:	c #97512D",
"N:	c #6C3B25",
"O:	c #1A1818",
"P:	c #101314",
"Q:	c #191919",
"R:	c #171718",
"S:	c #29201D",
"T:	c #96532D",
"U:	c #723D24",
"V:	c #282523",
"W:	c #3B3531",
"X:	c #2E2D2C",
"Y:	c #1C1D1E",
"Z:	c #181919",
"`:	c #121412",
" <	c #3F322F",
".<	c #443530",
"+<	c #3F3835",
"@<	c #353332",
"#<	c #39393B",
"$<	c #3B3A3C",
"%<	c #474242",
"&<	c #403B3A",
"*<	c #433834",
"=<	c #443935",
"-<	c #443A35",
";<	c #3D332F",
"><	c #453834",
",<	c #3C2E2C",
"'<	c #3C2E2D",
")<	c #383130",
"!<	c #2A2B2A",
"~<	c #1C1E1E",
"{<	c #312926",
"]<	c #322C2B",
"^<	c #3E2D28",
"/<	c #382925",
"(<	c #663825",
"_<	c #99512C",
":<	c #693922",
"<<	c #111316",
"[<	c #111314",
"}<	c #261C19",
"|<	c #94512B",
"1<	c #783F25",
"2<	c #2C2725",
"3<	c #46362D",
"4<	c #392C29",
"5<	c #2B2A29",
"6<	c #242524",
"7<	c #131311",
"8<	c #453833",
"9<	c #483933",
"0<	c #3F3633",
"a<	c #393939",
"b<	c #3A3C3B",
"c<	c #474041",
"d<	c #443E3D",
"e<	c #413A35",
"f<	c #423029",
"g<	c #463128",
"h<	c #442D26",
"i<	c #412D25",
"j<	c #412D27",
"k<	c #393A3A",
"l<	c #2B2625",
"m<	c #2D2928",
"n<	c #302927",
"o<	c #372824",
"p<	c #6A3925",
"q<	c #9C512B",
"r<	c #6B3922",
"s<	c #131415",
"t<	c #161517",
"u<	c #171517",
"v<	c #15181B",
"w<	c #2B2221",
"x<	c #904F2A",
"y<	c #7D4226",
"z<	c #302827",
"A<	c #45352F",
"B<	c #282829",
"C<	c #453A37",
"D<	c #493F3B",
"E<	c #413B3A",
"F<	c #3E3C3B",
"G<	c #3E3F3F",
"H<	c #353739",
"I<	c #433D3F",
"J<	c #444141",
"K<	c #45423E",
"L<	c #3F332E",
"M<	c #402F28",
"N<	c #413028",
"O<	c #43342B",
"P<	c #42352C",
"Q<	c #3F3029",
"R<	c #45352D",
"S<	c #3C3D3D",
"T<	c #191B1C",
"U<	c #222224",
"V<	c #1D1E21",
"W<	c #222122",
"X<	c #292627",
"Y<	c #1F3034",
"Z<	c #733D25",
"`<	c #9D502A",
" [	c #6A3822",
".[	c #1A1817",
"+[	c #181617",
"@[	c #1D1819",
"#[	c #16181B",
"$[	c #2B1F1C",
"%[	c #934E29",
"&[	c #864426",
"*[	c #2D2625",
"=[	c #2C3638",
"-[	c #153B40",
";[	c #1F2020",
">[	c #1E1F20",
",[	c #34302F",
"'[	c #3A3333",
")[	c #383535",
"![	c #373637",
"~[	c #383939",
"{[	c #4A4848",
"][	c #4A4B49",
"^[	c #454642",
"/[	c #3E3531",
"([	c #3D2F2B",
"_[	c #423730",
":[	c #3D322C",
"<[	c #392F2A",
"[[	c #1B1A1D",
"}[	c #1E1D1F",
"|[	c #26282A",
"1[	c #1F3639",
"2[	c #133B3D",
"3[	c #713E25",
"4[	c #834628",
"5[	c #683821",
"6[	c #101014",
"7[	c #131215",
"8[	c #814729",
"9[	c #7D4327",
"0[	c #162D30",
"a[	c #0D474B",
"b[	c #1F2021",
"c[	c #3A3735",
"d[	c #393836",
"e[	c #373639",
"f[	c #38393A",
"g[	c #4F4A4A",
"h[	c #484445",
"i[	c #3D3939",
"j[	c #3B3331",
"k[	c #3A312E",
"l[	c #362E2C",
"m[	c #3F3431",
"n[	c #3E3631",
"o[	c #3D3732",
"p[	c #433A37",
"q[	c #2F3030",
"r[	c #1A1A1D",
"s[	c #1B1B1E",
"t[	c #242A2C",
"u[	c #154549",
"v[	c #0A4749",
"w[	c #3D261C",
"x[	c #4F2D1F",
"y[	c #34211B",
"z[	c #101015",
"A[	c #1B191A",
"B[	c #44271D",
"C[	c #43271C",
"D[	c #12282C",
"E[	c #094B4F",
"F[	c #222D2E",
"G[	c #212527",
"H[	c #171719",
"I[	c #303336",
"J[	c #343739",
"K[	c #403F3D",
"L[	c #3B3A39",
"M[	c #363939",
"N[	c #37383B",
"O[	c #443E3E",
"P[	c #423D3C",
"Q[	c #3E3836",
"R[	c #403936",
"S[	c #343232",
"T[	c #1A191C",
"U[	c #1C1B1E",
"V[	c #1E2628",
"W[	c #1D2022",
"X[	c #1E2124",
"Y[	c #0C4648",
"Z[	c #0D3F41",
"`[	c #142426",
" }	c #161719",
".}	c #161717",
"+}	c #151D1F",
"@}	c #112F32",
"#}	c #064A4D",
"$}	c #183B3E",
"%}	c #193337",
"&}	c #383C3E",
"*}	c #333738",
"=}	c #333537",
"-}	c #393435",
";}	c #393434",
">}	c #3D3835",
",}	c #3E3935",
"'}	c #3A3736",
")}	c #3D3E3C",
"!}	c #424242",
"~}	c #2B5B56",
"{}	c #0B5855",
"]}	c #0D5556",
"^}	c #105054",
"/}	c #0E484B",
"(}	c #0E4B4C",
"_}	c #0D494A",
":}	c #0C4949",
"<}	c #132223",
"[}	c #161819",
"}}	c #0F1114",
"|}	c #0F1014",
"1}	c #152022",
"2}	c #123034",
"3}	c #0D454B",
"4}	c #0E454E",
"5}	c #104C55",
"6}	c #104E54",
"7}	c #094F54",
"8}	c #3A3C3F",
"9}	c #36373A",
"0}	c #363739",
"a}	c #3F3B3A",
"b}	c #3D3D3B",
"c}	c #3D3B3B",
"d}	c #393839",
"e}	c #191B18",
"f}	c #28201D",
"g}	c #161617",
"h}	c #1B1B1B",
"i}	c #141516",
"j}	c #232729",
"k}	c #090B0B",
"l}	c #131618",
"m}	c #181A1B",
"n}	c #1C1E1F",
"o}	c #131314",
"p}	c #2E2C2C",
"q}	c #1D1C17",
"r}	c #38393B",
"s}	c #383B3C",
"t}	c #373A3B",
"u}	c #3A3A3C",
"v}	c #414141",
"w}	c #3F4244",
"x}	c #414242",
"y}	c #3C3C3E",
"z}	c #403F3E",
"A}	c #1B1D1A",
"B}	c #322724",
"C}	c #373736",
"D}	c #191B1B",
"E}	c #141416",
"F}	c #222627",
"G}	c #0D0D0D",
"H}	c #353335",
"I}	c #121314",
"J}	c #1F2122",
"K}	c #3C3E3F",
"L}	c #21201E",
"M}	c #454749",
"N}	c #3D4044",
"O}	c #3F4144",
"P}	c #454746",
"Q}	c #393A3D",
"R}	c #191A19",
"S}	c #302724",
"T}	c #3A2C28",
"U}	c #2C231F",
"V}	c #2A211B",
"W}	c #444444",
"X}	c #1B1C1C",
"Y}	c #383739",
"Z}	c #373D40",
"`}	c #0E0D0D",
" |	c #494A49",
".|	c #373332",
"+|	c #363536",
"@|	c #2D2C2B",
"#|	c #292928",
"$|	c #202123",
"%|	c #393635",
"&|	c #1F1E1D",
"*|	c #363535",
"=|	c #383638",
"-|	c #343437",
";|	c #333236",
">|	c #424549",
",|	c #454949",
"'|	c #41464A",
")|	c #3C4144",
"!|	c #434748",
"~|	c #474A4D",
"{|	c #3E4145",
"]|	c #291F1C",
"^|	c #3D2D27",
"/|	c #3D2F29",
"(|	c #3B2E27",
"_|	c #3A2E25",
":|	c #616060",
"<|	c #151618",
"[|	c #353737",
"}|	c #373837",
"||	c #3C4044",
"1|	c #23272A",
"2|	c #0C0B0D",
"3|	c #4A4A49",
"4|	c #6A6B6B",
"5|	c #3D3C3B",
"6|	c #282A2D",
"7|	c #1C1C1C",
"8|	c #333336",
"9|	c #3E3F3E",
"0|	c #323637",
"a|	c #313537",
"b|	c #323338",
"c|	c #464B4B",
"d|	c #454648",
"e|	c #464A4C",
"f|	c #434749",
"g|	c #42484B",
"h|	c #43484C",
"i|	c #3A4044",
"j|	c #2D2220",
"k|	c #392925",
"l|	c #372B29",
"m|	c #322624",
"n|	c #454342",
"o|	c #2C2423",
"p|	c #4C4D4E",
"q|	c #393938",
"r|	c #3F4347",
"s|	c #25292D",
"t|	c #090A0C",
"u|	c #353231",
"v|	c #2C282A",
"w|	c #2F2B2C",
"x|	c #2C2A2B",
"y|	c #28201F",
"z|	c #2E2927",
"A|	c #382D28",
"B|	c #484440",
"C|	c #40403F",
"D|	c #2D2F32",
"E|	c #1A1A1A",
"F|	c #414142",
"G|	c #414343",
"H|	c #323136",
"I|	c #42454A",
"J|	c #464647",
"K|	c #444546",
"L|	c #404244",
"M|	c #3D4042",
"N|	c #36383C",
"O|	c #2D2321",
"P|	c #322523",
"Q|	c #2A2122",
"R|	c #261D1F",
"S|	c #1B1D1E",
"T|	c #424444",
"U|	c #202526",
"V|	c #080B0A",
"W|	c #232829",
"X|	c #3D3B36",
"Y|	c #2C2827",
"Z|	c #2F2929",
"`|	c #131317",
" 1	c #19191D",
".1	c #151518",
"+1	c #1F1D1F",
"@1	c #232122",
"#1	c #242224",
"$1	c #1F1E1F",
"%1	c #474B4D",
"&1	c #484C4E",
"*1	c #3C3C40",
"=1	c #303032",
"-1	c #2F2D30",
";1	c #2C2B2F",
">1	c #44474C",
",1	c #484C4F",
"'1	c #424241",
")1	c #444343",
"!1	c #191A18",
"~1	c #2C241F",
"{1	c #352A25",
"]1	c #5A6568",
"^1	c #394346",
"/1	c #414B4F",
"(1	c #414444",
"_1	c #363A3D",
":1	c #282E30",
"<1	c #222325",
"[1	c #373638",
"}1	c #383B3F",
"|1	c #0B0C0D",
"11	c #2A2E30",
"21	c #35393D",
"31	c #3A3936",
"41	c #2C2826",
"51	c #545353",
"61	c #34373B",
"71	c #424348",
"81	c #464449",
"91	c #475354",
"01	c #3B4546",
"a1	c #556463",
"b1	c #474D4F",
"c1	c #1F1E1E",
"d1	c #3C3C3D",
"e1	c #505558",
"f1	c #4C5152",
"g1	c #3F4141",
"h1	c #494949",
"i1	c #4C4B4C",
"j1	c #261E1C",
"k1	c #5F5E5D",
"l1	c #444345",
"m1	c #3F3736",
"n1	c #3C3230",
"o1	c #363333",
"p1	c #131418",
"q1	c #757677",
"r1	c #3F454A",
"s1	c #262A2D",
"t1	c #0F100F",
"u1	c #383F3F",
"v1	c #454C4E",
"w1	c #3D3F43",
"x1	c #292626",
"y1	c #231F1F",
"z1	c #2D2A29",
"A1	c #454647",
"B1	c #282427",
"C1	c #3A3639",
"D1	c #3E3834",
"E1	c #403735",
"F1	c #3E3533",
"G1	c #3F3C38",
"H1	c #343432",
"I1	c #3E3F3B",
"J1	c #5F6362",
"K1	c #1D1C1C",
"L1	c #464645",
"M1	c #3F3E3E",
"N1	c #41403F",
"O1	c #3B3C3B",
"P1	c #4F5253",
"Q1	c #474B4C",
"R1	c #3E4043",
"S1	c #39383B",
"T1	c #3E4040",
"U1	c #2F3137",
"V1	c #35373A",
"W1	c #1B1D1D",
"X1	c #241E1D",
"Y1	c #231D1E",
"Z1	c #422F28",
"`1	c #443129",
" 2	c #453129",
".2	c #2D2523",
"+2	c #201F20",
"@2	c #333333",
"#2	c #4A555B",
"$2	c #2D3538",
"%2	c #0D0E0E",
"&2	c #353A3D",
"*2	c #42484D",
"=2	c #3A3D42",
"-2	c #3F4143",
";2	c #2A2628",
">2	c #41302A",
",2	c #453029",
"'2	c #3D2B24",
")2	c #261F20",
"!2	c #221D1F",
"~2	c #474749",
"{2	c #353334",
"]2	c #343233",
"^2	c #353434",
"/2	c #4C4E50",
"(2	c #3E403F",
"_2	c #333437",
":2	c #3A3D3C",
"<2	c #231E1D",
"[2	c #26221F",
"}2	c #231F1D",
"|2	c #1E1B18",
"12	c #1F1C18",
"22	c #22211E",
"32	c #252422",
"42	c #242526",
"52	c #2B2F32",
"62	c #2D2D2F",
"72	c #353633",
"82	c #373836",
"92	c #3E454A",
"02	c #0B0C0C",
"a2	c #303235",
"b2	c #3A3D40",
"c2	c #2A292A",
"d2	c #1E1D1C",
"e2	c #23211F",
"f2	c #333234",
"g2	c #333235",
"h2	c #30312F",
"i2	c #363431",
"j2	c #1D1E1D",
"k2	c #323131",
"l2	c #323231",
"m2	c #30302F",
"n2	c #353437",
"o2	c #343336",
"p2	c #2E2E2E",
"q2	c #191817",
"r2	c #1B1917",
"s2	c #181614",
"t2	c #191714",
"u2	c #1B1A18",
"v2	c #1B1A1C",
"w2	c #181A1A",
"x2	c #222221",
"y2	c #242422",
"z2	c #262523",
"A2	c #262425",
"B2	c #282726",
"C2	c #1A1B1A",
"D2	c #141413",
"E2	c #1B1A1A",
"F2	c #1E1D1B",
"G2	c #22201E",
"H2	c #201E1F",
"I2	c #252423",
"J2	c #292725",
"K2	c #2E2A2B",
"L2	c #2D2B2B",
"M2	c #181819",
"N2	c #252324",
"O2	c #272526",
"P2	c #262525",
"Q2	c #161919",
"R2	c #151816",
"S2	c #141615",
"T2	c #151616",
"U2	c #171515",
"V2	c #161614",
"W2	c #171717",
"X2	c #161716",
"Y2	c #171817",
"Z2	c #181716",
"`2	c #191B19",
" 3	c #151515",
".3	c #141514",
"+3	c #151516",
"@3	c #141616",
"#3	c #141715",
"$3	c #151614",
"%3	c #1E1E1D",
"&3	c #21201F",
"*3	c #1F1D1E",
"=3	c #262524",
"-3	c #221F20",
";3	c #201F1F",
">3	c #20211F",
",3	c #1F201F",
"  . + @ # $ % & * = - ; > , ' ) ! ~ { ] ^ / ( _ : < [ } | 1 2 3 4 5 6 7 8 9 0 a b c d e f g h i j k l m n o p q r s t u v w x y ",
"z A B C D E F G H I J K L M N O P Q R S T U V W X Y Z `  ...+.@.#.$.%.&.*.=.-.;.>.,.'.).!.~.{.].^./.(._.3 :.<.[.}.|.1.2.3.> 4.5.",
"6.7.8.9.0.a.b.c.d.e.f.g.h.i.j.k.l.m.n.o.p.q.r.s.Z t.u. .v.w.x.y.z.A.B.C.D.E.F.G.H.I.J.K.L.M.N.O.P.Q.R.S.T.U.V.W.X.Y.Z.`. +.+++@+",
"#+$+%+&+*+=+-+;+%+>+,+'+)+!+0.~+{+]+R ^+/+(+_+:+<+{+[+}+|+1+2+3+4+5+6+7+8+9+0+a+b+c+d+e+f+g+h+i+j+k+l+m+n+o+p+q+$+Z.r+s+t+u+v+w+",
"x+y+z+A+B+C+D+E+F+G+H+I+J+K+L+M+N+O+P+Q+R+S+T+U+V+W+X+Y+Z+`+ @.@+@@@#@$@%@&@*@4.=@-@;@>@,@'@)@!@~@{@]@^@/@! (@_@:@<@[@}@|@1@2@3@",
"4@5@6@7@8@9@0@a@b@c@d@e@f@g@h@i@j@k@l@m@n@o@p@q@r@s@t@u@v@w@^+x@y@z@A@B@C@D@E@F@G@H@I@J@K@L@M@N@O@P@Q@R@S@T@U@V@W@=@X@Y@Z@`@ #.#",
"+#@###$#%#&#*#=#E+W -#;#>#,#'#)#!#~#`@{#]#^#/#(#_#:#<#[#}#|#1#2#3#4#5#6#7#8#9#0#a#b#c#d#e#f#g#h#i#j#k#l#m#n#o#p#q#r#s#t#u#v#w#x#",
"y#z#A#E+B#C#D#E#F#g@G#H#I#J#K#L#M#N#O#P#Q#R#S#T#U#V#W#X#Y#Z#`# $.$+$@$#$$$%$&$*$=$-$;$>$,$'$)$!$~${$]$^$'+/$($_$:$<$[$}$|$1$2$3$",
"4$5$A#6$7$8$;+9$0$a$M+b$c$d$w e$V+f$g$h$i$j$k$l$m$n$o$p$q$r$s$t$u$v$w$x$y$z$A$B$C$D$E$F$G$H$I$J$K$L$M$N$O$P$Q$R$S$T$R$U$V$W$X$Y$",
"Z$`$ %.%+%@%#%$%%%&%*%=%-%;%>%,%'%)%!%~%{%]%^%/%(%_%Y$:%<%[%}%|%1%2%3%4%5%6%7%8%9%0%a%b%c%d%e%f%g%h%i%j%k%l%m%n%o%p%k%q%r%s%t%u%",
"V.v%w%x%y%z%A%B%C%D%E%F%G%H%I%J%K%L%M%N%8%O%P%Q%R%S%T%U%V%W%I#X%Y%Z%`% &.&+&@&#&$&%&&&*&=&-&;&>&,&'&)&!&h%~&{&]&^&/&(&_&:&<&[&}&",
"|&1&2&3&4&d.5&6&..7&8&9&0&a&b&c&d&e&f&g&h&i&j&k&l&m&n&o&p&q&r&s&t&3&u&v&w&x&y&z&A&B&C&D&E&F&G&H&I&J&K&L&'&M&N&O&P&Q&R&S&T&U&!%V&",
"W&X&Y&Z&%+`& *.*+*@*7.#*$*%*&***=*-*;*>*,*'*)*!*~*{*{*]*^*/*(*_*:*<*[*}*|*1*2*A&3*4*&$5*6*7*8*9*0*a*b*c*d*e*f*g*h*i*j*k*l*m*n*o*",
"p*q*r*r*s*t*u*v*w*x*y*z*A*B*C*D*E*F*G*H*I*J*K*L*M*N*o&O*[*^*^*P*Q*R*S*R%T*U*~*V*W*X*Y*Z*`* =.=+=@=#=$=%=&=*===-=;=>=,='=)=!=~={=",
"]=^=4./=z%(=_=:=<=[=}=z*|=1=2=3=4=5=6=7=8=9=0=a=b=c=d=z@e=f=g=h=i=j=i=k=:%l=m=n=o=p=q=r=;*s=t=u=v=w=x=y=z=A=B=C=D=E=F=G=H=I=J=K=",
"L=M=N=;+8.O=s*P=Q=R=S=T=U=V=W=X=Y=Z=`= -.-(=+-@-#-$-%-&-*-=-y@----;->-,-'-)-!-~-{-]-^-/-(-_-:-<-[-}-|-1-2-3-4-5-6-7-8-B=9-0-a-b-",
"c-d-e-f-g-h-i-j-`@8&k-l-m-n-;+o-p-q-r-s-t-q#u-v-w-x-y-z-m*A-B-C-D-E-F-G-H-I-J-K-L-M-N-O-P-Q-R-S-T-U-V-W-X-Y-Z-`-H& ;.;+;a*@;#;$;",
"%;&;*;=;-;;;>;,;';7&);!;N+~;s.Y ^.{;];^;/;(;_;:;<;[;:+};|;1;2;3;4;5;6;7;8;9;J-0;a;b;c;d;e;f;g;h;i;j;y+k;l;m;n;o;p;q;J&r;s;9*B=t;",
"u;v;w;x;y;z;A;B;C;D;E;F;G;H;I;J;K;E-L;M;N;O;P;Q;R;S;G%T;U;V;W;X;Y;Z;`; >.>+>@>#>$>%>&>*>=>:%->;>>>,>t.> '>)>!>~>{>]>^>/>(>_>:><>",
"o+[>}>J-|>1>q*2>3>4>5>6>'-7>8>9>0>I#a>b>c>d>e>f>g>h>i>j>k>l>m>n>o>p>q>r>s>D-t>u>v>w>x>y>z>A>`@B>C>'>`@K;H;D>E>J&F>G>H>9*I>J>K>L>",
"M>N>O>P>Q>R>S>:$T>U>V>W>X>Y>Z>`>0> ,.,+,@,#,$,%,&,*,=,-,!$;,>,,,',),!,~,{,],^,/,(,_,I#:,<,]*[,},|,1,2,|,3,4,5,6,p%7,8,a*9,0,a,b,",
"c,d,Z&e,>;f,4&g,h,i,j,k,l,m,n,o,p,q,r,s,t,u,v,w,x,y,z,A,B,T$>,0&0&C,$*',D,E,F,G,H,I,J,K,L,M,{%A$N,O,P,Q,7&R,S,T,U,V,'$W,X,Y,Z,V,",
"`,s.f, '.'+'@'#'$'%'&'*'='-';'7#T >','''2*)'!'~'{']'k*k*.,^'/'('_':' &<'['}'|'1'2'3'4'5'M,{*{%6'7'8'9'0'a'u b'c'd'e'f'g'h'i'j'k'",
"M=x;l'm'g-n'o'p'q'r's't'u'v'w'x'y'{%T*V*z'A'B'C'D'E'F'7>G'>@',H'I'G%J'E*K'L'M'N'O'P'Q'R'S'T'U'~,V'W'X'-;Y'Z'`' ).)+)@)#)$)%)&)*)",
"=)O>-);)>)P>,)Z&')))!)~){)])^)1,e=/)(),'_):)<)[)})|)}'1)2)3):)q,4)5)6)2)7)Y>W'8)9)0)a){=[*b)U'c){%',d)e)t>f)g)h)i)j)k)l)m)b*n)+;",
"o)8.p)q)>;q)r)-)s)t)u)v)_.v'w)x)y)z)A){%B)C)D)E)F)G)m@H)I)J+:)I)J)K)L)L)>>o,M)N)O)P)I)Q)]*R)S)U*T)-%U)E+V)W)X)Y)Z)`) !.!+!@!#!9*",
"a.$!:+j-%!&!Z&*!=!-!;!>!,!'!)!!!~!{!]!^!/!(!1$_!:!<![!G+}!|!{,y'1!1!',2!2![$}$3!4!5!I)2 0>6!7!]*8!9!0!a!;*b!c!d!e!W%f!g!h!i!a,j!",
"k!-#l!<$W e-i-m!n!o!p!q!r!s!t!4*u!v!w!`>x!y!D,z!A!B!R&('L,C!D!E!G'F!G!H!I!^+J!K!L!M!P$G%y'N!O!P!A>Q!R!S!T!U!V!W!X!Y!Z!`! ~)=.~+~",
"a.$!@~#~$~%~&~*~=~-~;~>~,~'~.,)~!~m%~~{~]~^~/~(~_~:~<~[~}~|~[!!,G!1!>@B>1~2~3~4~5~6~E-W)7~2,8~9~0~a~b~c~d~e~f~g~h~i~}'j~k~(!;-W'",
"l~m~n~o~p~u'q~r~n@s~t~u~v~w~x~y~z~A~8%!,B~i$C~D~E~F~G~H~I~J~K~L~M~N~O~P~Q~R~S~T~U~V~K)W~s>H'X~Y~Z~`~C& {.{+{@{'>#{${%{&{*{={-{;{",
">{o'n',{'{){!{~{{{]{f@^{/{({_{:{j%<{[{L)I)}{|{1{2{3{m+4{5{6{7{8{9{0{7%a{b{c{d{e{f{g{R h{i{L'!!j{k{l{m{e=n{o{p{q{x;r{s{, t{u{v{w{",
"x{y{z{S.A{B{C{D{E{F{G{H{I{J{K{L{M{N{O{I'` P{Q{R{S{T{o&U{V{W{X{Y{Z{`{ ].]+]@]#]$]%]&]*]B>=]-];]>],]P!'])]!]~]{]]]^]-#/](]f!_]:]<]",
"[]}]|]1]2]3]4]5]6]7]8]9]0]a]b]c]d]/@e]i{f]g]h]i]j]k]l]`>:%m]:%n]o]/*/*N*N*+,i=p]q]r]s]t]u]v]w]x]y]z]O=A]B]C]D]E]F]G]H]I]J]t> &('",
"K]L]M]N]O]P]Q]R]S]T]U]{%V]W]X]Y]K Z]2)J'`] ^.^+^@^#^$^',c)%^&^*^=^=^-^c$;^e=>^,^'^)^!^I'~^{^,'M)]^^^/^o)[,8{1)(^_^:^<^[^}^G]|^1^",
"2^3^4^5^6^7^8^9^0^V)a^1)b^c^M{d^(*e^U]L'f^g^h^i^j^k^l^z'^'m^n^o^p^q^p^r^2!^'2*s^t^u^v^H'K;y'`!R&w^x^w+9=-]C-|'y^z^A^B^C^c@G+D^%+",
"E^F^G^H^I^J^K^L^M^,,!=N^O^<$P^(*3)>,t]J;E-!%Q^R^S^T^;,Q+U^V^n+r%r%W^r%r%''X^Y^Z^%]`^ /./O=6)E*+/s.@/#/K$$/y@y@%/&/*/=/-/;/>/d.W ",
",/'/)/!/~/{/]/^///(/_/:/</[/}/|/3)7)I#1/P!2/3/4/5/6/7/8/Q)|/m&9/S%S%0/a/b/{#c/d/e/f/g/D!O#M%5):)p&h/i/j/k/l/m/<~n/o/p/q/r/M d.s/",
"t/u/v/w/x/y/z/A/B/C/o^D/E/F/G/U'!,E!H/$*,>,>I/J/K/L/M/r&N/O/P/Q/R/R/0/I]S/T/U/V/W/X/Y/Z/`/ (>].(+(@(#($(%(F!&(*(=(-(;(>(++,('(X ",
")(!(~({(](^(/(((_(:(<([(}(|(1(2(@>C! &0&P!1/3(4(5(6(7(8(C-9(I=0/Q/0/0(a(.&b(c(d(e(f(g(2$)+I#h(@>/'i(P!)+j(k(l(m(n(o(o(p(q(r/r*` ",
"r(s(t(u(v(w(x(y(z(2]A(B(J$C(>@Q+7)0&0&0&w#D(E(F(G(H(2!I(J(K(L(Q/0/Q/M(N(O(P(Q(R(S(T(U(V(W(2/D!X(!,Y(Z(`( _._+_@_#_G@$_')%_&_` x#",
"*_=_-_;_>_,_'_)_!_;;~_{_b]I)+,:)G%$*$*t>k*X(]_^_/_(___:_J$<_[_}_R/0/|_1_2_3_4_5_6_7_8_9_J'C,C,X(,,0_a_b_c_d_Y{e_p'f_g_h_;/> i_j_",
"k_l_m_n_o_p_^ q_1&r_s_t_G$H'2(!,J'$*t]t]u_v_w_x_y_z_A_2(B_C_D_0/D_0/Q/D_U'N{/'E_F_G_H_I_I#B~I#t]:'^'J_K_L_M_N_O_P_W e~d.U+`@Q_v#",
"R_p~S_T_U_V_P+/-=@W_X_Y_Z_/'`_:' :.:D(+:@:#:$:%:&:*:=:-:}_D_S%;:9/n&D_D_o&a~=:&)>:,:':m,J'X(S$):K,I+W^!:~:{:]:X_U);(1>^:/:V/(:_:",
"E^S.::<:<:[:~_}:|:1:2:3:4:5:>*O{6:t>7:8:9:0:a:b:c:d:e:f:g:D_D_{*#]S%#]D_G>q%{,{>h:i:j:k:J'I)J'>,l:}'R& :m:n:o:p:q:++O>r:s:t:u:e,",
"v:w:x:y:z:A:B:C:p:D:,{E:|!3)),F:!, :G:H:I:J:K:L:M:N:^+U'O:{*9/S%9/P:^*^*Q:R:a~S:T:U:V:W:X:t>d)O{:'),Y:Z:`: <.<+<@<#<$<w#a^o(g_t:",
"%<&<-_*<=<-<;<><,<'<)<!<+,~<`_:'U]O{{<z(]<^</<(<_<:<D_<<^*[<9/{*S%9/{*^*V{U{V*}<|<1<2<3<4<5<H'),6<|!K 5:7<8<9<0<n'Y a<> 1/b<y+.+",
"c<d<e<H^f<g<h<i<j<w/k<W^+,+,:%:),,l<m<n<I'5)o<p<q<r<s<T.#]S%{*9/#]D_D_D_t<u<v<w<x<y<z<A<Q{B<j~L,x@e^[&g=>'C<D<E<F<:$G<j-,>k<-#H<",
"I<J<K<L<M<N<O<P<Q<R<S</@T<Y(U<V<W<X<R$C>!-Y<}'Z<`< [s<.[D_9/9/9/9/S%Q/0/+[@[#[$[%[&[*[=[-[q,Z>`_;[Y:g=v]>[,['[=;)[![p)~[G;<$:+`]",
"{[][^[/[([x(_[:[<[8<:$N{2([[x~Y(}[V'j>|[1[2[r,3[4[5[D_;:n&n&9/n&n&n&n&n&6[7[]*8-8[9[A_0[a[',K,b[v]+,g=v]R&6)2$c[d[a<a<e[b!')k<f[",
"g[h[i[j[k[l[m[n[o[p[q[()r[Y(s[A_Q+-]U]t[u[v[_*w[x[y[D_;:;:n&n&n&0/;:z[;:n&Q/q%A[B[C[U'D[E[F[G[i=Y:c)Y(]&H[I[J[g_K[L[Q_W S<;/M[N[",
"O[P[Q[R[E+S[+-f,S]l'0>T[Y(Y(U[V[W[j=X[Y[Z[`[|* }}*.}Q/0/n&n&0/;:;:;:n&;:n&6[6[ }_)}*_)+}@}#}$}%}y)+,+,b/d=f$&},(q#h,g_h_++7~*}=}",
"-};}>},}-;'})}!}Y o(N,~}{}]}^}/}(}_}:}<}[*|*[}}*U'M,;:;:0/0/0/Q/Q/0/0/0/0/}}|}~*T*[}T<T<v]1}2}3}4}5}6}7}H#K;U+8}r'O>;/~[X~9}b#0}",
"q{O @~A/a}A/b}m'P>c}d}e}f}D,g}R:R:Z:h}8%a~}*H[}*i}|_D_D_D_A;j}k}_*s,<<n&T'm&}}<<l}m}:*n}:%N*}*s<o}g}$*p}q}_/W r}s}t}B;~[_/G;u.u}",
"v}8}w}x}N x;y}=@z}@%%+A}k'B}C}l:D}K.:%3)T)8%(*]&E}C_~,t>b#L%F}G}0:~[H}I}V^}*J}4*4*/*+,',b[m] }`~}!D^K}l{L}P!a<> b^u.u.Y b#X~:+G;",
"M}N}..q#2.b&O}a_P}a_Q}R}S}T}:[U}V}W}M*%^)=Q)X}(*>@Y}s/<+1@Z}%-`};/ |1&+'.|Q_+|K'n]s[F:@|#|Y:$|%|F<V-q@x'&|&~j-*|j-S>%!=|-|0}p(;|",
">|x ,|C+l~,#'|)|!|~|{|X}]|^|/|(|_|:|<|/'b[`_/'z%[|}|o(G]G]||1|2|=}3|F<{{Z!Q_V)4|_)()8%<'<'(*b[&!5|-#~#6|7|8|b!G+W k<9|X 0|a|K;b|",
"x P~c|d|F !+e|f|g|h|i|M*j|k|l|m|n|S}m+ ~o|A>/*p|s/q|>>w#'>r|s|t|--b<|@u|M&v|w|x|''B_()y|Q)z|A|B|C|>%G#D|E|u+F;:$F|d.G|%_s>M%K;H|",
"L=I|M=d.|>J|K|L|s*M|N|[&O|P|Q|R|$|S|n}Y:_)()_)T|x;W `@<$l!_=U|V|W|K;C|X|V%Y|Z|W%k&`| 1.1+1@1#1$1'(%1&1K;{&'>b!S>d.*18&&_I;=1-1;1",
">1,1*@1>v}'1)1~;=@q#O>!1~1{1]1^1/1{ 6&(1_1:1q%<1q|z]l!f[[1}1)'|111211>31Y|41m<51.1`|$|617181%'9101a1b1K;c1d1~;%!t.z;=@$<3.H!y!I#",
"e1f17&b!d1r}G|g1h1i1z%p%j1k1%'R>l1m1n1N_o1H'p10(q1a<l!k<r}r1s1t1u1v1w1}!x1y1z1A1B_0~B1C1D1E1F1G1H1I1J1M%K1C|L1M1Y}q|R]N1~;'>O11/",
"P1Q1R1S1T1f&U1V1G|e./$W1X1o#Y1~-Z1`1 2Z1.2+2(=Q_@2`@~[g1}>#2$2%2&2*2=2`@<]Q(2~-2`,L|x);2>2,2i<'2)2!2~2{+~%f[%+{2]23~T$^2Y}9=S<s/",
"/2*+z%'((2t}_2:2a!U+W)R:<2c{[2}2|2122232425262P 7282G+V-w}92p$02a2b2O#c2d2e2r^f2g28|u!Q:L'h2i2)[F<-+C+K)j2/;V/k2l2D!D!m2x#n2'>o2",
"'-=1T$p2t]R$O,)=O,!=:)'+q2m%l%r2s2t2u2{&v2w28%x2y2z2A2B2B2L,C2D22(/'7|h}Q:E2F2G2A@H2v2T.8%; I2J2f!K2L2{,M2|!['m@_'m@Y^N2O2<(P2;,",
"}'}'`!T){,/'M)c17|E|(*Q2R2S2T2g!U2V2Y]W2.}T2X2Y2Z2g!X2X2'+W2`2R} 3.3d^+3T2@3#3$3 3}&U'B_}*[&%3&3&3A@*3R&>*}'>@#1=3A2@17/-3;3>3,3"};
