/* XPM */
static char * pdroit_xpm[] = {
"64 64 2969 2",
"  	c #60676D",
". 	c #595E64",
"+ 	c #5A5E63",
"@ 	c #5B5F63",
"# 	c #595E61",
"$ 	c #53585D",
"% 	c #585E61",
"& 	c #575C60",
"* 	c #5A6064",
"= 	c #52585E",
"- 	c #4A5055",
"; 	c #212221",
"> 	c #373839",
", 	c #474C4F",
"' 	c #505658",
") 	c #4D5456",
"! 	c #4A5053",
"~ 	c #494E50",
"{ 	c #434647",
"] 	c #232121",
"^ 	c #2E3132",
"/ 	c #51585D",
"( 	c #54595C",
"_ 	c #4E5052",
": 	c #4A4C4C",
"< 	c #47484B",
"[ 	c #4B4C4E",
"} 	c #525355",
"| 	c #4E5154",
"1 	c #505457",
"2 	c #2E3030",
"3 	c #1A1C1B",
"4 	c #5D666B",
"5 	c #5A6167",
"6 	c #545858",
"7 	c #555452",
"8 	c #4E4B4A",
"9 	c #4A4547",
"0 	c #544F4C",
"a 	c #5B514A",
"b 	c #655953",
"c 	c #5A4E4D",
"d 	c #514947",
"e 	c #2B2722",
"f 	c #5B453A",
"g 	c #70584E",
"h 	c #6E5F5A",
"i 	c #6F6661",
"j 	c #696562",
"k 	c #666362",
"l 	c #5A5556",
"m 	c #3F3A3A",
"n 	c #1B1B17",
"o 	c #545D60",
"p 	c #5F666B",
"q 	c #5E6366",
"r 	c #585D5E",
"s 	c #4B4E52",
"t 	c #4E5051",
"u 	c #4A4C4D",
"v 	c #424446",
"w 	c #3F4044",
"x 	c #43474B",
"y 	c #494A50",
"z 	c #5B6066",
"A 	c #4C4F52",
"B 	c #4B4D4E",
"C 	c #505252",
"D 	c #515354",
"E 	c #4A4D4F",
"F 	c #47484A",
"G 	c #4B4C4D",
"H 	c #4A4A4C",
"I 	c #494C50",
"J 	c #3B3F44",
"K 	c #1B1D1C",
"L 	c #2F3231",
"M 	c #3C3E41",
"N 	c #3F3F3F",
"O 	c #363435",
"P 	c #313030",
"Q 	c #363534",
"R 	c #303131",
"S 	c #1E1C1B",
"T 	c #303334",
"U 	c #4F5960",
"V 	c #464B4D",
"W 	c #3B3A3B",
"X 	c #3A3B3B",
"Y 	c #3A3A3B",
"Z 	c #3C3D3C",
"` 	c #3A3C3C",
" .	c #3C3E3E",
"..	c #404345",
"+.	c #242727",
"@.	c #5B656A",
"#.	c #5D6468",
"$.	c #4E4C4B",
"%.	c #4E4641",
"&.	c #51463E",
"*.	c #4A3C37",
"=.	c #503F39",
"-.	c #574339",
";.	c #5B463D",
">.	c #5B4C47",
",.	c #4F4743",
"'.	c #272522",
").	c #4B3328",
"!.	c #5D3E31",
"~.	c #5D4338",
"{.	c #58443A",
"].	c #4D3C37",
"^.	c #594D48",
"/.	c #544A47",
"(.	c #363130",
"_.	c #4A5054",
":.	c #53565B",
"<.	c #55575A",
"[.	c #555758",
"}.	c #454748",
"|.	c #454444",
"1.	c #3E3C3E",
"2.	c #363538",
"3.	c #424445",
"4.	c #45484C",
"5.	c #575E62",
"6.	c #484B4C",
"7.	c #3E3E3F",
"8.	c #414143",
"9.	c #464849",
"0.	c #434345",
"a.	c #434444",
"b.	c #464745",
"c.	c #3E3F40",
"d.	c #424647",
"e.	c #353A3C",
"f.	c #131414",
"g.	c #282B2E",
"h.	c #404144",
"i.	c #424342",
"j.	c #333231",
"k.	c #2C2B2A",
"l.	c #302F2E",
"m.	c #262729",
"n.	c #1A1919",
"o.	c #303637",
"p.	c #505C63",
"q.	c #464B4F",
"r.	c #3B3B3C",
"s.	c #393A3B",
"t.	c #3A3C3D",
"u.	c #3B3E3F",
"v.	c #404448",
"w.	c #252729",
"x.	c #17191A",
"y.	c #59636A",
"z.	c #585F67",
"A.	c #403B3C",
"B.	c #463A34",
"C.	c #504034",
"D.	c #4C3A30",
"E.	c #534138",
"F.	c #544036",
"G.	c #4A3530",
"H.	c #534440",
"I.	c #494440",
"J.	c #1A1C1C",
"K.	c #37231B",
"L.	c #543729",
"M.	c #553A2D",
"N.	c #472F27",
"O.	c #473129",
"P.	c #4C3932",
"Q.	c #51433E",
"R.	c #3B3432",
"S.	c #181718",
"T.	c #44474F",
"U.	c #505258",
"V.	c #4F5154",
"W.	c #505253",
"X.	c #505050",
"Y.	c #494848",
"Z.	c #39373A",
"`.	c #323034",
" +	c #333436",
".+	c #3B3D3E",
"++	c #414245",
"@+	c #53595F",
"#+	c #434446",
"$+	c #3D3D3D",
"%+	c #3E3E41",
"&+	c #424447",
"*+	c #3E3E42",
"=+	c #424041",
"-+	c #424141",
";+	c #414442",
">+	c #35393B",
",+	c #161616",
"'+	c #2D2F30",
")+	c #474A4C",
"!+	c #393A3E",
"~+	c #37393B",
"{+	c #3E3F3C",
"]+	c #1C1B1C",
"^+	c #2A3033",
"/+	c #4C5960",
"(+	c #464C4F",
"_+	c #3B3C3C",
":+	c #383A3A",
"<+	c #383C3C",
"[+	c #3B3E3E",
"}+	c #61B1B1",
"|+	c #2FA5A3",
"1+	c #58B2B0",
"2+	c #22ADAB",
"3+	c #21B3B1",
"4+	c #20B3B1",
"5+	c #1FB3B0",
"6+	c #20B1AE",
"7+	c #32B1AE",
"8+	c #6DBFBF",
"9+	c #5ABAB9",
"0+	c #4B3D36",
"a+	c #504441",
"b+	c #4A4644",
"c+	c #1C1E1B",
"d+	c #2B1A13",
"e+	c #41281D",
"f+	c #462D23",
"g+	c #3B251E",
"h+	c #433027",
"i+	c #4C3931",
"j+	c #4C3C36",
"k+	c #322927",
"l+	c #181818",
"m+	c #4A4F54",
"n+	c #5D5F63",
"o+	c #555759",
"p+	c #454142",
"q+	c #363136",
"r+	c #313033",
"s+	c #2F3033",
"t+	c #343539",
"u+	c #3A3B3E",
"v+	c #4E545A",
"w+	c #3D3E3F",
"x+	c #3B3C39",
"y+	c #404241",
"z+	c #444649",
"A+	c #454546",
"B+	c #42413F",
"C+	c #3D3937",
"D+	c #363233",
"E+	c #383838",
"F+	c #303437",
"G+	c #1A191A",
"H+	c #333435",
"I+	c #4A4F50",
"J+	c #4B5152",
"K+	c #43494C",
"L+	c #3F4648",
"M+	c #424745",
"N+	c #353837",
"O+	c #1D1D1F",
"P+	c #2A3234",
"Q+	c #4B5960",
"R+	c #444C4F",
"S+	c #393B3D",
"T+	c #373B3C",
"U+	c #373B3D",
"V+	c #77B6B6",
"W+	c #359E9C",
"X+	c #2E8987",
"Y+	c #337F7C",
"Z+	c #3C7776",
"`+	c #3B7F7E",
" @	c #3C8785",
".@	c #3A8785",
"+@	c #3B8684",
"@@	c #398481",
"#@	c #368986",
"$@	c #2F9692",
"%@	c #2AA5A3",
"&@	c #23B2B1",
"*@	c #4BB9B8",
"=@	c #59B8B6",
"-@	c #64B8B8",
";@	c #222223",
">@	c #30221B",
",@	c #3C281E",
"'@	c #3F2C23",
")@	c #362421",
"!@	c #342420",
"~@	c #42322B",
"{@	c #41322D",
"]@	c #2D2624",
"^@	c #191A1A",
"/@	c #585C5E",
"(@	c #4E4F52",
"_@	c #454548",
":@	c #474647",
"<@	c #413D3F",
"[@	c #3C393A",
"}@	c #3B3A3A",
"|@	c #353738",
"1@	c #343639",
"2@	c #36363A",
"3@	c #4A4F58",
"4@	c #3B3C3E",
"5@	c #3F3F3B",
"6@	c #3F3E3C",
"7@	c #414140",
"8@	c #484743",
"9@	c #43403C",
"0@	c #3D3935",
"a@	c #373030",
"b@	c #373435",
"c@	c #313436",
"d@	c #181717",
"e@	c #343635",
"f@	c #474C4E",
"g@	c #454E50",
"h@	c #434B4F",
"i@	c #3F4649",
"j@	c #3F4342",
"k@	c #3F4241",
"l@	c #252424",
"m@	c #2C3335",
"n@	c #4D5B62",
"o@	c #424B4F",
"p@	c #383C3D",
"q@	c #449798",
"r@	c #298E8E",
"s@	c #34827F",
"t@	c #397875",
"u@	c #415E5D",
"v@	c #445A59",
"w@	c #455A58",
"x@	c #425453",
"y@	c #3E4F4D",
"z@	c #415553",
"A@	c #455B59",
"B@	c #465D5A",
"C@	c #475F5C",
"D@	c #427F7B",
"E@	c #3F7776",
"F@	c #3C7B79",
"G@	c #3A7D7D",
"H@	c #328183",
"I@	c #419192",
"J@	c #67BCBD",
"K@	c #3D2A20",
"L@	c #38261E",
"M@	c #35241E",
"N@	c #362823",
"O@	c #3E302A",
"P@	c #463833",
"Q@	c #322C29",
"R@	c #151716",
"S@	c #41484A",
"T@	c #515355",
"U@	c #4C4B4F",
"V@	c #434344",
"W@	c #404040",
"X@	c #403D3E",
"Y@	c #3D393B",
"Z@	c #3C3C39",
"`@	c #363637",
" #	c #323337",
".#	c #313236",
"+#	c #4B5158",
"@#	c #3A3C3E",
"##	c #3B3C38",
"$#	c #3E3B38",
"%#	c #413E3D",
"&#	c #48433F",
"*#	c #3C3434",
"=#	c #403A37",
"-#	c #3A3B3D",
";#	c #1A1A16",
">#	c #2F3131",
",#	c #43474A",
"'#	c #3E4648",
")#	c #495354",
"!#	c #464E4F",
"~#	c #35383B",
"{#	c #252223",
"]#	c #323A3A",
"^#	c #4F5D62",
"/#	c #414C4F",
"(#	c #373D3E",
"_#	c #477E7F",
":#	c #237172",
"<#	c #306666",
"[#	c #396565",
"}#	c #3F5C5B",
"|#	c #43605F",
"1#	c #436160",
"2#	c #42605E",
"3#	c #3E5A58",
"4#	c #39514F",
"5#	c #344544",
"6#	c #3B4847",
"7#	c #465251",
"8#	c #444F4F",
"9#	c #444E4E",
"0#	c #435453",
"a#	c #435454",
"b#	c #435757",
"c#	c #3E6C6C",
"d#	c #2BAAAA",
"e#	c #43A1A6",
"f#	c #2F201A",
"g#	c #271B17",
"h#	c #2E211E",
"i#	c #3B2F29",
"j#	c #352A24",
"k#	c #42362F",
"l#	c #342E2A",
"m#	c #181918",
"n#	c #3C4043",
"o#	c #464749",
"p#	c #414144",
"q#	c #434343",
"r#	c #404240",
"s#	c #393638",
"t#	c #353233",
"u#	c #343332",
"v#	c #343333",
"w#	c #353536",
"x#	c #353435",
"y#	c #4B535A",
"z#	c #393B3F",
"A#	c #393736",
"B#	c #433C3A",
"C#	c #453E3B",
"D#	c #403A39",
"E#	c #424240",
"F#	c #424645",
"G#	c #3D4144",
"H#	c #191916",
"I#	c #2D2D2E",
"J#	c #3E4044",
"K#	c #43484D",
"L#	c #464F50",
"M#	c #434849",
"N#	c #323538",
"O#	c #323335",
"P#	c #252323",
"Q#	c #303738",
"R#	c #4B5A5E",
"S#	c #404A4C",
"T#	c #6E8181",
"U#	c #185B5D",
"V#	c #264F50",
"W#	c #323839",
"X#	c #343638",
"Y#	c #3D4949",
"Z#	c #3E4849",
"`#	c #3F4445",
" $	c #3E4343",
".$	c #3E4444",
"+$	c #41504F",
"@$	c #3F6461",
"#$	c #405E5D",
"$$	c #434B4C",
"%$	c #434A4A",
"&$	c #425151",
"*$	c #289C9C",
"=$	c #34AEAD",
"-$	c #1C1514",
";$	c #211918",
">$	c #1E1717",
",$	c #231B1A",
"'$	c #2D2420",
")$	c #2E2621",
"!$	c #372E27",
"~$	c #292320",
"{$	c #393C3E",
"]$	c #3B3D3F",
"^$	c #393A3C",
"/$	c #3D3E3E",
"($	c #383839",
"_$	c #302E30",
":$	c #2F2D2F",
"<$	c #323030",
"[$	c #2F2E2F",
"}$	c #302F30",
"|$	c #2C2B2D",
"1$	c #54595F",
"2$	c #3A3B3F",
"3$	c #373131",
"4$	c #403938",
"5$	c #46413E",
"6$	c #3C4143",
"7$	c #3D4548",
"8$	c #495154",
"9$	c #1D1C19",
"0$	c #2F2E2E",
"a$	c #3B3B3F",
"b$	c #45494B",
"c$	c #373B3B",
"d$	c #343837",
"e$	c #21211F",
"f$	c #2D3132",
"g$	c #3B4449",
"h$	c #3C4344",
"i$	c #6F8080",
"j$	c #1A5B5D",
"k$	c #244C4D",
"l$	c #2D3031",
"m$	c #323435",
"n$	c #353839",
"o$	c #393D3D",
"p$	c #404445",
"q$	c #404545",
"r$	c #404546",
"s$	c #404646",
"t$	c #3B6361",
"u$	c #3B6B68",
"v$	c #405554",
"w$	c #414B4C",
"x$	c #2A8B8B",
"y$	c #1CA0A2",
"z$	c #3FEEEB",
"A$	c #7FF9F5",
"B$	c #141010",
"C$	c #151113",
"D$	c #211C1D",
"E$	c #261F1D",
"F$	c #221B19",
"G$	c #211A19",
"H$	c #1B1617",
"I$	c #121112",
"J$	c #2C2D2F",
"K$	c #2E2E30",
"L$	c #29282A",
"M$	c #2C2C2E",
"N$	c #2E2D2E",
"O$	c #2A292B",
"P$	c #2C2B2B",
"Q$	c #262427",
"R$	c #222023",
"S$	c #201E20",
"T$	c #4F5359",
"U$	c #424143",
"V$	c #3A3837",
"W$	c #3E3A35",
"X$	c #433D39",
"Y$	c #403E3E",
"Z$	c #434648",
"`$	c #414648",
" %	c #404649",
".%	c #444A4E",
"+%	c #414447",
"@%	c #1F1D1A",
"#%	c #2B2A2A",
"$%	c #404142",
"%%	c #414445",
"&%	c #444A4A",
"*%	c #3E4546",
"=%	c #3A4043",
"-%	c #2B2E31",
";%	c #1F1F1E",
">%	c #1F2022",
",%	c #33383C",
"'%	c #383C3E",
")%	c #868E90",
"!%	c #204547",
"~%	c #203D3F",
"{%	c #28363B",
"]%	c #303132",
"^%	c #353838",
"/%	c #3B3F40",
"(%	c #404547",
"_%	c #3F4547",
":%	c #404446",
"<%	c #3F4345",
"[%	c #3E4344",
"}%	c #3F4B4B",
"|%	c #3C5050",
"1%	c #298B8C",
"2%	c #257476",
"3%	c #218988",
"4%	c #38EFEA",
"5%	c #6BF5F3",
"6%	c #120E10",
"7%	c #161215",
"8%	c #1B1717",
"9%	c #171412",
"0%	c #171415",
"a%	c #181414",
"b%	c #171314",
"c%	c #131213",
"d%	c #191717",
"e%	c #1A1918",
"f%	c #1D1D1D",
"g%	c #1E1E1C",
"h%	c #181817",
"i%	c #161618",
"j%	c #191819",
"k%	c #161515",
"l%	c #110F10",
"m%	c #110F11",
"n%	c #484747",
"o%	c #3D3B38",
"p%	c #3C3835",
"q%	c #3F3B39",
"r%	c #3D3E40",
"s%	c #434848",
"t%	c #434949",
"u%	c #414649",
"v%	c #404549",
"w%	c #3A3D41",
"x%	c #1C1B18",
"y%	c #2A2B2B",
"z%	c #3F4142",
"A%	c #454A49",
"B%	c #444B49",
"C%	c #394041",
"D%	c #383D40",
"E%	c #323436",
"F%	c #212120",
"G%	c #1C1C1D",
"H%	c #303338",
"I%	c #79797A",
"J%	c #434443",
"K%	c #3B3E3C",
"L%	c #3D403E",
"M%	c #363A3A",
"N%	c #283E41",
"O%	c #2D3639",
"P%	c #2E2F30",
"Q%	c #2F2E30",
"R%	c #333335",
"S%	c #3D4244",
"T%	c #3E4345",
"U%	c #3D4445",
"V%	c #3E4B4D",
"W%	c #2F7B79",
"X%	c #1E8889",
"Y%	c #265256",
"Z%	c #1BB2B4",
"`%	c #3CECEB",
" &	c #7DF5F3",
".&	c #161213",
"+&	c #171213",
"@&	c #1C1714",
"#&	c #1A1716",
"$&	c #141213",
"%&	c #141013",
"&&	c #191517",
"*&	c #1E1B1B",
"=&	c #1E1D1D",
"-&	c #18181A",
";&	c #141414",
">&	c #10100F",
",&	c #111010",
"'&	c #0E0E0F",
")&	c #121211",
"!&	c #171616",
"~&	c #1A1B1B",
"{&	c #151415",
"]&	c #46484D",
"^&	c #3D3D3E",
"/&	c #3A3634",
"(&	c #373432",
"_&	c #3C3B3A",
":&	c #3E4242",
"<&	c #424545",
"[&	c #414546",
"}&	c #414345",
"|&	c #1E1E19",
"1&	c #2C2B2C",
"2&	c #3B3C40",
"3&	c #3B3C3F",
"4&	c #3B3F41",
"5&	c #32383A",
"6&	c #383E3F",
"7&	c #36393B",
"8&	c #1B191D",
"9&	c #202222",
"0&	c #535353",
"a&	c #363837",
"b&	c #3C3F3E",
"c&	c #3E4141",
"d&	c #454A4A",
"e&	c #4D5351",
"f&	c #444948",
"g&	c #3B4040",
"h&	c #33383A",
"i&	c #2A2C2E",
"j&	c #272629",
"k&	c #2D2C2F",
"l&	c #313032",
"m&	c #353436",
"n&	c #3B3E40",
"o&	c #405357",
"p&	c #307877",
"q&	c #323B3B",
"r&	c #3C4948",
"s&	c #287A79",
"t&	c #35B2B2",
"u&	c #9FCFCE",
"v&	c #1C1512",
"w&	c #1D1615",
"x&	c #1C1413",
"y&	c #1A1516",
"z&	c #171313",
"A&	c #1D1919",
"B&	c #1B1719",
"C&	c #2E2A2A",
"D&	c #2E2B2B",
"E&	c #272324",
"F&	c #221E1D",
"G&	c #1C1A1A",
"H&	c #1E1E1F",
"I&	c #232629",
"J&	c #293032",
"K&	c #272C2F",
"L&	c #222225",
"M&	c #45454A",
"N&	c #39383C",
"O&	c #393837",
"P&	c #3C3C3B",
"Q&	c #3B3D3D",
"R&	c #3E4243",
"S&	c #424646",
"T&	c #464A4B",
"U&	c #1C1C17",
"V&	c #2C2C2C",
"W&	c #3F4043",
"X&	c #3E3F43",
"Y&	c #323236",
"Z&	c #2F3334",
"`&	c #373C3A",
" *	c #202020",
".*	c #262828",
"+*	c #4B4C4C",
"@*	c #343434",
"#*	c #393A3A",
"$*	c #453B39",
"%*	c #553530",
"&*	c #424444",
"**	c #393C3C",
"=*	c #434747",
"-*	c #3C4041",
";*	c #303234",
">*	c #28292B",
",*	c #323B3D",
"'*	c #376766",
")*	c #2E7171",
"!*	c #252A2C",
"~*	c #273335",
"{*	c #1D1F20",
"]*	c #2C3C3B",
"^*	c #2E3B3D",
"/*	c #93A0A3",
"(*	c #201614",
"_*	c #1B1311",
":*	c #1E1614",
"<*	c #261D1C",
"[*	c #1D1614",
"}*	c #201815",
"|*	c #241E1C",
"1*	c #1C1A18",
"2*	c #2A2221",
"3*	c #251C1C",
"4*	c #211818",
"5*	c #2B231F",
"6*	c #221C1B",
"7*	c #241F1F",
"8*	c #2C2D2E",
"9*	c #343A3A",
"0*	c #2D3234",
"a*	c #26282C",
"b*	c #1F1F22",
"c*	c #47494D",
"d*	c #3E4042",
"e*	c #3E4142",
"f*	c #3C4142",
"g*	c #3F4446",
"h*	c #43494B",
"i*	c #454A4D",
"j*	c #484C50",
"k*	c #45474A",
"l*	c #1D1B17",
"m*	c #2D2D2B",
"n*	c #3D3F42",
"o*	c #3D4043",
"p*	c #2E2F32",
"q*	c #282929",
"r*	c #313331",
"s*	c #333432",
"t*	c #1B1918",
"u*	c #262929",
"v*	c #757877",
"w*	c #727472",
"x*	c #747778",
"y*	c #233B3C",
"z*	c #1F6967",
"A*	c #217B76",
"B*	c #1F7872",
"C*	c #207C77",
"D*	c #1F7A75",
"E*	c #228079",
"F*	c #292D2E",
"G*	c #2B2C2D",
"H*	c #303030",
"I*	c #333434",
"J*	c #363738",
"K*	c #373E3F",
"L*	c #374C4D",
"M*	c #343F40",
"N*	c #61463C",
"O*	c #7D4932",
"P*	c #82675B",
"Q*	c #75706E",
"R*	c #131110",
"S*	c #120C0E",
"T*	c #1E1515",
"U*	c #1D1514",
"V*	c #261C18",
"W*	c #2B221F",
"X*	c #1F1716",
"Y*	c #241B1A",
"Z*	c #27201E",
"`*	c #1B1819",
" =	c #251C1F",
".=	c #201716",
"+=	c #1D1413",
"@=	c #231A1A",
"#=	c #201A18",
"$=	c #191312",
"%=	c #24201E",
"&=	c #2B2B2A",
"*=	c #282728",
"==	c #2A2928",
"-=	c #211F1F",
";=	c #3F4246",
">=	c #414346",
",=	c #3C3D3F",
"'=	c #3C3E40",
")=	c #393D40",
"!=	c #3D4245",
"~=	c #454B4E",
"{=	c #45494D",
"]=	c #414244",
"^=	c #262726",
"/=	c #37393C",
"(=	c #2E3033",
"_=	c #292829",
":=	c #2B292B",
"<=	c #272528",
"[=	c #696E6C",
"}=	c #5B605D",
"|=	c #40524C",
"1=	c #2B5451",
"2=	c #285F5E",
"3=	c #19817E",
"4=	c #276D6B",
"5=	c #2F5A59",
"6=	c #36807C",
"7=	c #436563",
"8=	c #416A68",
"9=	c #397774",
"0=	c #27ADAA",
"a=	c #28B2AC",
"b=	c #26B1AB",
"c=	c #258B87",
"d=	c #255050",
"e=	c #252A2B",
"f=	c #2D2E2F",
"g=	c #343A3B",
"h=	c #29474C",
"i=	c #513D35",
"j=	c #A05A37",
"k=	c #C68F73",
"l=	c #161211",
"m=	c #150F11",
"n=	c #191012",
"o=	c #1F1416",
"p=	c #291D19",
"q=	c #271D1A",
"r=	c #221816",
"s=	c #211816",
"t=	c #1F1918",
"u=	c #161514",
"v=	c #1D1817",
"w=	c #261E1A",
"x=	c #2C2420",
"y=	c #251A19",
"z=	c #241916",
"A=	c #1F1613",
"B=	c #221916",
"C=	c #201B1A",
"D=	c #211E1E",
"E=	c #282623",
"F=	c #211E1D",
"G=	c #45484D",
"H=	c #424547",
"I=	c #434644",
"J=	c #3D3F40",
"K=	c #3B3F42",
"L=	c #414448",
"M=	c #3C3F42",
"N=	c #181714",
"O=	c #292A29",
"P=	c #38393A",
"Q=	c #3B3E3D",
"R=	c #313332",
"S=	c #262626",
"T=	c #898F90",
"U=	c #414F4C",
"V=	c #3D4644",
"W=	c #38413F",
"X=	c #2B4647",
"Y=	c #236262",
"Z=	c #1F6969",
"`=	c #2F4E50",
" -	c #2E5957",
".-	c #2D4240",
"+-	c #3D4442",
"@-	c #475A58",
"#-	c #3D827F",
"$-	c #328D8B",
"%-	c #2F8584",
"&-	c #308F8A",
"*-	c #2D8681",
"=-	c #33817C",
"--	c #347A76",
";-	c #2C5E5C",
">-	c #1E2E2E",
",-	c #242D2D",
"'-	c #2E4E51",
")-	c #2E3231",
"!-	c #74412C",
"~-	c #9D5334",
"{-	c #161414",
"]-	c #141211",
"^-	c #171212",
"/-	c #181012",
"(-	c #271B19",
"_-	c #241A18",
":-	c #211717",
"<-	c #1C1516",
"[-	c #141314",
"}-	c #1D1B19",
"|-	c #2D2520",
"1-	c #372E2A",
"2-	c #271C1B",
"3-	c #251817",
"4-	c #281D1B",
"5-	c #201918",
"6-	c #201919",
"7-	c #28211F",
"8-	c #201B19",
"9-	c #45464A",
"0-	c #3E3D3F",
"a-	c #3E3E3D",
"b-	c #403D3C",
"c-	c #3D3A39",
"d-	c #3F3E3B",
"e-	c #3E3D3C",
"f-	c #3A3A3A",
"g-	c #404346",
"h-	c #171714",
"i-	c #282828",
"j-	c #373838",
"k-	c #393938",
"l-	c #353533",
"m-	c #5C9399",
"n-	c #30686C",
"o-	c #3D4B48",
"p-	c #3B4947",
"q-	c #343A38",
"r-	c #192D2F",
"s-	c #282B2B",
"t-	c #404341",
"u-	c #263435",
"v-	c #3F3D3A",
"w-	c #465551",
"x-	c #446566",
"y-	c #437B78",
"z-	c #37716D",
"A-	c #20B8AE",
"B-	c #27E4DB",
"C-	c #23D4C8",
"D-	c #405758",
"E-	c #4A6463",
"F-	c #397572",
"G-	c #2C605E",
"H-	c #294042",
"I-	c #2F3637",
"J-	c #3A3737",
"K-	c #8B492B",
"L-	c #A25836",
"M-	c #0E0E0D",
"N-	c #151110",
"O-	c #1C1314",
"P-	c #1A1112",
"Q-	c #191110",
"R-	c #1D1A1D",
"S-	c #302B2C",
"T-	c #39312E",
"U-	c #372F2B",
"V-	c #191112",
"W-	c #1D1616",
"X-	c #201817",
"Y-	c #2E2521",
"Z-	c #251F1D",
"`-	c #424145",
" ;	c #3E3B3C",
".;	c #403C3B",
"+;	c #3E3938",
"@;	c #3D3736",
"#;	c #403B39",
"$;	c #3C3938",
"%;	c #363433",
"&;	c #393A39",
"*;	c #191816",
"=;	c #242527",
"-;	c #373637",
";;	c #8D9B9F",
">;	c #27767F",
",;	c #18AFB6",
"';	c #233032",
");	c #306F74",
"!;	c #292E30",
"~;	c #1A1C20",
"{;	c #2A292A",
"];	c #302827",
"^;	c #4B322C",
"/;	c #362D2B",
"(;	c #493C36",
"_;	c #3D3E3A",
":;	c #424A49",
"<;	c #446463",
"[;	c #386360",
"};	c #26827D",
"|;	c #24948D",
"1;	c #22908A",
"2;	c #3C5757",
"3;	c #3B4C4B",
"4;	c #3D4F4F",
"5;	c #38585A",
"6;	c #325F62",
"7;	c #263A3E",
"8;	c #382F2D",
"9;	c #673B2A",
"0;	c #83492F",
"a;	c #131212",
"b;	c #0F0D0C",
"c;	c #130F10",
"d;	c #181313",
"e;	c #1E1615",
"f;	c #140E11",
"g;	c #151011",
"h;	c #1B1412",
"i;	c #181314",
"j;	c #332F2E",
"k;	c #38312E",
"l;	c #302825",
"m;	c #1F1816",
"n;	c #1D1717",
"o;	c #191414",
"p;	c #1B1514",
"q;	c #1E1817",
"r;	c #48494D",
"s;	c #424347",
"t;	c #424244",
"u;	c #3B3B3B",
"v;	c #3C3C3C",
"w;	c #414041",
"x;	c #3B3B3D",
"y;	c #363839",
"z;	c #3A4041",
"A;	c #434A4E",
"B;	c #252325",
"C;	c #302F32",
"D;	c #383737",
"E;	c #2B2929",
"F;	c #29A4A9",
"G;	c #1E9095",
"H;	c #202729",
"I;	c #354346",
"J;	c #272829",
"K;	c #252527",
"L;	c #323233",
"M;	c #221F20",
"N;	c #2F2524",
"O;	c #502F26",
"P;	c #483831",
"Q;	c #503B33",
"R;	c #443934",
"S;	c #44433F",
"T;	c #3C4F4E",
"U;	c #3F5352",
"V;	c #435754",
"W;	c #455754",
"X;	c #435655",
"Y;	c #434F4E",
"Z;	c #513E38",
"`;	c #62524C",
" >	c #35484C",
".>	c #4F4F4D",
"+>	c #A15835",
"@>	c #B25E32",
"#>	c #80513F",
"$>	c #6E6C6A",
"%>	c #120C0C",
"&>	c #141011",
"*>	c #191514",
"=>	c #161013",
"->	c #231D1B",
";>	c #1E191A",
">>	c #131012",
",>	c #23201D",
"'>	c #2B2523",
")>	c #2F2623",
"!>	c #2A211E",
"~>	c #211C18",
"{>	c #161210",
"]>	c #17110F",
"^>	c #1D1612",
"/>	c #1E1716",
"(>	c #171312",
"_>	c #464A4F",
":>	c #3E4041",
"<>	c #404041",
"[>	c #3F4040",
"}>	c #3F4343",
"|>	c #394044",
"1>	c #3B434A",
"2>	c #3B4347",
"3>	c #303133",
"4>	c #2F2F2E",
"5>	c #68A2A1",
"6>	c #3E3E3E",
"7>	c #313132",
"8>	c #414141",
"9>	c #1F1F21",
"0>	c #2F3031",
"a>	c #211F20",
"b>	c #402B24",
"c>	c #543023",
"d>	c #6D3825",
"e>	c #613322",
"f>	c #6D3B29",
"g>	c #743E29",
"h>	c #82452D",
"i>	c #6E3D2B",
"j>	c #6A3C2D",
"k>	c #6E3D2D",
"l>	c #4F4545",
"m>	c #51342D",
"n>	c #314A4F",
"o>	c #316D6F",
"p>	c #54534F",
"q>	c #8C553F",
"r>	c #96512E",
"s>	c #585654",
"t>	c #170F0F",
"u>	c #151010",
"v>	c #0E0B0B",
"w>	c #0D0B0B",
"x>	c #1A1511",
"y>	c #211B17",
"z>	c #1C1717",
"A>	c #161413",
"B>	c #1F1C19",
"C>	c #191412",
"D>	c #1E1B1A",
"E>	c #1C1A19",
"F>	c #181413",
"G>	c #241C16",
"H>	c #201916",
"I>	c #231E1C",
"J>	c #1B1A19",
"K>	c #494D50",
"L>	c #444749",
"M>	c #3C3D3E",
"N>	c #3B3939",
"O>	c #3B3837",
"P>	c #393637",
"Q>	c #3C3B3C",
"R>	c #3B3E41",
"S>	c #40464B",
"T>	c #40464A",
"U>	c #252525",
"V>	c #313435",
"W>	c #303232",
"X>	c #6D7D82",
"Y>	c #235553",
"Z>	c #2C2F31",
"`>	c #424242",
" ,	c #373737",
".,	c #3D3C3D",
"+,	c #222224",
"@,	c #2F3030",
"#,	c #1B1B1E",
"$,	c #212021",
"%,	c #2B2928",
"&,	c #32302F",
"*,	c #262525",
"=,	c #272526",
"-,	c #312B2B",
";,	c #3B2F2E",
">,	c #393536",
",,	c #3C3C3D",
"',	c #3F3D3F",
"),	c #373738",
"!,	c #292729",
"~,	c #2F2E32",
"{,	c #2C373A",
"],	c #2B4C51",
"^,	c #375256",
"/,	c #8E4E2E",
"(,	c #595857",
"_,	c #150F0F",
":,	c #0D090B",
"<,	c #0E0B0D",
"[,	c #181310",
"},	c #100D0D",
"|,	c #1C1716",
"1,	c #141012",
"2,	c #161314",
"3,	c #151514",
"4,	c #14100F",
"5,	c #251C19",
"6,	c #2B211C",
"7,	c #2D2723",
"8,	c #24211F",
"9,	c #434549",
"0,	c #3E3E40",
"a,	c #3A3937",
"b,	c #3A3838",
"c,	c #3F3D3D",
"d,	c #3F3E40",
"e,	c #44474A",
"f,	c #414548",
"g,	c #171611",
"h,	c #242322",
"i,	c #232326",
"j,	c #2B2C2B",
"k,	c #4C9896",
"l,	c #23393B",
"m,	c #272628",
"n,	c #2B2B2D",
"o,	c #262628",
"p,	c #1B1B1D",
"q,	c #313232",
"r,	c #212122",
"s,	c #1F1D20",
"t,	c #19181B",
"u,	c #1F2223",
"v,	c #1E3839",
"w,	c #1C5757",
"x,	c #234A4B",
"y,	c #262A2C",
"z,	c #222325",
"A,	c #1E1E22",
"B,	c #2B2B2C",
"C,	c #323334",
"D,	c #262526",
"E,	c #292B2D",
"F,	c #262D30",
"G,	c #2E464A",
"H,	c #385457",
"I,	c #904F2E",
"J,	c #3D2720",
"K,	c #616363",
"L,	c #16110F",
"M,	c #100B0B",
"N,	c #1B1716",
"O,	c #1C1816",
"P,	c #141312",
"Q,	c #100E0D",
"R,	c #221F1D",
"S,	c #242020",
"T,	c #201D1D",
"U,	c #231C1B",
"V,	c #241819",
"W,	c #302422",
"X,	c #372A25",
"Y,	c #312623",
"Z,	c #424548",
"`,	c #3D3A38",
" '	c #3B3737",
".'	c #393636",
"+'	c #3E3A3A",
"@'	c #403C3C",
"#'	c #3F3D3C",
"$'	c #454446",
"%'	c #191815",
"&'	c #201E1F",
"*'	c #282827",
"='	c #242325",
"-'	c #242425",
";'	c #696B6D",
">'	c #2E2E2F",
",'	c #232526",
"''	c #17171A",
")'	c #151618",
"!'	c #1D1E1F",
"~'	c #282A2B",
"{'	c #212022",
"]'	c #3C4F52",
"^'	c #307576",
"/'	c #28B6B4",
"('	c #2B8A8A",
"_'	c #277E7D",
":'	c #295859",
"<'	c #242426",
"['	c #404344",
"}'	c #3B3F3F",
"|'	c #242525",
"1'	c #274042",
"2'	c #28787A",
"3'	c #36686B",
"4'	c #3D797C",
"5'	c #A95A31",
"6'	c #5B3626",
"7'	c #666768",
"8'	c #130F0C",
"9'	c #110C0A",
"0'	c #16100E",
"a'	c #140F0A",
"b'	c #201A15",
"c'	c #201B17",
"d'	c #2F2C28",
"e'	c #2F2A26",
"f'	c #241D1C",
"g'	c #241D1D",
"h'	c #362D29",
"i'	c #3C312A",
"j'	c #322621",
"k'	c #352723",
"l'	c #312421",
"m'	c #322723",
"n'	c #29211E",
"o'	c #3C3A3B",
"p'	c #403E3C",
"q'	c #3C3939",
"r'	c #3F3C3D",
"s'	c #3F3D3B",
"t'	c #3A3B38",
"u'	c #3F4041",
"v'	c #404246",
"w'	c #1C1918",
"x'	c #23201F",
"y'	c #1F1B1B",
"z'	c #201F20",
"A'	c #292B29",
"B'	c #292A2A",
"C'	c #1C1A1B",
"D'	c #2A2E30",
"E'	c #5A5F61",
"F'	c #1A1B1D",
"G'	c #1A1A1C",
"H'	c #19191C",
"I'	c #1D1E20",
"J'	c #242526",
"K'	c #2B2C2E",
"L'	c #2D4B4C",
"M'	c #2E5D5E",
"N'	c #305756",
"O'	c #363939",
"P'	c #282628",
"Q'	c #252628",
"R'	c #26282A",
"S'	c #2E2F2F",
"T'	c #283F41",
"U'	c #1E7376",
"V'	c #2E4D4F",
"W'	c #2B7C7A",
"X'	c #AA7B62",
"Y'	c #613929",
"Z'	c #69696B",
"`'	c #0F0C0B",
" )	c #171211",
".)	c #17120E",
"+)	c #241E19",
"@)	c #211B19",
"#)	c #292624",
"$)	c #2A2423",
"%)	c #261F1E",
"&)	c #25201F",
"*)	c #302B29",
"=)	c #2D2623",
"-)	c #2A201E",
";)	c #332822",
">)	c #2F241E",
",)	c #2F231E",
"')	c #271D1C",
"))	c #3F3F3E",
"!)	c #3F3E3D",
"~)	c #3E3B3B",
"{)	c #3C3B3D",
"])	c #373938",
"^)	c #3D3F41",
"/)	c #3B3F43",
"()	c #191615",
"_)	c #191617",
":)	c #262725",
"<)	c #252626",
"[)	c #131112",
"})	c #282D30",
"|)	c #5A8386",
"1)	c #135858",
"2)	c #151718",
"3)	c #181719",
"4)	c #2D211F",
"5)	c #36393A",
"6)	c #343637",
"7)	c #393D3F",
"8)	c #414547",
"9)	c #363636",
"0)	c #454240",
"a)	c #2C2A29",
"b)	c #171719",
"c)	c #2D2E30",
"d)	c #252526",
"e)	c #36605B",
"f)	c #35908A",
"g)	c #A68C75",
"h)	c #603929",
"i)	c #6C6E70",
"j)	c #0E0B07",
"k)	c #16130D",
"l)	c #18140F",
"m)	c #14100D",
"n)	c #18130E",
"o)	c #151210",
"p)	c #0C0B0C",
"q)	c #181614",
"r)	c #211B18",
"s)	c #2B2420",
"t)	c #221E1A",
"u)	c #1E1C17",
"v)	c #1F1B19",
"w)	c #221E1C",
"x)	c #26201C",
"y)	c #1F1713",
"z)	c #424344",
"A)	c #3C3A39",
"B)	c #3D3C3C",
"C)	c #3D3E41",
"D)	c #414347",
"E)	c #131210",
"F)	c #1F1C1C",
"G)	c #181715",
"H)	c #151312",
"I)	c #1E1E1D",
"J)	c #110F0E",
"K)	c #2B3132",
"L)	c #5D878A",
"M)	c #105A59",
"N)	c #161719",
"O)	c #272120",
"P)	c #552F22",
"Q)	c #312F30",
"R)	c #353433",
"S)	c #373A3A",
"T)	c #325959",
"U)	c #345151",
"V)	c #304242",
"W)	c #181819",
"X)	c #28292A",
"Y)	c #262829",
"Z)	c #2A2B2C",
"`)	c #38393B",
" !	c #394F54",
".!	c #47585C",
"+!	c #9E6343",
"@!	c #573527",
"#!	c #6C6E6E",
"$!	c #140F0C",
"%!	c #1B1611",
"&!	c #17110E",
"*!	c #120D0D",
"=!	c #0E0909",
"-!	c #0E0D0C",
";!	c #0E0D0D",
">!	c #141413",
",!	c #181412",
"'!	c #1D1716",
")!	c #201C1A",
"!!	c #1C1715",
"~!	c #1A1613",
"{!	c #13110F",
"]!	c #1A1411",
"^!	c #211916",
"/!	c #1F1815",
"(!	c #3C3B3B",
"_!	c #3D3D3C",
":!	c #3F3F41",
"<!	c #454649",
"[!	c #3C3F41",
"}!	c #11110F",
"|!	c #1D1A19",
"1!	c #252120",
"2!	c #1B1917",
"3!	c #141111",
"4!	c #171615",
"5!	c #1C1E1F",
"6!	c #2F3333",
"7!	c #648B8E",
"8!	c #126969",
"9!	c #183334",
"0!	c #43261E",
"a!	c #1E1A1A",
"b!	c #343231",
"c!	c #363333",
"d!	c #2F4646",
"e!	c #1F6062",
"f!	c #277072",
"g!	c #228685",
"h!	c #3B6A6B",
"i!	c #294040",
"j!	c #212E2F",
"k!	c #303032",
"l!	c #3A3B3C",
"m!	c #424546",
"n!	c #915A3C",
"o!	c #4F3326",
"p!	c #707070",
"q!	c #1A1311",
"r!	c #140F0D",
"s!	c #120D0B",
"t!	c #100E0C",
"u!	c #0C0A09",
"v!	c #161517",
"w!	c #121416",
"x!	c #141517",
"y!	c #232322",
"z!	c #2D2A2A",
"A!	c #171716",
"B!	c #1A1917",
"C!	c #292523",
"D!	c #211C1A",
"E!	c #3E3F41",
"F!	c #39393A",
"G!	c #3D3B39",
"H!	c #424144",
"I!	c #3A393A",
"J!	c #1E1B19",
"K!	c #282322",
"L!	c #1A1717",
"M!	c #151313",
"N!	c #636869",
"O!	c #1C3A3D",
"P!	c #18484A",
"Q!	c #144C50",
"R!	c #1F3235",
"S!	c #2D2B2A",
"T!	c #284745",
"U!	c #296869",
"V!	c #2D6C6C",
"W!	c #2D6869",
"X!	c #3B6A68",
"Y!	c #245C5C",
"Z!	c #195B5A",
"`!	c #394646",
" ~	c #454749",
".~	c #393B3C",
"+~	c #2F2F31",
"@~	c #38383A",
"#~	c #313134",
"$~	c #905738",
"%~	c #4F3427",
"&~	c #6E6E6D",
"*~	c #383637",
"=~	c #3E3B3D",
"-~	c #343435",
";~	c #242424",
">~	c #0A0705",
",~	c #191A1D",
"'~	c #33302F",
")~	c #232323",
"!~	c #222423",
"~~	c #2F2C2A",
"{~	c #393838",
"]~	c #383635",
"^~	c #3B3839",
"/~	c #3D3B3C",
"(~	c #3A393B",
"_~	c #403D3F",
":~	c #3A3839",
"<~	c #13120F",
"[~	c #1E1A18",
"}~	c #120E11",
"|~	c #191614",
"1~	c #151213",
"2~	c #2D2F2F",
"3~	c #5E5F5F",
"4~	c #1D1C1D",
"5~	c #202426",
"6~	c #1E464A",
"7~	c #174A4D",
"8~	c #124245",
"9~	c #1C2E32",
"0~	c #1F3538",
"a~	c #1C605D",
"b~	c #333E3F",
"c~	c #343B3C",
"d~	c #34393C",
"e~	c #3C5556",
"f~	c #38494B",
"g~	c #226D6C",
"h~	c #265555",
"i~	c #323336",
"j~	c #343436",
"k~	c #313133",
"l~	c #925636",
"m~	c #503426",
"n~	c #727272",
"o~	c #3D373A",
"p~	c #474141",
"q~	c #433F40",
"r~	c #373638",
"s~	c #3F4042",
"t~	c #0E0B09",
"u~	c #100F0C",
"v~	c #151413",
"w~	c #1B1A1A",
"x~	c #242323",
"y~	c #212121",
"z~	c #242627",
"A~	c #2B2E2F",
"B~	c #2C2F30",
"C~	c #282A2C",
"D~	c #444446",
"E~	c #3D3B3D",
"F~	c #393738",
"G~	c #3C3838",
"H~	c #3E3939",
"I~	c #3C3837",
"J~	c #3C383A",
"K~	c #3D3837",
"L~	c #393534",
"M~	c #14120D",
"N~	c #221C18",
"O~	c #271F1D",
"P~	c #141112",
"Q~	c #191818",
"R~	c #191616",
"S~	c #141110",
"T~	c #2E3131",
"U~	c #212223",
"V~	c #272728",
"W~	c #29292A",
"X~	c #1D2325",
"Y~	c #234549",
"Z~	c #26494D",
"`~	c #212324",
" {	c #383E40",
".{	c #394043",
"+{	c #3A4143",
"@{	c #363B3E",
"#{	c #31363A",
"${	c #1F6D6C",
"%{	c #275C5B",
"&{	c #3D3D3F",
"*{	c #915636",
"={	c #4E3124",
"-{	c #717271",
";{	c #443837",
">{	c #493F3A",
",{	c #48413E",
"'{	c #3A363A",
"){	c #2A2B2E",
"!{	c #0A0500",
"~{	c #263138",
"{{	c #313D49",
"]{	c #38444F",
"^{	c #445159",
"/{	c #465259",
"({	c #445056",
"_{	c #4D5960",
":{	c #536169",
"<{	c #4C5C65",
"[{	c #4B5B64",
"}{	c #4B565D",
"|{	c #423F42",
"1{	c #3F3936",
"2{	c #3D3632",
"3{	c #3F3734",
"4{	c #413834",
"5{	c #3C342F",
"6{	c #393533",
"7{	c #0D100B",
"8{	c #1F1917",
"9{	c #27201F",
"0{	c #1B1817",
"a{	c #171516",
"b{	c #202A2D",
"c{	c #324D52",
"d{	c #314548",
"e{	c #272C2E",
"f{	c #1E1E20",
"g{	c #292929",
"h{	c #272527",
"i{	c #23292B",
"j{	c #2C2E30",
"k{	c #343839",
"l{	c #33383B",
"m{	c #2F3336",
"n{	c #2C3033",
"o{	c #2F3F43",
"p{	c #2E4345",
"q{	c #225F5D",
"r{	c #414242",
"s{	c #464748",
"t{	c #955838",
"u{	c #503224",
"v{	c #6E6F6F",
"w{	c #433635",
"x{	c #433531",
"y{	c #3C3431",
"z{	c #343236",
"A{	c #393B40",
"B{	c #27292C",
"C{	c #0B0600",
"D{	c #333F47",
"E{	c #35414B",
"F{	c #363F48",
"G{	c #40484E",
"H{	c #3C4248",
"I{	c #3F4447",
"J{	c #4A5257",
"K{	c #434D53",
"L{	c #3E474E",
"M{	c #3D4347",
"N{	c #433D41",
"O{	c #3E3736",
"P{	c #3C3331",
"Q{	c #3C322F",
"R{	c #3E332F",
"S{	c #40342F",
"T{	c #3A2F2A",
"U{	c #3A3535",
"V{	c #0C0E0E",
"W{	c #1A1616",
"X{	c #261F20",
"Y{	c #1C1818",
"Z{	c #181617",
"`{	c #1E1C1C",
" ]	c #181416",
".]	c #1F373A",
"+]	c #286A6D",
"@]	c #325E60",
"#]	c #2C3435",
"$]	c #1D1D20",
"%]	c #206666",
"&]	c #207F7F",
"*]	c #2F6065",
"=]	c #25908E",
"-]	c #25948F",
";]	c #395055",
">]	c #355154",
",]	c #159C99",
"']	c #2D3334",
")]	c #3C3D3D",
"!]	c #48494A",
"~]	c #9C5B38",
"{]	c #553426",
"]]	c #3E3437",
"^]	c #382E2E",
"/]	c #36302E",
"(]	c #37393E",
"_]	c #222527",
":]	c #0A0600",
"<]	c #2F373C",
"[]	c #343B40",
"}]	c #333639",
"|]	c #282321",
"1]	c #2D2823",
"2]	c #292422",
"3]	c #333331",
"4]	c #2E2E2C",
"5]	c #272625",
"6]	c #464040",
"7]	c #3F3635",
"8]	c #3D3430",
"9]	c #3D332E",
"0]	c #3D312D",
"a]	c #3C2F2C",
"b]	c #3F3130",
"c]	c #40322E",
"d]	c #423630",
"e]	c #453732",
"f]	c #382F2F",
"g]	c #090A0A",
"h]	c #1D1718",
"i]	c #292021",
"j]	c #1D1918",
"k]	c #161312",
"l]	c #191613",
"m]	c #191716",
"n]	c #1C1919",
"o]	c #1D1E1E",
"p]	c #1C1C1C",
"q]	c #312C2B",
"r]	c #17181A",
"s]	c #122C2E",
"t]	c #0E4040",
"u]	c #1A1C1E",
"v]	c #1A1A1F",
"w]	c #343C3D",
"x]	c #2A7A76",
"y]	c #1A9891",
"z]	c #3D5B5C",
"A]	c #3C595B",
"B]	c #239995",
"C]	c #334E4F",
"D]	c #314042",
"E]	c #1C6F6C",
"F]	c #1D2021",
"G]	c #232425",
"H]	c #3C3E3F",
"I]	c #454A4C",
"J]	c #895641",
"K]	c #72442D",
"L]	c #6F706F",
"M]	c #2E2524",
"N]	c #2D2828",
"O]	c #3B393B",
"P]	c #242626",
"Q]	c #090401",
"R]	c #2C333B",
"S]	c #313943",
"T]	c #3A4247",
"U]	c #2C2927",
"V]	c #1F1C1D",
"W]	c #242225",
"X]	c #2B2C2C",
"Y]	c #2A2A2A",
"Z]	c #494242",
"`]	c #3F3735",
" ^	c #40332D",
".^	c #3E3029",
"+^	c #3E322D",
"@^	c #3F332E",
"#^	c #473932",
"$^	c #52453F",
"%^	c #4A3E39",
"&^	c #0C0D0E",
"*^	c #292121",
"=^	c #1C1819",
"-^	c #191817",
";^	c #1C1B1A",
">^	c #272828",
",^	c #222323",
"'^	c #4C443F",
")^	c #1C1D1F",
"!^	c #1B2022",
"~^	c #1A2728",
"{^	c #1B1C1E",
"]^	c #2D3032",
"^^	c #2F5350",
"/^	c #283133",
"(^	c #3A3E41",
"_^	c #1E2021",
":^	c #222324",
"<^	c #262728",
"[^	c #815440",
"}^	c #76462D",
"|^	c #686869",
"1^	c #302722",
"2^	c #291F1D",
"3^	c #2E2928",
"4^	c #3B393A",
"5^	c #464548",
"6^	c #2D373E",
"7^	c #2F3A44",
"8^	c #384247",
"9^	c #373C3E",
"0^	c #343430",
"a^	c #211D1B",
"b^	c #2B2826",
"c^	c #323032",
"d^	c #353636",
"e^	c #383A38",
"f^	c #333433",
"g^	c #4B4444",
"h^	c #3E3734",
"i^	c #3C312D",
"j^	c #40332F",
"k^	c #3E312D",
"l^	c #3D322E",
"m^	c #3E3531",
"n^	c #483D38",
"o^	c #4E4441",
"p^	c #483C38",
"q^	c #3A322E",
"r^	c #0F1010",
"s^	c #201C19",
"t^	c #281F1D",
"u^	c #141515",
"v^	c #161615",
"w^	c #151515",
"x^	c #A6A6A6",
"y^	c #232424",
"z^	c #4D4541",
"A^	c #312F2E",
"B^	c #1D1C1F",
"C^	c #1A191D",
"D^	c #1C1C1E",
"E^	c #222124",
"F^	c #27282A",
"G^	c #2C2F2F",
"H^	c #2B2D2E",
"I^	c #222424",
"J^	c #7A4E3B",
"K^	c #72432A",
"L^	c #646364",
"M^	c #372E2B",
"N^	c #302626",
"O^	c #35312E",
"P^	c #353534",
"Q^	c #2B2C2F",
"R^	c #0B0A04",
"S^	c #323D42",
"T^	c #3B464E",
"U^	c #374146",
"V^	c #2C2B27",
"W^	c #231F1C",
"X^	c #332F2D",
"Y^	c #404140",
"Z^	c #494342",
"`^	c #433A35",
" /	c #42352E",
"./	c #40332E",
"+/	c #3E322E",
"@/	c #3A302D",
"#/	c #3A302E",
"$/	c #4B413C",
"%/	c #4E403B",
"&/	c #413734",
"*/	c #0C0D0C",
"=/	c #1E1816",
"-/	c #29201D",
";/	c #121212",
">/	c #141212",
",/	c #131113",
"'/	c #9FA1A1",
")/	c #232423",
"!/	c #4B4340",
"~/	c #232324",
"{/	c #202021",
"]/	c #1B1C1D",
"^/	c #333635",
"//	c #303333",
"(/	c #333536",
"_/	c #5B3B2F",
":/	c #4A3027",
"</	c #754B38",
"[/	c #6E4128",
"}/	c #636262",
"|/	c #2D2724",
"1/	c #39332F",
"2/	c #413F3C",
"3/	c #2E2F2E",
"4/	c #282D2E",
"5/	c #1D2023",
"6/	c #0A0903",
"7/	c #2F3A3E",
"8/	c #3D484F",
"9/	c #3E474C",
"0/	c #2C2A24",
"a/	c #32302E",
"b/	c #3B3B39",
"c/	c #363838",
"d/	c #383A3C",
"e/	c #47403F",
"f/	c #493D39",
"g/	c #483A32",
"h/	c #42332C",
"i/	c #3E312B",
"j/	c #3E322C",
"k/	c #3C302C",
"l/	c #3F342E",
"m/	c #463933",
"n/	c #493933",
"o/	c #3C302B",
"p/	c #080A09",
"q/	c #1E1715",
"r/	c #2F2422",
"s/	c #161313",
"t/	c #151311",
"u/	c #9C9D9D",
"v/	c #47403C",
"w/	c #1E1F20",
"x/	c #1B1C1C",
"y/	c #323131",
"z/	c #393B3A",
"A/	c #383B39",
"B/	c #484A4C",
"C/	c #42312C",
"D/	c #3B2C28",
"E/	c #202122",
"F/	c #262727",
"G/	c #272729",
"H/	c #2F2D2D",
"I/	c #784E3A",
"J/	c #724328",
"K/	c #5C5B5B",
"L/	c #272423",
"M/	c #332C2A",
"N/	c #3E3A38",
"O/	c #2A2E32",
"P/	c #202428",
"Q/	c #0B0905",
"R/	c #2C3336",
"S/	c #33383D",
"T/	c #323638",
"U/	c #252422",
"V/	c #403D3B",
"W/	c #424341",
"X/	c #3C3F40",
"Y/	c #4A4140",
"Z/	c #463936",
"`/	c #47372F",
" (	c #42302A",
".(	c #3B2B24",
"+(	c #3C2E27",
"@(	c #473B33",
"#(	c #3F302A",
"$(	c #3E2E27",
"%(	c #342A25",
"&(	c #090C0B",
"*(	c #2B201D",
"=(	c #251D19",
"-(	c #181212",
";(	c #161110",
">(	c #A1A2A2",
",(	c #453D3B",
"'(	c #333130",
")(	c #272727",
"!(	c #1F1F20",
"~(	c #1F2020",
"{(	c #191A1B",
"](	c #1C1E1E",
"^(	c #2C2E2E",
"/(	c #292B2B",
"((	c #2C2D2D",
"_(	c #262627",
":(	c #353230",
"<(	c #784F39",
"[(	c #75472B",
"}(	c #525152",
"|(	c #1F1B1D",
"1(	c #332D2B",
"2(	c #3D3734",
"3(	c #363332",
"4(	c #2F3135",
"5(	c #100E07",
"6(	c #323133",
"7(	c #312F32",
"8(	c #2F2F2F",
"9(	c #2F2F2D",
"0(	c #383735",
"a(	c #3C3D3B",
"b(	c #3E403E",
"c(	c #3D3F3F",
"d(	c #4B4140",
"e(	c #443734",
"f(	c #44342D",
"g(	c #413029",
"h(	c #3B2A24",
"i(	c #3A2A26",
"j(	c #3C2E29",
"k(	c #41332D",
"l(	c #3C2E2A",
"m(	c #3C2D29",
"n(	c #372D2A",
"o(	c #0E1110",
"p(	c #1E1819",
"q(	c #231B19",
"r(	c #191513",
"s(	c #0F0E0D",
"t(	c #120E0D",
"u(	c #171413",
"v(	c #9E9E9F",
"w(	c #211F21",
"x(	c #3C3534",
"y(	c #292928",
"z(	c #1E1E1E",
"A(	c #1A191B",
"B(	c #252627",
"C(	c #282729",
"D(	c #333333",
"E(	c #764A37",
"F(	c #74442A",
"G(	c #292221",
"H(	c #36302B",
"I(	c #342F2E",
"J(	c #111009",
"K(	c #3B383A",
"L(	c #383537",
"M(	c #353535",
"N(	c #373939",
"O(	c #4A4343",
"P(	c #453B38",
"Q(	c #3E302B",
"R(	c #3C2F2B",
"S(	c #3B302C",
"T(	c #3A2E2A",
"U(	c #3C322D",
"V(	c #382C28",
"W(	c #37302E",
"X(	c #0E1211",
"Y(	c #221D1C",
"Z(	c #0D0D0D",
"`(	c #0E0E0E",
" _	c #999999",
"._	c #463C3A",
"+_	c #764B38",
"@_	c #77452A",
"#_	c #39322F",
"$_	c #3D3A3A",
"%_	c #3A3D3D",
"&_	c #2D3233",
"*_	c #0C0C07",
"=_	c #393537",
"-_	c #3C3737",
";_	c #353131",
">_	c #3C3A3A",
",_	c #3A383A",
"'_	c #363736",
")_	c #393B3B",
"!_	c #3B3C3D",
"~_	c #494544",
"{_	c #47413F",
"]_	c #423A36",
"^_	c #3F3733",
"/_	c #3F3934",
"(_	c #393633",
"__	c #3A3531",
":_	c #3F3B37",
"<_	c #393433",
"[_	c #0C100E",
"}_	c #111313",
"|_	c #111111",
"1_	c #939394",
"2_	c #463D39",
"3_	c #34302F",
"4_	c #1E1D20",
"5_	c #282829",
"6_	c #28282A",
"7_	c #333334",
"8_	c #744835",
"9_	c #744329",
"0_	c #4D4E4D",
"a_	c #38302C",
"b_	c #3D3830",
"c_	c #3C3637",
"d_	c #36383A",
"e_	c #252A2D",
"f_	c #0A0B08",
"g_	c #373333",
"h_	c #403937",
"i_	c #3D3936",
"j_	c #3D3B3E",
"k_	c #383938",
"l_	c #383738",
"m_	c #333133",
"n_	c #433F41",
"o_	c #423D3D",
"p_	c #433F39",
"q_	c #413C35",
"r_	c #3F3A36",
"s_	c #313131",
"t_	c #464444",
"u_	c #3B3836",
"v_	c #0E0F0D",
"w_	c #1A1413",
"x_	c #1A1514",
"y_	c #131111",
"z_	c #131211",
"A_	c #8D8D8D",
"B_	c #2A2A2B",
"C_	c #463D3A",
"D_	c #322F2E",
"E_	c #212123",
"F_	c #2C2C2D",
"G_	c #403631",
"H_	c #6C4432",
"I_	c #714027",
"J_	c #919090",
"K_	c #2D2523",
"L_	c #382F2A",
"M_	c #332A25",
"N_	c #383331",
"O_	c #272B2D",
"P_	c #10120F",
"Q_	c #38322F",
"R_	c #3B3330",
"S_	c #383634",
"T_	c #373635",
"U_	c #3E3D3E",
"V_	c #373636",
"W_	c #454143",
"X_	c #3F3832",
"Y_	c #413831",
"Z_	c #3F3834",
"`_	c #393735",
" :	c #383A39",
".:	c #454242",
"+:	c #3A3533",
"@:	c #13120E",
"#:	c #121012",
"$:	c #0F0E10",
"%:	c #171414",
"&:	c #323232",
"*:	c #463E3B",
"=:	c #202022",
"-:	c #252425",
";:	c #2D2D2D",
">:	c #343535",
",:	c #363737",
"':	c #383736",
"):	c #3B3533",
"!:	c #3F3A39",
"~:	c #463F3E",
"{:	c #C3C3C3",
"]:	c #302826",
"^:	c #2A1F1E",
"/:	c #382D27",
"(:	c #423C35",
"_:	c #40413E",
"::	c #323634",
"<:	c #161712",
"[:	c #3A2F2B",
"}:	c #3F322E",
"|:	c #373533",
"1:	c #383C3A",
"2:	c #333636",
"3:	c #383836",
"4:	c #383734",
"5:	c #392C28",
"6:	c #3B2B28",
"7:	c #382E2B",
"8:	c #413D3A",
"9:	c #403A3A",
"0:	c #393331",
"a:	c #181713",
"b:	c #231C1A",
"c:	c #121010",
"d:	c #1D1917",
"e:	c #454B4C",
"f:	c #1D2425",
"g:	c #473E3B",
"h:	c #302E2E",
"i:	c #1E1D1F",
"j:	c #373837",
"k:	c #9F8279",
"l:	c #1E1917",
"m:	c #1B1516",
"n:	c #2D231F",
"o:	c #423B36",
"p:	c #484643",
"q:	c #373836",
"r:	c #131613",
"s:	c #3A2D2B",
"t:	c #433632",
"u:	c #3E3A37",
"v:	c #363635",
"w:	c #333736",
"x:	c #313433",
"y:	c #353634",
"z:	c #393A37",
"A:	c #4D4A49",
"B:	c #3C3634",
"C:	c #392F2D",
"D:	c #3B2F2D",
"E:	c #3D3332",
"F:	c #413E3B",
"G:	c #41413F",
"H:	c #3E3C3A",
"I:	c #131513",
"J:	c #241C1A",
"K:	c #2C221F",
"L:	c #1D1714",
"M:	c #241F1B",
"N:	c #454C4D",
"O:	c #1C2526",
"P:	c #292A2B",
"Q:	c #1E1F1F",
"R:	c #2E2C2D",
"S:	c #201F21",
"T:	c #2F3130",
"U:	c #313231",
"V:	c #353637",
"W:	c #363A3D",
"X:	c #3D4446",
"Y:	c #8C4D34",
"Z:	c #BD9081",
"`:	c #1A1618",
" <	c #2E2724",
".<	c #433C38",
"+<	c #434040",
"@<	c #121412",
"#<	c #3F322F",
"$<	c #443530",
"%<	c #3F3835",
"&<	c #353332",
"*<	c #39393B",
"=<	c #3B3A3C",
"-<	c #343534",
";<	c #474242",
"><	c #403B3A",
",<	c #433834",
"'<	c #443935",
")<	c #443A35",
"!<	c #3D332F",
"~<	c #453834",
"{<	c #3C2E2C",
"]<	c #3C2E2D",
"^<	c #383130",
"/<	c #0F1514",
"(<	c #2E231F",
"_<	c #3D2D26",
":<	c #3B2D26",
"<<	c #2A1F1C",
"[<	c #231D1A",
"}<	c #4A5051",
"|<	c #3F3736",
"1<	c #2A2929",
"2<	c #2F302F",
"3<	c #2E302F",
"4<	c #2E312F",
"5<	c #2E3130",
"6<	c #35393C",
"7<	c #3E4547",
"8<	c #8B4F35",
"9<	c #BE9483",
"0<	c #231E1E",
"a<	c #392F2A",
"b<	c #444141",
"c<	c #131311",
"d<	c #453833",
"e<	c #483933",
"f<	c #3F3633",
"g<	c #393939",
"h<	c #3A3C3B",
"i<	c #474041",
"j<	c #443E3D",
"k<	c #413A35",
"l<	c #423029",
"m<	c #463128",
"n<	c #442D26",
"o<	c #412D25",
"p<	c #412D27",
"q<	c #372C29",
"r<	c #0D1514",
"s<	c #352A25",
"t<	c #433128",
"u<	c #382820",
"v<	c #2B201C",
"w<	c #4C5252",
"x<	c #1E2628",
"y<	c #2D2B2B",
"z<	c #272726",
"A<	c #2D2E2E",
"B<	c #3E4749",
"C<	c #8C4F36",
"D<	c #BD9585",
"E<	c #221818",
"F<	c #342821",
"G<	c #48403B",
"H<	c #434144",
"I<	c #453A37",
"J<	c #493F3B",
"K<	c #413B3A",
"L<	c #3E3C3B",
"M<	c #3E3F3F",
"N<	c #353739",
"O<	c #433D3F",
"P<	c #45423E",
"Q<	c #402F28",
"R<	c #413028",
"S<	c #43342B",
"T<	c #42352C",
"U<	c #3F3029",
"V<	c #45352D",
"W<	c #3D3230",
"X<	c #111818",
"Y<	c #362924",
"Z<	c #46332A",
"`<	c #3F2F27",
" [	c #2D221C",
".[	c #4B4F50",
"+[	c #212729",
"@[	c #2D292A",
"#[	c #262625",
"$[	c #2D2F2E",
"%[	c #332D2E",
"&[	c #353B3E",
"*[	c #3D484B",
"=[	c #8D4F36",
"-[	c #BF9888",
";[	c #2A1E1A",
">[	c #463F3D",
",[	c #433F42",
"'[	c #3A3333",
")[	c #383535",
"![	c #383939",
"~[	c #363638",
"{[	c #4A4848",
"][	c #4A4B49",
"^[	c #454642",
"/[	c #3D2F2B",
"([	c #423730",
"_[	c #3D322C",
":[	c #151A1A",
"<[	c #2E211D",
"[[	c #442F27",
"}[	c #46352C",
"|[	c #332721",
"1[	c #27201C",
"2[	c #494E4F",
"3[	c #242A2C",
"4[	c #1A1A1A",
"5[	c #333131",
"6[	c #2C2929",
"7[	c #252524",
"8[	c #252625",
"9[	c #35302F",
"0[	c #322F30",
"a[	c #302F2F",
"b[	c #3B2D2A",
"c[	c #3F2D29",
"d[	c #332E2E",
"e[	c #2D2F31",
"f[	c #313D40",
"g[	c #3C484B",
"h[	c #894E36",
"i[	c #BA9485",
"j[	c #4C4C4B",
"k[	c #4D4B4C",
"l[	c #151512",
"m[	c #3A3735",
"n[	c #393836",
"o[	c #373639",
"p[	c #4F4A4A",
"q[	c #484445",
"r[	c #3D3939",
"s[	c #3B3331",
"t[	c #3A312E",
"u[	c #362E2C",
"v[	c #3F3431",
"w[	c #3E3631",
"x[	c #3D3732",
"y[	c #433A37",
"z[	c #403939",
"A[	c #161B1A",
"B[	c #2E221F",
"C[	c #3E2B25",
"D[	c #3A2A24",
"E[	c #271D19",
"F[	c #241C18",
"G[	c #242A2B",
"H[	c #1A1A1B",
"I[	c #353334",
"J[	c #302B2B",
"K[	c #342421",
"L[	c #292524",
"M[	c #2A2525",
"N[	c #232525",
"O[	c #2B2B2B",
"P[	c #2D2D2F",
"Q[	c #382E2D",
"R[	c #312E2D",
"S[	c #422E29",
"T[	c #29393D",
"U[	c #23474B",
"V[	c #506E71",
"W[	c #828586",
"X[	c #D0CDCB",
"Y[	c #F5F1F0",
"Z[	c #343334",
"`[	c #535556",
" }	c #565658",
".}	c #121310",
"+}	c #303336",
"@}	c #343739",
"#}	c #403F3D",
"$}	c #3B3A39",
"%}	c #37383B",
"&}	c #443E3E",
"*}	c #423D3C",
"=}	c #3E3836",
"-}	c #403936",
";}	c #343232",
">}	c #353333",
",}	c #353537",
"'}	c #121818",
")}	c #332927",
"!}	c #3D2D2A",
"~}	c #2E2120",
"{}	c #211B1C",
"]}	c #464C4E",
"^}	c #22282A",
"/}	c #19191A",
"(}	c #2A2828",
"_}	c #352E2B",
":}	c #342623",
"<}	c #2F2523",
"[}	c #312422",
"}}	c #232426",
"|}	c #252426",
"1}	c #2B2D30",
"2}	c #313B3E",
"3}	c #423735",
"4}	c #433735",
"5}	c #2D4F53",
"6}	c #316F73",
"7}	c #66878B",
"8}	c #181B18",
"9}	c #3E413F",
"0}	c #3C3E3B",
"a}	c #404242",
"b}	c #44484B",
"c}	c #4B4E50",
"d}	c #191A18",
"e}	c #35383A",
"f}	c #333738",
"g}	c #333537",
"h}	c #393435",
"i}	c #393434",
"j}	c #3D3835",
"k}	c #3E3935",
"l}	c #3A3736",
"m}	c #3D3E3C",
"n}	c #323235",
"o}	c #131717",
"p}	c #322825",
"q}	c #2D221F",
"r}	c #211D1D",
"s}	c #211C1B",
"t}	c #4F5557",
"u}	c #2B3131",
"v}	c #244649",
"w}	c #204245",
"x}	c #204244",
"y}	c #1E3F42",
"z}	c #1D3E40",
"A}	c #1D3E41",
"B}	c #1D3E42",
"C}	c #1E3E41",
"D}	c #1E3D41",
"E}	c #1F3F42",
"F}	c #204549",
"G}	c #116168",
"H}	c #0F545C",
"I}	c #375960",
"J}	c #719296",
"K}	c #709396",
"L}	c #829F9E",
"M}	c #343A3C",
"N}	c #333A3D",
"O}	c #1B1C1B",
"P}	c #313130",
"Q}	c #3F3F3D",
"R}	c #3F403C",
"S}	c #444846",
"T}	c #41474A",
"U}	c #42464A",
"V}	c #3A3C3F",
"W}	c #36373A",
"X}	c #37383A",
"Y}	c #363739",
"Z}	c #3B3838",
"`}	c #3D3B3A",
" |	c #3F3B3A",
".|	c #3D3D3B",
"+|	c #3D3B3B",
"@|	c #393839",
"#|	c #191B18",
"$|	c #28201D",
"%|	c #322623",
"&|	c #2E2420",
"*|	c #241D1A",
"=|	c #211B1A",
"-|	c #515E5F",
";|	c #1A3234",
">|	c #1B3134",
",|	c #183033",
"'|	c #224B4F",
")|	c #2B4F54",
"!|	c #383A3B",
"~|	c #749596",
"{|	c #1F3E40",
"]|	c #173939",
"^|	c #16383A",
"/|	c #1B3B3E",
"(|	c #1A3C3D",
"_|	c #1A3C3E",
":|	c #193C3E",
"<|	c #123A3C",
"[|	c #154040",
"}|	c #1D2224",
"||	c #1A181B",
"1|	c #4F4C4E",
"2|	c #3F403F",
"3|	c #3E4245",
"4|	c #3B4143",
"5|	c #191A16",
"6|	c #30302F",
"7|	c #363533",
"8|	c #3C3B38",
"9|	c #3B3D40",
"0|	c #2E2C2C",
"a|	c #1D1C17",
"b|	c #383B3C",
"c|	c #373A3B",
"d|	c #3A3A3C",
"e|	c #3F4244",
"f|	c #3C3C3E",
"g|	c #403F3E",
"h|	c #1B1D1A",
"i|	c #322724",
"j|	c #332A26",
"k|	c #27211E",
"l|	c #241F1C",
"m|	c #2B2825",
"n|	c #1F1E1F",
"o|	c #48545A",
"p|	c #464E51",
"q|	c #17181B",
"r|	c #1F1E1E",
"s|	c #6B6A6A",
"t|	c #929292",
"u|	c #373332",
"v|	c #424648",
"w|	c #3C4243",
"x|	c #181916",
"y|	c #282726",
"z|	c #353231",
"A|	c #313031",
"B|	c #21201E",
"C|	c #3D4044",
"D|	c #3F4144",
"E|	c #434445",
"F|	c #454746",
"G|	c #393A3D",
"H|	c #191A19",
"I|	c #302724",
"J|	c #3A2C28",
"K|	c #2C231F",
"L|	c #2A211B",
"M|	c #2B2522",
"N|	c #1E1C1E",
"O|	c #444B4F",
"P|	c #383739",
"Q|	c #202325",
"R|	c #1C2D2F",
"S|	c #1F2A2B",
"T|	c #1F2426",
"U|	c #1D1D1E",
"V|	c #151717",
"W|	c #ABAAAA",
"X|	c #363536",
"Y|	c #313639",
"Z|	c #2A2727",
"`|	c #2D2829",
" 1	c #393635",
".1	c #404141",
"+1	c #292B2C",
"@1	c #1F1E1D",
"#1	c #363535",
"$1	c #383638",
"%1	c #343437",
"&1	c #333236",
"*1	c #424549",
"=1	c #454949",
"-1	c #41464A",
";1	c #3C4144",
">1	c #434748",
",1	c #474A4D",
"'1	c #3E4145",
")1	c #291F1C",
"!1	c #3D2D27",
"~1	c #3D2F29",
"{1	c #3B2E27",
"]1	c #3A2E25",
"^1	c #2B2421",
"/1	c #272B2B",
"(1	c #4A555A",
"_1	c #454B50",
":1	c #353737",
"<1	c #1D1B1C",
"[1	c #211E20",
"}1	c #202929",
"|1	c #1D3031",
"11	c #242324",
"21	c #171919",
"31	c #1E1F1E",
"41	c #1B1B1C",
"51	c #6C6B6B",
"61	c #343433",
"71	c #353638",
"81	c #33373A",
"91	c #272A2D",
"01	c #191919",
"a1	c #222120",
"b1	c #3D3C3B",
"c1	c #282A2D",
"d1	c #333336",
"e1	c #3E3F3E",
"f1	c #323637",
"g1	c #313537",
"h1	c #323338",
"i1	c #44494C",
"j1	c #464B4B",
"k1	c #454648",
"l1	c #464A4C",
"m1	c #434749",
"n1	c #42484B",
"o1	c #43484C",
"p1	c #3A4044",
"q1	c #1A1C1D",
"r1	c #2D2220",
"s1	c #392925",
"t1	c #372B29",
"u1	c #322624",
"v1	c #2F241D",
"w1	c #221B17",
"x1	c #252727",
"y1	c #343536",
"z1	c #1A4143",
"A1	c #312827",
"B1	c #352927",
"C1	c #382A27",
"D1	c #2E2625",
"E1	c #191B1B",
"F1	c #323739",
"G1	c #4C5053",
"H1	c #2C2A2B",
"I1	c #2E2D2F",
"J1	c #2E2F31",
"K1	c #2D3030",
"L1	c #1E1D1A",
"M1	c #21201F",
"N1	c #41403D",
"O1	c #40403F",
"P1	c #2D2F32",
"Q1	c #363639",
"R1	c #414142",
"S1	c #414343",
"T1	c #323136",
"U1	c #42454A",
"V1	c #464647",
"W1	c #444546",
"X1	c #404244",
"Y1	c #3D4042",
"Z1	c #36383C",
"`1	c #2D2321",
" 2	c #322523",
".2	c #2A2122",
"+2	c #261D1F",
"@2	c #28231F",
"#2	c #3B434B",
"$2	c #545454",
"%2	c #23393D",
"&2	c #24474E",
"*2	c #284549",
"=2	c #28373B",
"-2	c #353130",
";2	c #312E2F",
">2	c #282425",
",2	c #474748",
"'2	c #2D2C2C",
")2	c #706F71",
"!2	c #2A2A28",
"~2	c #3C3B39",
"{2	c #474B4D",
"]2	c #484C4E",
"^2	c #373739",
"/2	c #3C3C40",
"(2	c #2F2D30",
"_2	c #2C2B2F",
":2	c #44474C",
"<2	c #484C4F",
"[2	c #424241",
"}2	c #444343",
"|2	c #3F3F40",
"12	c #2C241F",
"22	c #2B2322",
"32	c #211A1B",
"42	c #281F1C",
"52	c #2A2521",
"62	c #161717",
"72	c #222425",
"82	c #3F484F",
"92	c #3A3A39",
"02	c #312D2C",
"a2	c #263539",
"b2	c #2B2A2C",
"c2	c #312E30",
"d2	c #2B2729",
"e2	c #3D3537",
"f2	c #394B4F",
"g2	c #2F6468",
"h2	c #2D5252",
"i2	c #2A2424",
"j2	c #344248",
"k2	c #5F6364",
"l2	c #3B3B3A",
"m2	c #373537",
"n2	c #484B4D",
"o2	c #474D4F",
"p2	c #302F31",
"q2	c #505558",
"r2	c #4C5152",
"s2	c #3F4141",
"t2	c #494949",
"u2	c #4C4B4C",
"v2	c #261E1C",
"w2	c #2D211E",
"x2	c #2D2422",
"y2	c #29201B",
"z2	c #26201D",
"A2	c #1C1B1B",
"B2	c #1B1F20",
"C2	c #394247",
"D2	c #3F4242",
"E2	c #494849",
"F2	c #2B2323",
"G2	c #2A2223",
"H2	c #2A2222",
"I2	c #282021",
"J2	c #201D1E",
"K2	c #424142",
"L2	c #434143",
"M2	c #242223",
"N2	c #2D2728",
"O2	c #302B2A",
"P2	c #322C2B",
"Q2	c #2F2A29",
"R2	c #282223",
"S2	c #322E2F",
"T2	c #656464",
"U2	c #393936",
"V2	c #4C4F4F",
"W2	c #4B4F52",
"X2	c #1D1C1C",
"Y2	c #464645",
"Z2	c #3F3E3E",
"`2	c #41403F",
" 3	c #3B3C3B",
".3	c #4F5253",
"+3	c #474B4C",
"@3	c #3E4043",
"#3	c #39383B",
"$3	c #3E4040",
"%3	c #2F3137",
"&3	c #35373A",
"*3	c #1B1D1D",
"=3	c #241E1D",
"-3	c #2A2220",
";3	c #2B2422",
">3	c #251F1E",
",3	c #211D1A",
"'3	c #1F1D1D",
")3	c #1C2021",
"!3	c #353D41",
"~3	c #9D9C9C",
"{3	c #2D3538",
"]3	c #0D0E0E",
"^3	c #353A3D",
"/3	c #42484D",
"(3	c #3A3D42",
"_3	c #7F7F80",
":3	c #767577",
"<3	c #3F4143",
"[3	c #1D1F1B",
"}3	c #312F31",
"|3	c #383436",
"13	c #4E4F4E",
"23	c #4C4E50",
"33	c #343233",
"43	c #353434",
"53	c #38383B",
"63	c #3E403F",
"73	c #333437",
"83	c #3A3D3C",
"93	c #343738",
"03	c #171718",
"a3	c #231E1D",
"b3	c #292321",
"c3	c #26221F",
"d3	c #231F1D",
"e3	c #1E1B18",
"f3	c #1F1C18",
"g3	c #22211E",
"h3	c #2B2F32",
"i3	c #353633",
"j3	c #3E454A",
"k3	c #23282B",
"l3	c #0B0C0C",
"m3	c #303235",
"n3	c #3A3D40",
"o3	c #1E1D1C",
"p3	c #23211F",
"q3	c #272524",
"r3	c #333234",
"s3	c #333235",
"t3	c #2C2B2E",
"u3	c #30312F",
"v3	c #363431",
"w3	c #1D1E1D",
"x3	c #333535",
"y3	c #323231",
"z3	c #2D2C2D",
"A3	c #353437",
"B3	c #343336",
"C3	c #2E2E2E",
"D3	c #282627",
"E3	c #191714",
"F3	c #1B1A18",
"G3	c #1B1A1C",
"H3	c #181A1A",
"I3	c #222221",
"J3	c #242422",
"K3	c #262523",
"L3	c #262425",
"M3	c #1A1B1A",
"N3	c #1B1B1B",
"O3	c #1E1D1B",
"P3	c #22201E",
"Q3	c #252423",
"R3	c #292725",
"S3	c #2E2A2B",
"T3	c #202121",
"U3	c #242123",
"V3	c #252324",
"W3	c #232223",
"X3	c #222222",
"Y3	c #18191A",
"Z3	c #161919",
"`3	c #151816",
" 4	c #141615",
".4	c #151616",
"+4	c #171515",
"@4	c #161614",
"#4	c #171717",
"$4	c #161716",
"%4	c #171817",
"&4	c #181716",
"*4	c #191B19",
"=4	c #141514",
"-4	c #151516",
";4	c #141616",
">4	c #141715",
",4	c #151614",
"'4	c #151517",
")4	c #161619",
"!4	c #171819",
"~4	c #1F1D1E",
"{4	c #242224",
"]4	c #262524",
"^4	c #232122",
"/4	c #232021",
"(4	c #201F1F",
"_4	c #20211F",
":4	c #1F201F",
"  . + @ # $ % & * = - ; > , ' ) ! ~ { ] ^ / ( _ : < [ } | 1 2 3 4 5 6 7 8 9 0 a b c d e f g h i j k l m n o p q r s t u v w x y ",
"z A B C D E F G H I J K L M N O P Q R S T U V W X Y Z `  ...+.3 @.#.$.%.&.*.=.-.;.>.,.'.).!.~.{.].^./.(.3 _.:.<.[.}.|.1.2.> 3.4.",
"5.6.7.8.9.0.a.b.c.d.e.f.g.h.i.j.k.l.m.n.o.p.q.r.Z s.t. .u.v.w.x.y.z.A.B.C.D.E.F.G.H.I.J.K.L.M.N.O.P.Q.R.S.T.U.V.W.X.Y.Z.`. +.+++",
"@+#+$+%+&+*+=+-+$+;+>+,+'+)+9.!+~+{+R ]+^+/+(+_+:+~+<+[+}+|+1+2+3+3+4+5+6+7+8+9+0+a+b+c+d+e+f+g+h+i+j+k+l+m+n+o+#+Y.p+q+r+s+t+u+",
"v+w+x+y+z+A+B+C+D+E+F+G+H+I+J+K+L+M+N+O+P+Q+R+S+T+U+V+W+X+Y+Z+`+ @.@+@@@#@$@%@&@*@=@-@;@>@,@'@)@!@~@{@]@^@! /@(@_@:@<@[@}@|@1@2@",
"3@4@5@6@7@8@9@0@a@b@c@d@e@f@g@h@i@j@k@l@m@n@o@p@p@q@r@s@t@u@v@w@x@y@z@A@B@C@D@E@F@G@H@I@J@K@L@M@N@O@P@Q@R@S@T@U@V@W@X@Y@Z@`@ #.#",
"+#@###$#%#&#*#=#C+W -#;#>#,#'#)#!#~#`@{#]#^#/#(#_#:#<#[#}#|#1#2#3#4#5#6#7#8#9#0#a#b#c#d#e#f#g#h#i#j#k#l#m#n#o#p#q#r#s#t#u#v#w#x#",
"y#z#A#C+B#C#D#E#F#f@G#H#I#J#K#L#M#N#O#P#Q#R#S#T#U#V#W#X#Y#Z#`# $ $.$`#+$@$#$$$%$$$&$*$=$-$;$>$,$'$)$!$~$,+{$]$^$/$($_$:$<$[$}$|$",
"1$2$A#3$4$5$-+6$7$8$K+9$0$a$w b$T+c$d$e$f$g$h$i$j$k$l$m$n$o$ $p$q$r$r$p$s$t$u$v$w$x$y$z$A$B$C$D$E$F$G$H$I$J$K$L$M$N$L$O$P$Q$R$S$",
"T$U$V$W$X$Y$Z$`$ %.%+%@%#%$%%%&%*%=%-%;%>%,%'%)%!%~%{%'+2 2 ]%^%/%(%_%:%<%[%}%|%1%2%3%4%5%6%7%8%9%0%a%b%c%d%e%f%g%h%c%i%j%k%l%m%",
"U.n%o%p%q%r%s%t%u%v%w%x%y%z%A%B%C%D%E%F%G%H%I%J%K%L%M%N%O%P%I#I#Q%R%~+S%T%U%V%W%X%Y%Z%`% &.&+&@&#&$&%&&&0%*&=&-&;&>&,&'&)&!&~&{&",
"]&^&/&(&_&c.:&<&..[&}&|&1&2&3&4&5&6&7&8&9&0&I#a&b&c&d&e&f&g&h&i&j&k&l&m&n&Z#o&p&q&r&s&t&u&v&w&x&y&z&A&B&$&C&D&E&F&G&H&I&J&K&-%L&",
"M&N&O&P&$+Q&R&S&p$T&6.U&V&W&X&Y&Z&`&M% *.*+*@*#*$*%*J%F#&***=*d.d.-*;*>*,*'*)*!*~*{*]*^*/*(*_*:*<*[*}*|*1*2*3*4*5*6*7*8*9*0*a*b*",
"c*d*c&c&e*f*g*h*i*j*k*l*m*n*o*p*q*r*s*t*u*v*w*x*y*z*A*B*C*D*E*F*G*H*I*J*K*L*M*N*O*P*Q*R*S*T*U*V*W*X*Y*Z*`* =.=+=@=#=$=%=&=*===-=",
";=>=3.,=r%'=)=!=~={=]=l*^=/=G#(=_=:=<=[=}=|=1=2=3=4=5=6=7=8=9=0=a=b=c=d=e=f=g=h=i=j=k=l=m=n=o=p=q=r=s=t=u=v=w=x=y=z=A=B=C=D=E=F=",
"G=H=I=-+7.J=e*-*K=L=M=N=O=P=Q=R=S=T=U=V=W=X=Y=Z=`= -.-+-@-#-$-%-&-*-=---;->-,-'-)-!-~-{-]-^-/-(-_-y=:-<-[-}-|-1-2-3-4-w=5-6-7-8-",
"9-0-a-b-c-d-e-f-`@}&g-h-i-j-k-l-m-n-o-p-q-r-j$s-t-u-v-w-x-y-z-A-B-C-D-E-F-G-H-I-J-K-L-u=M-N-[*r=O-P-Q-^-R-S-T-U-x&V-W-X-[*s=Y-Z-",
"`- ;.;+;@;#;$;%;&;[&(%*;=;R%-;;;>;,;';);!;~;{;];^;/;(;_;:;<;[;};|;1;2;3;4;5;6;7;8;9;0;a;b;c;d;e;f;g;h;i;R-j;k;l;m;n;z&o;p;:*w=q;",
"r;s;t;u;v;w;x;y;z;A;7$N=B;C;D;E;F;G;H;I;J;K;L;M;N;O;P;Q;R;S;T;U;V;W;X;Y;8#Z;`; >.>+>@>#>$>%>&>*>=><-->;>>>,>'>)>!>~>{>]>^>e;/>(>",
"m+_>v.:><>[>d*}>|>1>2>N=O=3>R 4>5>**@*6>0-7>8>9>j-0>a>b>c>d>e>f>g>h>i>j>k>l>m>n>o>p>q>r>s>t>u>v>w>x>y>z>A>B>C>z&D>E>F>:*G>H>I>J>",
"K>L>M>N>O>P>Q>/$R>S>T>N=U>V>W>X>Y>Z>L;`>r. ,.,+,8>@,#,$,%,&,*,=,-,;,>,,,',),!,~,{,],^,/,(,t>_,:,<,*>[,},F>|,1,2,h%3,4,[*5,6,7,8,",
"9,0,P&a,$;b,_&c,d,e,f,g,h,@,i,j,k,l,m,n,L$o,>%p,q,8*r,s,t,u,v,w,x,y,z,A,B,C,D,E,F,G,H,I,J,K,L,M,c;N,O,P,Q,D>R,S,T,U,;$V,W,X,Y,U,",
"Z,r.b,`, '.'+'@'#'$'&+%'E>{#&'*'='-';'>'f=,''')'!'~'>%{'N$]'^'/'('_':'<'['}'|'1'2'3'4'5'6'7'8'9'0'a'b'c'9%d'e'f'g'h'i'j'k'l'm'n'",
"H=u;o'p'c-q'r's't'u'v'%'w'x'y'z'A'B'i-C'D'E'F'G'H'I'J'f=E%K'L'M'N'O'P'Q'R's-S'T'U'V'W'X'Y'Z'`' )[,.)+)@)]-#)$)%)&)*)=)-);)>),)')",
"<%M>))!)~)N>{)P&])^)/)A>()T,0%_):)<)t,[)})|)1)2)3)4)5)5)6)7)8)9)9)0)a)b)J'c)s.d)M$e)f)g)h)i)j)k)l)m)n)o)p)q)r)s)t)u)v)w)x)}*y)X-",
"z)7.6>A)$;A)B)))C)D)K=E)*>F)G)H)I)u*F'J)K)L)M)N)O)P)T,N$Q)R)S)T)U)V)W)z,X)Y)Q'Z)`) !.!+!@!#!$!%!&!*!=!-!;!>!,!'!)!!!~!{!]!^!/!:*",
"0..,_+f-(!_!P&_!:!<![!}!|!1!2!3!4!5!5!A>6!7!8!9!-=0!a!b!c!d!e!f!g!h!i!j!J*^)E%k!l!H+m!n!o!p!,!F$q!r!s!t!u!v!w!x!y!z!a)A!B!C!7,D!",
"E!-#F!($W a-e-G!c,H!I!}!J!K!L!M!E>!'<)L!l$N!O!P!Q!R!&'S!E;T!U!V!W!X!Y!Z!`! ~.~+~@~#~]=$~%~&~*~=~-~>'v#;~>~-&#,,~-'l.'~)~!~&=~~1!",
"0..,{~]~^~/~(~q'o'_~:~<~[~7*0%}~|~e%]+1~2~3~4~5~6~7~8~9~0~a~b~c~d~e~f~g~h~i~j~I#),k~]=l~m~n~o~p~q~r~s~ +t~u~v~w~x~l@y~z~i&A~B~C~",
"D~E~F~G~H~I~J~@'G~K~L~M~N~O~o;P~A>Q~R~S~T~C U~V~W~,'X~Y~Z~`~ {.{+{@{#{${%{8*>*7>&{R%z)*{={-{;{>{,{'{a$){!{~{{{]{^{/{({_{:{<{[{}{",
"|{r'q'K~1{2{3{4{5{3{6{7{8{9{0{[)b%!&a{B$b{c{d{e{f{g{h{i{n$j&j{k{l{m{n{o{p{q{6)Y r{-~s{t{u{v{w{x{y{z{A{B{C{D{E{F{G{H{I{, J{K{L{M{",
"N{A.O{R.P{Q{R{S{T{Q{U{V{W{X{Y{P~W{Z{`{ ].]+]@]#]F'J'K;$]C,R'%]&]*]=]-];]>],]']X))]($!]~]{]n~]]^]/]),(]_]:]<][]}]H*|]1]2]a)3]4]5]",
"6]7]8]9]0]a]b]c]d]e]f]g]h]i]j]k]l]m]-=n]o]p]q]f%r]s]t]u]v]w]x]y]z]A]B]C]D]E]F]G]P%H]I]J]K]L]f]M]N]O]J=P]Q]R]S]T](=U]R,V]W]X]Y]U>",
"Z]`]R{ ^.^+^@^#^$^%^8;&^C=*^=^4!N=-^;^d%>^,^'^S!)^!^~^{^$]]^^^/^(^<%.+j-V~_^:^G]<^m$R&[^}^|^1^2^3^4^5^7>:]6^7^8^9^0^a^b^c^d^e^f^",
"g^h^i^j^k^l^m^n^o^p^q^r^s^t^W{u^v^w^x^^=S=y^z^A^<)I'O+B^)^C^D^E^F^G^H^H*4>I^J'-'.*@,Q&J^K^L^M^N^O^P^u+Q^R^S^T^U^m{V^W^X^b@E+Y^$+",
"Z^`^ /./+/@/#/`^$/%/&/*/=/-/8{;/>/,/'/y~)/U>!/b!O=~/{/)^u]]/E;0$^///(/w+_/:/U~S=V~S'|@</[/}/|/1/2/3/4/5/6/7/8/9/>#0/a/b/c/d/c.W ",
"e/f/g/h/i/j/k/l/m/n/o/p/q/r/O~s/t/0%u/>^>^)~v/b!V&i-;@w/F'x/y/q'z/A/Q&B/C/D/E/F/G/H/.~I/J/K/L/M/N/j~O/P/Q/R/S/T/U/O^V/W/X/M c.I!",
"Y/Z/`/ (.(+(k#@(#($(%(&(w&*(=(-(;(N,>(M$8*{',('(P$)(!(~(!({(](^(s-/(((X)8*;@;@_(>*:(@#<([(}(|(1(2(3(4(a*5(6(7(8(9(0(a(b(.+u.c(X ",
"d(e(f(g(h(i(j(k(l(m(n(o(p(q(r(s(t(u(v(f=Q%w(x(H/y(U>z(H&w/H&{^@,f=0>R%M$I*A(B(C(_=D(F!E(F(0&G(Q@H(I(),'+J(K(L(+~j~M(M(N(.~X/c&` ",
"O(P(B.Q(R(S(T(U(V(0]W(X(D$Y(a;Z(`(P, _f=I#~/._j;g{d)!'!'f{H&H&{'$]-'{'+,*=m,*=m,L$G*j-+_@_0&2{#_0@$_%_&_*_=_-_;_>_,_'_]))_!_` x#",
"~_{_]_^_/_(_O^__:_#;<_[_j]t=P,}_|_=&1_N$I#~/2_3_g{D,f{H&O+O+O+$]4_4_{'5_6_5_*=B,7_j.`@8_9_0_a_b_#_c_d_e_f_g_h_i_s'j_k_z/c/> l_m_",
"n_o_p_q_r_-~^ s_^&t_u_v_w_x_y_a;z_i-A_B_B_;@C_D_g{)~f{I'!'4_4_$]4_E_5_W~g{g{F_@*d^u#G_H_I_J_K_L_M_N_P=O_P_Q_R_S_T_W U_c.S+`@V_v#",
"W_H~X_Y_Z_`_N+ :W@.:+:@:=/n;#:$:%:&:Z&X]>^~(*:&,i--'f{f{4_4_4_4_=:-:L$g{W~;:>:9),:':):!:~:{:]:^:/:(:_:::<:[:}:+:|:a([>1:2:>:3:4:",
"Z^R.5:6:6:7:<_6{8:9:0:a:b:q;P~c:d:e:f:B')~!'g:h:B_q*{'i:4_i:4_~/B'y%y%y%y%S',:j:j:E+d^>++{k:l:m:n:o:p:q:r:s:t:u:v:.+M>w:x:y:z:a,",
"A:B:C:D:E:F:G:H:u:!:K~I:J:K:n'L:M:N:O:P:I^Q:C_R:W~;@{/f{9>S:-'X]2 @,T:T:R=U:,:j-E+E+V:W:X:Y:Z:`: <.<+<q,@<#<$<%<&<*<=<w#-<M(k_y:",
";<><]_,<'<)<!<~<{<]<^</<(<_<:<<<[<}<O:Y],^!(|<1<<)|';~<))()(3/2<3<4<2 5<T:R=q,j- ,j:d^6<7<8<9<0<a<%.b<G*c<d<e<f<q'Y g<> V:h<w+ +",
"i<j<k<./l<m<n<o<p< (q<r<s<t<u<v<|*w<x<_(H&x~y<^=,^;~^=z<)()(A<3<S'3<S'3<3<3/f^s_-~@*C,@{B<C<D<E<F<G<H<'+w^I<J<K<L</$M<f-J*#*-#N<",
"O<b<P<@^Q<R<S<T<U<V<W<X<Y<Z<`< [N~.[+[U~~&H/@[#[S=S=^=z<^=O=$[S'2 S'j;3_j;[$%[Q)l&L;]%&[*[=[-[;[j/>[,[6(4!3_'[+;)[-;6>![~[($_+S)",
"{[][^[m^/[T(([_[a<d<$*:[<[[[}[|[1[2[3[=:4[5[6[7[U>U>8[)>#[>^X]((>'>'[$9[0[a[b[c[d[K$e[f[g[h[i[k;q%j[k[w#l[Z)}$m[n[g<g<o[@~])#*P=",
"p[q[r[s[t[u[v[w[x[y[z[A[B[C[D[E[F[2[G[{/H[I[J[K[L[M[|'U>N[|'J;Y]O[F_P[Q[R[R[S[R[>'T[U[V[W[X[Y[Z[r{`[ }k-.}+}@}k_#}$}V_W )]c/O'%}",
"&}*}=}-}C+;}>}b,D;o',}'})}!}~}{}a!]}^}w//}(}_}:}<}[}y^G]|'-'}}<'|}d)1}2}3}4}D;W#5}6}7}8}G^z/9}0}a}b}c}a&d}c$'%u.q#d,k_z/.+e}f}g}",
"h}i}j}k}@;l}m}`>Y M(n}o}p}l(q}r}s}t}5~O+/}=&u}v}w}x}y}z}A}B}B}C}D}E}F}G}H}I}J}K}L}M}N}O}P}$+Q}R}S}T}U}H+H#6)S+V}u'M>c/![l!W}X}Y}",
"Z}O {~`} |`}.|p'N>+|@|#|$|%|&|*|=|-|;|>|,|'|)|3&!|~|{|]|^|/|(|_|:|<|[|}|||1|6@2|{$3|4|5|6|$}7|8|B+9|4@0|a| ,W `)b|c|y;![ ,~[t.d|",
"8>V}e|r{N u;f|W@g|Y$$+h|n'i|j|k|#=l|m|n|y,o|p|!_X v;-'u]q|f{f{H&p,x!{^r|s|t|u|0(.~v|w|x|y|&,z|J->_w+H]A|B|),g<> !|t.t.Y X}l!_+~[",
" ~C|..q#1.3&D|E|F|E|G|H|I|J|_[K|L|M|l@N|w.({O|)]`@P|9)Q|R|S|T|9>U|V|](n|W|V_X|#*T/T+Y|h%z'Z|`| 1L<.1p@+1@1(~f-#1f-Q>(!$1%1Y}N(&1",
"*1x =1A+D~,#-1;1>1,1'1x/)1!1~1{1]1^1i-t,/1(1_1r.:1j:M(<1[1}1|111E/21314151V_617181Z>9101h%a1:$_!b1-#~#c1p]d1@~E+W #*e1X f1g16)h1",
"x i1j1k1F )+l1m1n1o1p1q1r1s1t1u1v1w1Q:G'x1K{v%(~I!k-y1z1z}A1B1C1D1E1J.O+$,F1G1H1I1J1K1L1M15]&,N1O1%%G#P14[s+Q1/$R1c.S1)_(/E%6)T1",
"G=U1H=c.<>V1W1X1e*Y1Z1~&`1 2.2+2)1@2; G%+,#2=%)_u;W $27[*,%2&2*2=26_E/-'-2;2>2,2l_'2==)2!2T_~2b1c({2]26)=&^2@~Q>c./2}&!_j~k!(2_2",
":2<2d&[>8>[2}2|2W@q#M>d}12s<22324252I)627282G#92k-x^r,<$<$02C&a2T[I1b2P|c2d2e2f2g2W!h2i2j2k2l2m2M<n2o26)r|,,|2(!s.w;W@=<2.p2H*I#",
"q2r2[&@~,,`)S1s2t2u2r%h%v2w2x2O~y2z2A2w^B2C2D2$}'_g<E2F2G2H2I2J2K2L211r,$,M2N2O2P2I(Q2R2S2T2U2c!!)V2W2E%X2O1Y2Z2P|k-92`2|2^2 3V:",
".3+3@3#3$37&%3&3S1d.{$*3=3-3;3>3,3B>'3A2)3!3@#V_D(`@![s2v.~3{3]3^3/3(3`@5]_3:3<3Z,R&b|[35_}3R)|3B+1323~+;%P=$+I[33Q)N$43P|53)]I!",
"23&+r%c(63c|7383**S+9303a3b3c3d3e3f3g3U/J'h3P[P i3q:E+.1e|j3k3l3m3n3O#{;o3p3q3r3s3d1t301<^u3v3)[L<=+A+]%w3x3>:y/y3z3z36|x#A3^2B3",
"3>k!N$C3B,L$D3&=D3*=~/,+-^e%d%2!q)E3F3=&G3H3G%I3J3K3L3y|y|r,M3>!G'U|p]N301w~O3P3a>&'G3S.G%; Q3R3a)S3y<z(W)T3,^l@#[l@U3V3=,B;*,W3",
"y~y~)~X3z(U|!'r|p]4[Y3Z3`3 4.4A!+4@44!#462.4$4%4&4A!$4$4,+#4*4H|w^=4u^-4.4;4>4,4w^{&'4)4!4~&I)M1M1a>~4H& *y~;@{4]4L3^4/4M;(4_4:4"};
