/* XPM */
static char * pgauche_xpm[] = {
"64 64 2972 2",
"  	c #60676D",
". 	c #595E64",
"+ 	c #5A5E63",
"@ 	c #5B5F63",
"# 	c #595E61",
"$ 	c #53585D",
"% 	c #585E61",
"& 	c #575C60",
"* 	c #5A6064",
"= 	c #52585E",
"- 	c #4A5055",
"; 	c #212221",
"> 	c #373839",
", 	c #474C4F",
"' 	c #505658",
") 	c #4D5456",
"! 	c #4A5053",
"~ 	c #494E50",
"{ 	c #434647",
"] 	c #232121",
"^ 	c #2E3132",
"/ 	c #51585D",
"( 	c #54595C",
"_ 	c #4E5052",
": 	c #4A4C4C",
"< 	c #47484B",
"[ 	c #4B4C4E",
"} 	c #525355",
"| 	c #4E5154",
"1 	c #505457",
"2 	c #2E3030",
"3 	c #1A1C1B",
"4 	c #5D666B",
"5 	c #5A6167",
"6 	c #545858",
"7 	c #555452",
"8 	c #4E4B4A",
"9 	c #4A4547",
"0 	c #544F4C",
"a 	c #5B514A",
"b 	c #655953",
"c 	c #5A4E4D",
"d 	c #514947",
"e 	c #2B2722",
"f 	c #5B453A",
"g 	c #70584E",
"h 	c #6E5F5A",
"i 	c #6F6661",
"j 	c #696562",
"k 	c #666362",
"l 	c #5A5556",
"m 	c #3F3A3A",
"n 	c #1B1B17",
"o 	c #545D60",
"p 	c #5F666B",
"q 	c #5E6366",
"r 	c #585D5E",
"s 	c #4B4E52",
"t 	c #4E5051",
"u 	c #4A4C4D",
"v 	c #424446",
"w 	c #3F4044",
"x 	c #43474B",
"y 	c #494A50",
"z 	c #5B6066",
"A 	c #4C4F52",
"B 	c #4B4D4E",
"C 	c #505252",
"D 	c #515354",
"E 	c #4A4D4F",
"F 	c #47484A",
"G 	c #4B4C4D",
"H 	c #4A4A4C",
"I 	c #494C50",
"J 	c #3B3F44",
"K 	c #1B1D1C",
"L 	c #2F3231",
"M 	c #3C3E41",
"N 	c #3F3F3F",
"O 	c #363435",
"P 	c #313030",
"Q 	c #363534",
"R 	c #303131",
"S 	c #1E1C1B",
"T 	c #303334",
"U 	c #4F5960",
"V 	c #464B4D",
"W 	c #3B3A3B",
"X 	c #52B7B3",
"Y 	c #48B6B1",
"Z 	c #20B2AF",
"` 	c #20B0AD",
" .	c #1FADAB",
"..	c #20AFAB",
"+.	c #1FB0AD",
"@.	c #1FB2AE",
"#.	c #3CB7B2",
"$.	c #5D6468",
"%.	c #4E4C4B",
"&.	c #4E4641",
"*.	c #51463E",
"=.	c #4A3C37",
"-.	c #503F39",
";.	c #574339",
">.	c #5B463D",
",.	c #5B4C47",
"'.	c #4F4743",
").	c #272522",
"!.	c #4B3328",
"~.	c #5D3E31",
"{.	c #5D4338",
"].	c #58443A",
"^.	c #4D3C37",
"/.	c #594D48",
"(.	c #544A47",
"_.	c #363130",
":.	c #4A5054",
"<.	c #53565B",
"[.	c #55575A",
"}.	c #555758",
"|.	c #454748",
"1.	c #454444",
"2.	c #3E3C3E",
"3.	c #363538",
"4.	c #424445",
"5.	c #45484C",
"6.	c #575E62",
"7.	c #484B4C",
"8.	c #3E3E3F",
"9.	c #414143",
"0.	c #464849",
"a.	c #434345",
"b.	c #434444",
"c.	c #464745",
"d.	c #3E3F40",
"e.	c #424647",
"f.	c #353A3C",
"g.	c #131414",
"h.	c #282B2E",
"i.	c #404144",
"j.	c #424342",
"k.	c #333231",
"l.	c #2C2B2A",
"m.	c #302F2E",
"n.	c #262729",
"o.	c #1A1919",
"p.	c #303637",
"q.	c #5BBCB7",
"r.	c #40A9A6",
"s.	c #20A19C",
"t.	c #21A6A1",
"u.	c #29A19A",
"v.	c #329893",
"w.	c #378F8D",
"x.	c #37918F",
"y.	c #379290",
"z.	c #398381",
"A.	c #338684",
"B.	c #269593",
"C.	c #35A09A",
"D.	c #504034",
"E.	c #4C3A30",
"F.	c #534138",
"G.	c #544036",
"H.	c #4A3530",
"I.	c #534440",
"J.	c #494440",
"K.	c #1A1C1C",
"L.	c #37231B",
"M.	c #543729",
"N.	c #553A2D",
"O.	c #472F27",
"P.	c #473129",
"Q.	c #4C3932",
"R.	c #51433E",
"S.	c #3B3432",
"T.	c #181718",
"U.	c #44474F",
"V.	c #505258",
"W.	c #4F5154",
"X.	c #505253",
"Y.	c #505050",
"Z.	c #494848",
"`.	c #39373A",
" +	c #323034",
".+	c #333436",
"++	c #3B3D3E",
"@+	c #414245",
"#+	c #53595F",
"$+	c #434446",
"%+	c #3D3D3D",
"&+	c #3E3E41",
"*+	c #424447",
"=+	c #3E3E42",
"-+	c #424041",
";+	c #424141",
">+	c #414442",
",+	c #35393B",
"'+	c #161616",
")+	c #2D2F30",
"!+	c #474A4C",
"~+	c #393A3E",
"{+	c #37393B",
"]+	c #3E3F3C",
"^+	c #61A4A1",
"/+	c #2E8783",
"(+	c #2F8885",
"_+	c #34918E",
":+	c #3A827D",
"<+	c #397B76",
"[+	c #426762",
"}+	c #465756",
"|+	c #455958",
"1+	c #465C5B",
"2+	c #455B59",
"3+	c #445855",
"4+	c #475B58",
"5+	c #475B59",
"6+	c #436663",
"7+	c #3A7474",
"8+	c #2C7979",
"9+	c #229794",
"0+	c #4AABA6",
"a+	c #483831",
"b+	c #524239",
"c+	c #4B3D36",
"d+	c #504441",
"e+	c #4A4644",
"f+	c #1C1E1B",
"g+	c #2B1A13",
"h+	c #41281D",
"i+	c #462D23",
"j+	c #3B251E",
"k+	c #433027",
"l+	c #4C3931",
"m+	c #4C3C36",
"n+	c #322927",
"o+	c #181818",
"p+	c #4A4F54",
"q+	c #5D5F63",
"r+	c #555759",
"s+	c #454142",
"t+	c #363136",
"u+	c #313033",
"v+	c #2F3033",
"w+	c #343539",
"x+	c #3A3B3E",
"y+	c #4E545A",
"z+	c #3D3E3F",
"A+	c #3B3C39",
"B+	c #404241",
"C+	c #444649",
"D+	c #454546",
"E+	c #42413F",
"F+	c #3D3937",
"G+	c #363233",
"H+	c #383838",
"I+	c #303437",
"J+	c #1A191A",
"K+	c #333435",
"L+	c #4A4F50",
"M+	c #4B5152",
"N+	c #43494C",
"O+	c #3F4648",
"P+	c #424745",
"Q+	c #3B9494",
"R+	c #1F9A97",
"S+	c #37817E",
"T+	c #455F5F",
"U+	c #475857",
"V+	c #485756",
"W+	c #465453",
"X+	c #44504F",
"Y+	c #3E4C4B",
"Z+	c #3A4444",
"`+	c #3B4848",
" @	c #3E4D4D",
".@	c #455B5A",
"+@	c #475B5A",
"@@	c #475A58",
"#@	c #425553",
"$@	c #3A6A69",
"%@	c #2E6B6C",
"&@	c #2A6D6C",
"*@	c #3A8688",
"=@	c #504840",
"-@	c #4F4643",
";@	c #534E4D",
">@	c #4E4B4D",
",@	c #222223",
"'@	c #30221B",
")@	c #3C281E",
"!@	c #3F2C23",
"~@	c #362421",
"{@	c #342420",
"]@	c #42322B",
"^@	c #41322D",
"/@	c #2D2624",
"(@	c #191A1A",
"_@	c #585C5E",
":@	c #4E4F52",
"<@	c #454548",
"[@	c #474647",
"}@	c #413D3F",
"|@	c #3C393A",
"1@	c #3B3A3A",
"2@	c #353738",
"3@	c #343639",
"4@	c #36363A",
"5@	c #4A4F58",
"6@	c #3B3C3E",
"7@	c #3F3F3B",
"8@	c #3F3E3C",
"9@	c #414140",
"0@	c #484743",
"a@	c #43403C",
"b@	c #3D3935",
"c@	c #373030",
"d@	c #373435",
"e@	c #313436",
"f@	c #181717",
"g@	c #343635",
"h@	c #474C4E",
"i@	c #454E50",
"j@	c #434B4F",
"k@	c #3F4649",
"l@	c #3F4342",
"m@	c #3F4241",
"n@	c #36807F",
"o@	c #2A908D",
"p@	c #3F6463",
"q@	c #434D4C",
"r@	c #444D4D",
"s@	c #434C4C",
"t@	c #3E5352",
"u@	c #384D4C",
"v@	c #394243",
"w@	c #3F4E4E",
"x@	c #3F4E4F",
"y@	c #3D4E4E",
"z@	c #385A5B",
"A@	c #3B4343",
"B@	c #393E3F",
"C@	c #325050",
"D@	c #156365",
"E@	c #6D7F81",
"F@	c #4B4543",
"G@	c #524F4F",
"H@	c #494749",
"I@	c #1C1C1B",
"J@	c #31241B",
"K@	c #3D2A20",
"L@	c #38261E",
"M@	c #35241E",
"N@	c #362823",
"O@	c #3E302A",
"P@	c #463833",
"Q@	c #322C29",
"R@	c #151716",
"S@	c #41484A",
"T@	c #515355",
"U@	c #4C4B4F",
"V@	c #434344",
"W@	c #404040",
"X@	c #403D3E",
"Y@	c #3D393B",
"Z@	c #3C3C39",
"`@	c #363637",
" #	c #323337",
".#	c #313236",
"+#	c #4B5158",
"@#	c #3A3C3E",
"##	c #3B3C38",
"$#	c #3E3B38",
"%#	c #413E3D",
"&#	c #48433F",
"*#	c #3C3434",
"=#	c #403A37",
"-#	c #3A3B3D",
";#	c #1A1A16",
">#	c #2F3131",
",#	c #43474A",
"'#	c #3E4648",
")#	c #495354",
"!#	c #464E4F",
"~#	c #35383B",
"{#	c #46EAE1",
"]#	c #22B7B1",
"^#	c #2E8582",
"/#	c #3C5D5B",
"(#	c #444C4C",
"_#	c #415C5A",
":#	c #38716B",
"<#	c #3E5E5D",
"[#	c #40494A",
"}#	c #404546",
"|#	c #404445",
"1#	c #404446",
"2#	c #3F4345",
"3#	c #3F4344",
"4#	c #3E4344",
"5#	c #3C4142",
"6#	c #373C3C",
"7#	c #2F3233",
"8#	c #29393A",
"9#	c #116363",
"0#	c #748686",
"a#	c #4B4544",
"b#	c #4B4747",
"c#	c #434143",
"d#	c #1D1A18",
"e#	c #241914",
"f#	c #2F201A",
"g#	c #271B17",
"h#	c #2E211E",
"i#	c #3B2F29",
"j#	c #352A24",
"k#	c #42362F",
"l#	c #342E2A",
"m#	c #181918",
"n#	c #3C4043",
"o#	c #464749",
"p#	c #414144",
"q#	c #434343",
"r#	c #404240",
"s#	c #393638",
"t#	c #353233",
"u#	c #343332",
"v#	c #343333",
"w#	c #353536",
"x#	c #353435",
"y#	c #4B535A",
"z#	c #393B3F",
"A#	c #393736",
"B#	c #433C3A",
"C#	c #453E3B",
"D#	c #403A39",
"E#	c #424240",
"F#	c #424645",
"G#	c #3D4144",
"H#	c #191916",
"I#	c #2D2D2E",
"J#	c #3E4044",
"K#	c #43484D",
"L#	c #464F50",
"M#	c #434849",
"N#	c #323538",
"O#	c #48F9EE",
"P#	c #3BF7EC",
"Q#	c #23AAA6",
"R#	c #227070",
"S#	c #2A8179",
"T#	c #3C6764",
"U#	c #3B6763",
"V#	c #424F50",
"W#	c #424749",
"X#	c #424648",
"Y#	c #414647",
"Z#	c #404646",
"`#	c #3F4546",
" $	c #3D4445",
".$	c #373C3E",
"+$	c #303234",
"@$	c #2E2F30",
"#$	c #2E2F31",
"$$	c #293C3C",
"%$	c #106463",
"&$	c #718283",
"*$	c #494343",
"=$	c #463F42",
"-$	c #423E41",
";$	c #1E1A18",
">$	c #1C1514",
",$	c #211918",
"'$	c #1E1717",
")$	c #231B1A",
"!$	c #2D2420",
"~$	c #2E2621",
"{$	c #372E27",
"]$	c #292320",
"^$	c #393C3E",
"/$	c #3B3D3F",
"($	c #393A3C",
"_$	c #3D3E3E",
":$	c #383839",
"<$	c #302E30",
"[$	c #2F2D2F",
"}$	c #323030",
"|$	c #2F2E2F",
"1$	c #302F30",
"2$	c #2C2B2D",
"3$	c #54595F",
"4$	c #3A3B3F",
"5$	c #373131",
"6$	c #403938",
"7$	c #46413E",
"8$	c #3C4143",
"9$	c #3D4548",
"0$	c #495154",
"a$	c #1D1C19",
"b$	c #2F2E2E",
"c$	c #3B3B3F",
"d$	c #45494B",
"e$	c #373B3C",
"f$	c #373B3B",
"g$	c #5DF9EF",
"h$	c #38F7EC",
"i$	c #1BCEC8",
"j$	c #269090",
"k$	c #119291",
"l$	c #346C69",
"m$	c #404A4C",
"n$	c #404949",
"o$	c #3A4042",
"p$	c #3F4747",
"q$	c #3F4748",
"r$	c #3B4444",
"s$	c #343B3B",
"t$	c #303233",
"u$	c #2C2D2F",
"v$	c #253B40",
"w$	c #263235",
"x$	c #273034",
"y$	c #272929",
"z$	c #6C7173",
"A$	c #494442",
"B$	c #464042",
"C$	c #464243",
"D$	c #221C19",
"E$	c #1A1413",
"F$	c #141010",
"G$	c #151113",
"H$	c #211C1D",
"I$	c #261F1D",
"J$	c #221B19",
"K$	c #211A19",
"L$	c #1B1617",
"M$	c #121112",
"N$	c #2E2E30",
"O$	c #29282A",
"P$	c #2C2C2E",
"Q$	c #2E2D2E",
"R$	c #2A292B",
"S$	c #2C2B2B",
"T$	c #262427",
"U$	c #222023",
"V$	c #201E20",
"W$	c #4F5359",
"X$	c #424143",
"Y$	c #3A3837",
"Z$	c #3E3A35",
"`$	c #433D39",
" %	c #403E3E",
".%	c #434648",
"+%	c #414648",
"@%	c #404649",
"#%	c #444A4E",
"$%	c #414447",
"%%	c #1F1D1A",
"&%	c #2B2A2A",
"*%	c #404142",
"=%	c #414445",
"-%	c #444A4A",
";%	c #3E4546",
">%	c #3A4043",
",%	c #2B2E31",
"'%	c #64F0E8",
")%	c #20A59F",
"!%	c #325456",
"~%	c #2C3E41",
"{%	c #268380",
"]%	c #356161",
"^%	c #3B4646",
"/%	c #3A4445",
"(%	c #384243",
"_%	c #303032",
":%	c #2D2E2F",
"<%	c #292A2B",
"[%	c #292A2A",
"}%	c #262C2C",
"|%	c #343D3B",
"1%	c #414341",
"2%	c #484A49",
"3%	c #494D4A",
"4%	c #444646",
"5%	c #5A5A5B",
"6%	c #7B7B7C",
"7%	c #474446",
"8%	c #1B1713",
"9%	c #141110",
"0%	c #120E10",
"a%	c #161215",
"b%	c #1B1717",
"c%	c #171412",
"d%	c #171415",
"e%	c #181414",
"f%	c #171314",
"g%	c #131213",
"h%	c #191717",
"i%	c #1A1918",
"j%	c #1D1D1D",
"k%	c #1E1E1C",
"l%	c #181817",
"m%	c #161618",
"n%	c #191819",
"o%	c #161515",
"p%	c #110F10",
"q%	c #110F11",
"r%	c #484747",
"s%	c #3D3B38",
"t%	c #3C3835",
"u%	c #3F3B39",
"v%	c #3D3E40",
"w%	c #434848",
"x%	c #434949",
"y%	c #414649",
"z%	c #404549",
"A%	c #3A3D41",
"B%	c #1C1B18",
"C%	c #2A2B2B",
"D%	c #3F4142",
"E%	c #454A49",
"F%	c #444B49",
"G%	c #394041",
"H%	c #383D40",
"I%	c #323436",
"J%	c #578C89",
"K%	c #307875",
"L%	c #273134",
"M%	c #2E2D2F",
"N%	c #254F50",
"O%	c #305C5F",
"P%	c #326264",
"Q%	c #363D3E",
"R%	c #313234",
"S%	c #2A2C2E",
"T%	c #292B2C",
"U%	c #292C2C",
"V%	c #2B2F2F",
"W%	c #373E3E",
"X%	c #3B4344",
"Y%	c #374747",
"Z%	c #44524F",
"`%	c #3F4643",
" &	c #3E3736",
".&	c #3B3636",
"+&	c #2F3336",
"@&	c #2D3133",
"#&	c #5E5E5F",
"$&	c #404044",
"%&	c #171411",
"&&	c #110E0D",
"*&	c #161213",
"=&	c #171213",
"-&	c #1C1714",
";&	c #1A1716",
">&	c #141213",
",&	c #141013",
"'&	c #191517",
")&	c #1E1B1B",
"!&	c #1E1D1D",
"~&	c #18181A",
"{&	c #141414",
"]&	c #10100F",
"^&	c #111010",
"/&	c #0E0E0F",
"(&	c #121211",
"_&	c #171616",
":&	c #1A1B1B",
"<&	c #151415",
"[&	c #46484D",
"}&	c #3D3D3E",
"|&	c #3A3634",
"1&	c #373432",
"2&	c #3C3B3A",
"3&	c #3E4242",
"4&	c #424545",
"5&	c #404345",
"6&	c #414546",
"7&	c #414345",
"8&	c #1E1E19",
"9&	c #2C2B2C",
"0&	c #3B3C40",
"a&	c #3B3C3F",
"b&	c #3B3F41",
"c&	c #32383A",
"d&	c #383E3F",
"e&	c #36393B",
"f&	c #1B191D",
"g&	c #343A3C",
"h&	c #242728",
"i&	c #252627",
"j&	c #4D3630",
"k&	c #2F5054",
"l&	c #33686C",
"m&	c #33494A",
"n&	c #282D2E",
"o&	c #363B3B",
"p&	c #3A3F3F",
"q&	c #3D4140",
"r&	c #3C403F",
"s&	c #333737",
"t&	c #404140",
"u&	c #434340",
"v&	c #393331",
"w&	c #2F2421",
"x&	c #3A3C3D",
"y&	c #2B2D2E",
"z&	c #292A2C",
"A&	c #393B40",
"B&	c #151412",
"C&	c #161210",
"D&	c #1C1512",
"E&	c #1D1615",
"F&	c #1C1413",
"G&	c #1A1516",
"H&	c #171313",
"I&	c #1D1919",
"J&	c #1B1719",
"K&	c #2E2A2A",
"L&	c #2E2B2B",
"M&	c #272324",
"N&	c #221E1D",
"O&	c #1C1A1A",
"P&	c #1E1E1F",
"Q&	c #232629",
"R&	c #293032",
"S&	c #272C2F",
"T&	c #222225",
"U&	c #45454A",
"V&	c #39383C",
"W&	c #393837",
"X&	c #3C3C3B",
"Y&	c #3B3D3D",
"Z&	c #3E4243",
"`&	c #424646",
" *	c #464A4B",
".*	c #1C1C17",
"+*	c #2C2C2C",
"@*	c #3F4043",
"#*	c #3E3F43",
"$*	c #323236",
"%*	c #2F3334",
"&*	c #373C3A",
"**	c #363A3A",
"=*	c #202020",
"-*	c #262828",
";*	c #A4725D",
">*	c #8E4A2F",
",*	c #6B3F31",
"'*	c #333B3B",
")*	c #343B3A",
"!*	c #363B39",
"~*	c #2E3231",
"{*	c #2A2E2E",
"]*	c #264B49",
"^*	c #20514E",
"/*	c #1D4E4B",
"(*	c #227773",
"_*	c #2B7A74",
":*	c #2C7C75",
"<*	c #2A7A78",
"[*	c #257778",
"}*	c #187B7D",
"|*	c #1A5E5F",
"1*	c #576263",
"2*	c #484946",
"3*	c #525656",
"4*	c #38393F",
"5*	c #111211",
"6*	c #17100F",
"7*	c #201614",
"8*	c #1B1311",
"9*	c #1E1614",
"0*	c #261D1C",
"a*	c #1D1614",
"b*	c #201815",
"c*	c #241E1C",
"d*	c #1C1A18",
"e*	c #2A2221",
"f*	c #251C1C",
"g*	c #211818",
"h*	c #2B231F",
"i*	c #221C1B",
"j*	c #241F1F",
"k*	c #2C2D2E",
"l*	c #343A3A",
"m*	c #2D3234",
"n*	c #26282C",
"o*	c #1F1F22",
"p*	c #47494D",
"q*	c #3E4042",
"r*	c #3E4141",
"s*	c #3E4142",
"t*	c #3F4446",
"u*	c #43494B",
"v*	c #454A4D",
"w*	c #484C50",
"x*	c #45474A",
"y*	c #1D1B17",
"z*	c #2D2D2B",
"A*	c #3D3F42",
"B*	c #3D4043",
"C*	c #2E2F32",
"D*	c #282929",
"E*	c #313331",
"F*	c #333432",
"G*	c #1B1918",
"H*	c #D79D80",
"I*	c #B8603A",
"J*	c #513D36",
"K*	c #304241",
"L*	c #333A3A",
"M*	c #212628",
"N*	c #274D4B",
"O*	c #218583",
"P*	c #23B0AA",
"Q*	c #29AAA3",
"R*	c #25ABA2",
"S*	c #33918A",
"T*	c #3F6C68",
"U*	c #3F5150",
"V*	c #317C79",
"W*	c #346E6B",
"X*	c #326566",
"Y*	c #207D7E",
"Z*	c #277777",
"`*	c #385A5A",
" =	c #435A5B",
".=	c #4A5655",
"+=	c #535C5B",
"@=	c #120C0E",
"#=	c #1E1515",
"$=	c #1D1514",
"%=	c #261C18",
"&=	c #2B221F",
"*=	c #1F1716",
"==	c #241B1A",
"-=	c #27201E",
";=	c #1B1819",
">=	c #251C1F",
",=	c #201716",
"'=	c #1D1413",
")=	c #231A1A",
"!=	c #201A18",
"~=	c #191312",
"{=	c #24201E",
"]=	c #2B2B2A",
"^=	c #282728",
"/=	c #2A2928",
"(=	c #211F1F",
"_=	c #3F4246",
":=	c #414346",
"<=	c #3C3D3F",
"[=	c #3C3E40",
"}=	c #393D40",
"|=	c #3D4245",
"1=	c #454B4E",
"2=	c #45494D",
"3=	c #414244",
"4=	c #262726",
"5=	c #37393C",
"6=	c #2E3033",
"7=	c #292829",
"8=	c #2B292B",
"9=	c #272528",
"0=	c #1A1717",
"a=	c #A87E6B",
"b=	c #83482A",
"c=	c #3C3630",
"d=	c #274746",
"e=	c #283535",
"f=	c #1D2C2E",
"g=	c #2A5F5F",
"h=	c #287E7D",
"i=	c #2A9493",
"j=	c #308281",
"k=	c #348682",
"l=	c #31817E",
"m=	c #327673",
"n=	c #397471",
"o=	c #3E5050",
"p=	c #38423F",
"q=	c #37403F",
"r=	c #345252",
"s=	c #3B4B49",
"t=	c #266F71",
"u=	c #227774",
"v=	c #324E4E",
"w=	c #3C4342",
"x=	c #3C4A49",
"y=	c #3B4947",
"z=	c #6D7676",
"A=	c #1F1416",
"B=	c #291D19",
"C=	c #271D1A",
"D=	c #221816",
"E=	c #211816",
"F=	c #1F1918",
"G=	c #161514",
"H=	c #1D1817",
"I=	c #261E1A",
"J=	c #2C2420",
"K=	c #251A19",
"L=	c #241916",
"M=	c #1F1613",
"N=	c #221916",
"O=	c #201B1A",
"P=	c #211E1E",
"Q=	c #282623",
"R=	c #211E1D",
"S=	c #45484D",
"T=	c #424547",
"U=	c #434644",
"V=	c #3D3F40",
"W=	c #3C4041",
"X=	c #3B3F42",
"Y=	c #414448",
"Z=	c #3C3F42",
"`=	c #181714",
" -	c #292A29",
".-	c #38393A",
"+-	c #3B3E3D",
"@-	c #313332",
"#-	c #262626",
"$-	c #272526",
"%-	c #1B1818",
"&-	c #AB7F6D",
"*-	c #914C2B",
"=-	c #4C3027",
"--	c #2C2E2E",
";-	c #273E40",
">-	c #295556",
",-	c #317978",
"'-	c #3B7472",
")-	c #386767",
"!-	c #23AFA4",
"~-	c #14E8DB",
"{-	c #19DFD5",
"]-	c #386063",
"^-	c #3D7575",
"/-	c #425B5C",
"(-	c #425454",
"_-	c #3D3A36",
":-	c #333230",
"<-	c #395150",
"[-	c #205857",
"}-	c #223E3D",
"|-	c #383D3B",
"1-	c #3B4B48",
"2-	c #374A49",
"3-	c #2F5F60",
"4-	c #63888A",
"5-	c #271B19",
"6-	c #241A18",
"7-	c #211717",
"8-	c #1C1516",
"9-	c #141314",
"0-	c #1D1B19",
"a-	c #2D2520",
"b-	c #372E2A",
"c-	c #271C1B",
"d-	c #251817",
"e-	c #281D1B",
"f-	c #201918",
"g-	c #201919",
"h-	c #28211F",
"i-	c #201B19",
"j-	c #45464A",
"k-	c #3E3D3F",
"l-	c #3E3E3D",
"m-	c #403D3C",
"n-	c #3D3A39",
"o-	c #3F3E3B",
"p-	c #3E3D3C",
"q-	c #3A3A3A",
"r-	c #404346",
"s-	c #171714",
"t-	c #282828",
"u-	c #373838",
"v-	c #393938",
"w-	c #353533",
"x-	c #2B2928",
"y-	c #2B282A",
"z-	c #2F2E2D",
"A-	c #1C1A19",
"B-	c #7E584B",
"C-	c #6F3A26",
"D-	c #3A2723",
"E-	c #222123",
"F-	c #285D5B",
"G-	c #325C5D",
"H-	c #425C5B",
"I-	c #3F4A48",
"J-	c #376364",
"K-	c #268682",
"L-	c #20AAA3",
"M-	c #23A9A3",
"N-	c #375758",
"O-	c #406C6C",
"P-	c #455151",
"Q-	c #413B37",
"R-	c #382C27",
"S-	c #3F2D27",
"T-	c #362E2B",
"U-	c #282B2B",
"V-	c #212527",
"W-	c #313635",
"X-	c #307371",
"Y-	c #304C4B",
"Z-	c #16ADAB",
"`-	c #247979",
" ;	c #868C90",
".;	c #1C1314",
"+;	c #1A1112",
"@;	c #191110",
"#;	c #171212",
"$;	c #1D1A1D",
"%;	c #302B2C",
"&;	c #39312E",
"*;	c #372F2B",
"=;	c #191112",
"-;	c #1D1616",
";;	c #201817",
">;	c #2E2521",
",;	c #251F1D",
"';	c #424145",
");	c #3E3B3C",
"!;	c #403C3B",
"~;	c #3E3938",
"{;	c #3D3736",
"];	c #403B39",
"^;	c #3C3938",
"/;	c #363433",
"(;	c #393A39",
"_;	c #404547",
":;	c #191816",
"<;	c #242527",
"[;	c #333335",
"};	c #373637",
"|;	c #2E2C2E",
"1;	c #2E2C2A",
"2;	c #211E20",
"3;	c #201E1F",
"4;	c #5F3A2B",
"5;	c #964D2A",
"6;	c #954B2B",
"7;	c #4C413A",
"8;	c #2A2E2F",
"9;	c #545450",
"0;	c #4E403A",
"a;	c #434B4B",
"b;	c #444845",
"c;	c #3E5A5D",
"d;	c #385153",
"e;	c #385354",
"f;	c #365354",
"g;	c #385857",
"h;	c #3F4D4B",
"i;	c #3D3D3B",
"j;	c #493E3B",
"k;	c #433B39",
"l;	c #4F2E26",
"m;	c #271F1D",
"n;	c #1E191A",
"o;	c #28292B",
"p;	c #28292A",
"q;	c #2C2D30",
"r;	c #2D4E4F",
"s;	c #2A3436",
"t;	c #18878C",
"u;	c #1B8F92",
"v;	c #84AFB3",
"w;	c #140E11",
"x;	c #151011",
"y;	c #1B1412",
"z;	c #181314",
"A;	c #332F2E",
"B;	c #38312E",
"C;	c #302825",
"D;	c #1F1816",
"E;	c #1D1717",
"F;	c #191414",
"G;	c #1B1514",
"H;	c #1E1817",
"I;	c #48494D",
"J;	c #424347",
"K;	c #424244",
"L;	c #3B3B3B",
"M;	c #3C3C3C",
"N;	c #414041",
"O;	c #3B3B3D",
"P;	c #363839",
"Q;	c #3A4041",
"R;	c #434A4E",
"S;	c #252325",
"T;	c #302F32",
"U;	c #383737",
"V;	c #2B2929",
"W;	c #23221F",
"X;	c #6F3E29",
"Y;	c #A15837",
"Z;	c #814F3F",
"`;	c #355C59",
" >	c #2D645F",
".>	c #56372F",
"+>	c #523D36",
"@>	c #6B3C2C",
"#>	c #7B4531",
"$>	c #774A38",
"%>	c #784933",
"&>	c #794531",
"*>	c #744330",
"=>	c #6D402F",
"->	c #6A3E2E",
";>	c #57392F",
">>	c #523329",
",>	c #332B2A",
"'>	c #2D2E30",
")>	c #1E1F21",
"!>	c #323334",
"~>	c #323434",
"{>	c #404041",
"]>	c #2F3030",
"^>	c #37383B",
"/>	c #6DAAA9",
"(>	c #191514",
"_>	c #161013",
":>	c #231D1B",
"<>	c #131012",
"[>	c #23201D",
"}>	c #2B2523",
"|>	c #2F2623",
"1>	c #2A211E",
"2>	c #211C18",
"3>	c #17110F",
"4>	c #1D1612",
"5>	c #1E1615",
"6>	c #1E1716",
"7>	c #171312",
"8>	c #464A4F",
"9>	c #404448",
"0>	c #3E4041",
"a>	c #3F4040",
"b>	c #3F4343",
"c>	c #394044",
"d>	c #3B434A",
"e>	c #3B4347",
"f>	c #303133",
"g>	c #2F2F2E",
"h>	c #2F2F2C",
"i>	c #242427",
"j>	c #2C2D2D",
"k>	c #6E402B",
"l>	c #7A564B",
"m>	c #2E4D50",
"n>	c #2E3233",
"o>	c #2A2A2B",
"p>	c #303031",
"q>	c #393838",
"r>	c #373636",
"s>	c #4A3832",
"t>	c #3C332F",
"u>	c #2A2A2A",
"v>	c #242324",
"w>	c #262424",
"x>	c #252424",
"y>	c #242526",
"z>	c #2B2C2E",
"A>	c #373A3B",
"B>	c #373738",
"C>	c #2F2F2F",
"D>	c #323435",
"E>	c #343436",
"F>	c #1F4045",
"G>	c #657B7E",
"H>	c #0D0B0B",
"I>	c #1A1511",
"J>	c #211B17",
"K>	c #1C1717",
"L>	c #161413",
"M>	c #1F1C19",
"N>	c #191412",
"O>	c #1E1B1A",
"P>	c #181413",
"Q>	c #241C16",
"R>	c #201916",
"S>	c #231E1C",
"T>	c #1B1A19",
"U>	c #494D50",
"V>	c #444749",
"W>	c #3C3D3E",
"X>	c #3B3939",
"Y>	c #3B3837",
"Z>	c #393637",
"`>	c #3C3B3C",
" ,	c #3B3E41",
".,	c #40464B",
"+,	c #40464A",
"@,	c #252525",
"#,	c #313435",
"$,	c #303232",
"%,	c #303130",
"&,	c #343432",
"*,	c #232326",
"=,	c #6A4432",
"-,	c #72574D",
";,	c #2E5154",
">,	c #303A3C",
",,	c #2E3031",
"',	c #252526",
"),	c #242326",
"!,	c #262628",
"~,	c #2A3033",
"{,	c #253333",
"],	c #212D2D",
"^,	c #1B1C1E",
"/,	c #222324",
"(,	c #2B2C2D",
"_,	c #37393A",
":,	c #26282A",
"<,	c #212123",
"[,	c #2A2B2C",
"},	c #313132",
"|,	c #363738",
"1,	c #222B2E",
"2,	c #56888D",
"3,	c #0D090B",
"4,	c #0E0B0D",
"5,	c #181310",
"6,	c #100D0D",
"7,	c #1C1716",
"8,	c #141012",
"9,	c #161314",
"0,	c #151514",
"a,	c #14100F",
"b,	c #251C19",
"c,	c #2B211C",
"d,	c #2D2723",
"e,	c #24211F",
"f,	c #434549",
"g,	c #3E3E40",
"h,	c #3A3937",
"i,	c #3A3838",
"j,	c #3F3D3D",
"k,	c #3F3E40",
"l,	c #44474A",
"m,	c #414548",
"n,	c #171611",
"o,	c #242322",
"p,	c #2B2C2B",
"q,	c #282827",
"r,	c #1F1D21",
"s,	c #262324",
"t,	c #975632",
"u,	c #755649",
"v,	c #36585A",
"w,	c #33575A",
"x,	c #2C4C4C",
"y,	c #29292B",
"z,	c #242627",
"A,	c #222628",
"B,	c #253335",
"C,	c #314143",
"D,	c #209694",
"E,	c #21827F",
"F,	c #363F43",
"G,	c #1E1F22",
"H,	c #212224",
"I,	c #2C2E30",
"J,	c #2A2B2D",
"K,	c #161719",
"L,	c #18181B",
"M,	c #262528",
"N,	c #343435",
"O,	c #657F83",
"P,	c #16110F",
"Q,	c #100B0B",
"R,	c #130F10",
"S,	c #1B1716",
"T,	c #1C1816",
"U,	c #141312",
"V,	c #100E0D",
"W,	c #221F1D",
"X,	c #242020",
"Y,	c #201D1D",
"Z,	c #231C1B",
"`,	c #241819",
" '	c #302422",
".'	c #372A25",
"+'	c #312623",
"@'	c #424548",
"#'	c #3B3B3C",
"$'	c #3D3A38",
"%'	c #3B3737",
"&'	c #393636",
"*'	c #3E3A3A",
"='	c #403C3C",
"-'	c #3F3D3C",
";'	c #454446",
">'	c #191815",
",'	c #252223",
"''	c #242325",
")'	c #242425",
"!'	c #292525",
"~'	c #975934",
"{'	c #65685F",
"]'	c #247E81",
"^'	c #306362",
"/'	c #286462",
"('	c #383C3B",
"_'	c #262929",
":'	c #1E2324",
"<'	c #2D6567",
"['	c #336B69",
"}'	c #1E8685",
"|'	c #1E7976",
"1'	c #2F3E40",
"2'	c #2B2E30",
"3'	c #19191B",
"4'	c #19181A",
"5'	c #1B1B1E",
"6'	c #4D4E4F",
"7'	c #3A3232",
"8'	c #0E1010",
"9'	c #100C0D",
"0'	c #130F0C",
"a'	c #110C0A",
"b'	c #16100E",
"c'	c #140F0A",
"d'	c #201A15",
"e'	c #201B17",
"f'	c #2F2C28",
"g'	c #2F2A26",
"h'	c #241D1C",
"i'	c #241D1D",
"j'	c #362D29",
"k'	c #3C312A",
"l'	c #322621",
"m'	c #352723",
"n'	c #312421",
"o'	c #322723",
"p'	c #29211E",
"q'	c #3C3A3B",
"r'	c #403E3C",
"s'	c #3C3939",
"t'	c #3F3C3D",
"u'	c #3F3D3B",
"v'	c #3A3B38",
"w'	c #3F4041",
"x'	c #404246",
"y'	c #1C1918",
"z'	c #23201F",
"A'	c #1F1B1B",
"B'	c #201F20",
"C'	c #292B29",
"D'	c #292726",
"E'	c #996A48",
"F'	c #1FAE9C",
"G'	c #345250",
"H'	c #2D4D4D",
"I'	c #224647",
"J'	c #363536",
"K'	c #1F2123",
"L'	c #202324",
"M'	c #3C3E3D",
"N'	c #383A3B",
"O'	c #333537",
"P'	c #363B3C",
"Q'	c #333739",
"R'	c #2E3235",
"S'	c #343A3D",
"T'	c #27292B",
"U'	c #151517",
"V'	c #153537",
"W'	c #536F70",
"X'	c #3B3333",
"Y'	c #0F1211",
"Z'	c #0F0B0A",
"`'	c #120C0B",
" )	c #0F0C0B",
".)	c #171211",
"+)	c #17120E",
"@)	c #241E19",
"#)	c #211B19",
"$)	c #141211",
"%)	c #292624",
"&)	c #2A2423",
"*)	c #261F1E",
"=)	c #25201F",
"-)	c #302B29",
";)	c #2D2623",
">)	c #2A201E",
",)	c #332822",
"')	c #2F241E",
"))	c #2F231E",
"!)	c #271D1C",
"~)	c #3F3F3E",
"{)	c #3F3E3D",
"])	c #3E3B3B",
"^)	c #3C3B3D",
"/)	c #373938",
"()	c #3D3F41",
"_)	c #3B3F43",
":)	c #191615",
"<)	c #191617",
"[)	c #262725",
"})	c #252626",
"|)	c #2C2A29",
"1)	c #9F5D38",
"2)	c #476860",
"3)	c #335551",
"4)	c #2F3837",
"5)	c #1F1F20",
"6)	c #272727",
"7)	c #2F302F",
"8)	c #2B2C2C",
"9)	c #34383A",
"0)	c #2E2E2F",
"a)	c #303436",
"b)	c #4B3027",
"c)	c #312626",
"d)	c #151618",
"e)	c #114546",
"f)	c #477C7D",
"g)	c #453B3C",
"h)	c #141615",
"i)	c #0E0C09",
"j)	c #110E0A",
"k)	c #0E0B07",
"l)	c #16130D",
"m)	c #18140F",
"n)	c #14100D",
"o)	c #18130E",
"p)	c #151210",
"q)	c #0C0B0C",
"r)	c #181614",
"s)	c #211B18",
"t)	c #2B2420",
"u)	c #221E1A",
"v)	c #1E1C17",
"w)	c #1F1B19",
"x)	c #221E1C",
"y)	c #26201C",
"z)	c #1F1713",
"A)	c #424344",
"B)	c #3E3E3E",
"C)	c #3C3A39",
"D)	c #3D3C3C",
"E)	c #3D3E41",
"F)	c #414347",
"G)	c #131210",
"H)	c #1F1C1C",
"I)	c #181715",
"J)	c #151312",
"K)	c #1E1E1D",
"L)	c #312F30",
"M)	c #9E5832",
"N)	c #534944",
"O)	c #2F3031",
"P)	c #3B3C3C",
"Q)	c #2B2B2C",
"R)	c #222222",
"S)	c #2A5557",
"T)	c #2D7476",
"U)	c #278885",
"V)	c #316462",
"W)	c #333F40",
"X)	c #343538",
"Y)	c #332A28",
"Z)	c #4C2C20",
"`)	c #17191B",
" !	c #124547",
".!	c #5A8284",
"+!	c #443938",
"@!	c #110D0A",
"#!	c #140F0C",
"$!	c #1B1611",
"%!	c #17110E",
"&!	c #120D0D",
"*!	c #0E0909",
"=!	c #0E0D0C",
"-!	c #0E0D0D",
";!	c #141413",
">!	c #181412",
",!	c #1D1716",
"'!	c #201C1A",
")!	c #1C1715",
"!!	c #1A1613",
"~!	c #13110F",
"{!	c #1A1411",
"]!	c #211916",
"^!	c #1F1815",
"/!	c #3D3C3D",
"(!	c #3C3B3B",
"_!	c #3D3D3C",
":!	c #3F3F41",
"<!	c #454649",
"[!	c #3C3F41",
"}!	c #11110F",
"|!	c #1D1A19",
"1!	c #252120",
"2!	c #1B1917",
"3!	c #141111",
"4!	c #171615",
"5!	c #1C1E1F",
"6!	c #2F2E30",
"7!	c #9B5732",
"8!	c #564A44",
"9!	c #333535",
"0!	c #3E3F3F",
"a!	c #2D2E2E",
"b!	c #383A3A",
"c!	c #181D1E",
"d!	c #2C5555",
"e!	c #346769",
"f!	c #2E7274",
"g!	c #257578",
"h!	c #285A5C",
"i!	c #295354",
"j!	c #333133",
"k!	c #343336",
"l!	c #272424",
"m!	c #2E201D",
"n!	c #231E1D",
"o!	c #195150",
"p!	c #18605F",
"q!	c #597879",
"r!	c #453937",
"s!	c #0E0D09",
"t!	c #140F0D",
"u!	c #1A1311",
"v!	c #120D0B",
"w!	c #100E0C",
"x!	c #0C0A09",
"y!	c #161517",
"z!	c #121416",
"A!	c #141517",
"B!	c #232322",
"C!	c #2D2A2A",
"D!	c #171716",
"E!	c #1A1917",
"F!	c #292523",
"G!	c #211C1A",
"H!	c #3E3F41",
"I!	c #39393A",
"J!	c #3D3B39",
"K!	c #424144",
"L!	c #3A393A",
"M!	c #1E1B19",
"N!	c #282322",
"O!	c #151313",
"P!	c #1D1E1F",
"Q!	c #2E2D2D",
"R!	c #975531",
"S!	c #564942",
"T!	c #1F5153",
"U!	c #236063",
"V!	c #3D5E61",
"W!	c #385355",
"X!	c #315D61",
"Y!	c #2F5D61",
"Z!	c #275A5C",
"`!	c #282F31",
" ~	c #1B1A1C",
".~	c #1A3234",
"+~	c #125458",
"@~	c #203134",
"#~	c #212528",
"$~	c #5A5C5D",
"%~	c #473B39",
"&~	c #0F100B",
"*~	c #2D292A",
"=~	c #3C3639",
"-~	c #383637",
";~	c #3E3B3D",
">~	c #242424",
",~	c #0A0705",
"'~	c #191A1D",
")~	c #33302F",
"!~	c #232323",
"~~	c #222423",
"{~	c #2F2C2A",
"]~	c #383635",
"^~	c #3B3839",
"/~	c #3D3B3C",
"(~	c #3A393B",
"_~	c #403D3F",
":~	c #3A3839",
"<~	c #13120F",
"[~	c #120E11",
"}~	c #191614",
"|~	c #2F2D2D",
"1~	c #93532F",
"2~	c #554742",
"3~	c #3A3B3C",
"4~	c #262D2F",
"5~	c #287075",
"6~	c #323A3C",
"7~	c #42494B",
"8~	c #3B3E3F",
"9~	c #3A3E3E",
"0~	c #265657",
"a~	c #223C3F",
"b~	c #25393B",
"c~	c #15393B",
"d~	c #174344",
"e~	c #1E383B",
"f~	c #232426",
"g~	c #585859",
"h~	c #493D3A",
"i~	c #131311",
"j~	c #373032",
"k~	c #3E3638",
"l~	c #3D373A",
"m~	c #474141",
"n~	c #433F40",
"o~	c #373638",
"p~	c #3F4042",
"q~	c #0E0B09",
"r~	c #100F0C",
"s~	c #151413",
"t~	c #1B1A1A",
"u~	c #242323",
"v~	c #212121",
"w~	c #2B2E2F",
"x~	c #2C2F30",
"y~	c #282A2C",
"z~	c #444446",
"A~	c #3D3B3D",
"B~	c #393738",
"C~	c #3C3838",
"D~	c #3E3939",
"E~	c #3C3837",
"F~	c #3C383A",
"G~	c #3D3837",
"H~	c #393534",
"I~	c #14120D",
"J~	c #221C18",
"K~	c #141112",
"L~	c #191818",
"M~	c #2E2C2D",
"N~	c #8C502D",
"O~	c #524742",
"P~	c #2F3132",
"Q~	c #3B3C3D",
"R~	c #2C2B2E",
"S~	c #2F3739",
"T~	c #297376",
"U~	c #2D3336",
"V~	c #3C4244",
"W~	c #383C3D",
"X~	c #294143",
"Y~	c #234449",
"Z~	c #212729",
"`~	c #262627",
" {	c #262527",
".{	c #232325",
"+{	c #473A37",
"@{	c #161716",
"#{	c #2E2829",
"${	c #403636",
"%{	c #443837",
"&{	c #493F3A",
"*{	c #48413E",
"={	c #3A363A",
"-{	c #2A2B2E",
";{	c #0A0500",
">{	c #263138",
",{	c #313D49",
"'{	c #38444F",
"){	c #445159",
"!{	c #465259",
"~{	c #445056",
"{{	c #4D5960",
"]{	c #536169",
"^{	c #4C5C65",
"/{	c #4B5B64",
"({	c #4B565D",
"_{	c #423F42",
":{	c #3F3936",
"<{	c #3D3632",
"[{	c #3F3734",
"}{	c #413834",
"|{	c #3C342F",
"1{	c #393533",
"2{	c #0D100B",
"3{	c #1F1917",
"4{	c #27201F",
"5{	c #1B1817",
"6{	c #131112",
"7{	c #2D2D2C",
"8{	c #8B4F2E",
"9{	c #524640",
"0{	c #414040",
"a{	c #2D5E59",
"b{	c #335A59",
"c{	c #404B50",
"d{	c #2C3234",
"e{	c #323638",
"f{	c #2A2C2D",
"g{	c #29292A",
"h{	c #292B2D",
"i{	c #272627",
"j{	c #1E1F20",
"k{	c #2D3030",
"l{	c #344548",
"m{	c #395657",
"n{	c #244042",
"o{	c #131614",
"p{	c #292324",
"q{	c #382C2D",
"r{	c #433635",
"s{	c #433531",
"t{	c #3C3431",
"u{	c #343236",
"v{	c #27292C",
"w{	c #0B0600",
"x{	c #333F47",
"y{	c #35414B",
"z{	c #363F48",
"A{	c #40484E",
"B{	c #3C4248",
"C{	c #3F4447",
"D{	c #4A5257",
"E{	c #434D53",
"F{	c #3E474E",
"G{	c #3D4347",
"H{	c #433D41",
"I{	c #403B3C",
"J{	c #3C3331",
"K{	c #3C322F",
"L{	c #3E332F",
"M{	c #40342F",
"N{	c #3A2F2A",
"O{	c #3A3535",
"P{	c #0C0E0E",
"Q{	c #1A1616",
"R{	c #261F20",
"S{	c #1C1818",
"T{	c #181617",
"U{	c #302F2F",
"V{	c #834D30",
"W{	c #504541",
"X{	c #313334",
"Y{	c #3A3A3B",
"Z{	c #2F2F30",
"`{	c #333536",
" ]	c #27847E",
".]	c #377273",
"+]	c #40555A",
"@]	c #278380",
"#]	c #22AAA6",
"$]	c #2C676A",
"%]	c #237A7C",
"&]	c #1B7474",
"*]	c #282B2D",
"=]	c #1F2125",
"-]	c #272728",
";]	c #282B2C",
">]	c #2C4A4C",
",]	c #236668",
"']	c #254F51",
")]	c #131813",
"!]	c #2A2628",
"~]	c #3B3237",
"{]	c #3E3437",
"]]	c #382E2E",
"^]	c #36302E",
"/]	c #37393E",
"(]	c #222527",
"_]	c #0A0600",
":]	c #2F373C",
"<]	c #343B40",
"[]	c #333639",
"}]	c #303030",
"|]	c #282321",
"1]	c #2D2823",
"2]	c #292422",
"3]	c #333331",
"4]	c #2E2E2C",
"5]	c #272625",
"6]	c #464040",
"7]	c #3F3635",
"8]	c #3D3430",
"9]	c #3D332E",
"0]	c #3D312D",
"a]	c #3C2F2C",
"b]	c #3F3130",
"c]	c #40322E",
"d]	c #423630",
"e]	c #453732",
"f]	c #382F2F",
"g]	c #090A0A",
"h]	c #1D1718",
"i]	c #292021",
"j]	c #1D1918",
"k]	c #161312",
"l]	c #191613",
"m]	c #191716",
"n]	c #493731",
"o]	c #885339",
"p]	c #404444",
"q]	c #313333",
"r]	c #282829",
"s]	c #252628",
"t]	c #255D5B",
"u]	c #335757",
"v]	c #374A4B",
"w]	c #1D9291",
"x]	c #3D6668",
"y]	c #41585C",
"z]	c #208583",
"A]	c #1C8482",
"B]	c #2E3D3E",
"C]	c #1B2021",
"D]	c #1B1E20",
"E]	c #133C3B",
"F]	c #113B3A",
"G]	c #191A1C",
"H]	c #3B3637",
"I]	c #202021",
"J]	c #1B1E1C",
"K]	c #322D2F",
"L]	c #3A3234",
"M]	c #2E2524",
"N]	c #2D2828",
"O]	c #3B393B",
"P]	c #242626",
"Q]	c #090401",
"R]	c #2C333B",
"S]	c #313943",
"T]	c #3A4247",
"U]	c #2C2927",
"V]	c #1F1C1D",
"W]	c #242225",
"X]	c #494242",
"Y]	c #3F3735",
"Z]	c #40332D",
"`]	c #3E3029",
" ^	c #3E322D",
".^	c #3F332E",
"+^	c #473932",
"@^	c #52453F",
"#^	c #4A3E39",
"$^	c #382F2D",
"%^	c #0C0D0E",
"&^	c #292121",
"*^	c #1C1819",
"=^	c #191817",
"-^	c #50372F",
";^	c #96593A",
">^	c #454C4E",
",^	c #2E2F2F",
"'^	c #232425",
")^	c #202122",
"!^	c #2F3232",
"~^	c #2C3131",
"{^	c #26484A",
"]^	c #293235",
"^^	c #1C1F20",
"/^	c #1A1B1E",
"(^	c #192022",
"_^	c #192122",
":^	c #252527",
"<^	c #4B4443",
"[^	c #222122",
"}^	c #1C1D1B",
"|^	c #312B29",
"1^	c #3A302E",
"2^	c #302722",
"3^	c #291F1D",
"4^	c #2E2928",
"5^	c #3B393A",
"6^	c #464548",
"7^	c #2D373E",
"8^	c #2F3A44",
"9^	c #384247",
"0^	c #343430",
"a^	c #211D1B",
"b^	c #2B2826",
"c^	c #323032",
"d^	c #353636",
"e^	c #383A38",
"f^	c #333433",
"g^	c #4B4444",
"h^	c #3E3734",
"i^	c #3C312D",
"j^	c #40332F",
"k^	c #3E312D",
"l^	c #3D322E",
"m^	c #3E3531",
"n^	c #483D38",
"o^	c #4E4441",
"p^	c #483C38",
"q^	c #3A322E",
"r^	c #0F1010",
"s^	c #201C19",
"t^	c #281F1D",
"u^	c #141515",
"v^	c #161615",
"w^	c #151515",
"x^	c #503830",
"y^	c #995A3B",
"z^	c #434A4B",
"A^	c #2A2C2C",
"B^	c #272829",
"C^	c #1D2224",
"D^	c #18191C",
"E^	c #1B1C1F",
"F^	c #222323",
"G^	c #4A4240",
"H^	c #2E2F2E",
"I^	c #2B2524",
"J^	c #362C29",
"K^	c #372E2B",
"L^	c #302626",
"M^	c #35312E",
"N^	c #353534",
"O^	c #2B2C2F",
"P^	c #0B0A04",
"Q^	c #323D42",
"R^	c #3B464E",
"S^	c #374146",
"T^	c #2C2B27",
"U^	c #231F1C",
"V^	c #332F2D",
"W^	c #494342",
"X^	c #433A35",
"Y^	c #42352E",
"Z^	c #40332E",
"`^	c #3E322E",
" /	c #3A302D",
"./	c #4B413C",
"+/	c #4E403B",
"@/	c #413734",
"#/	c #0C0D0C",
"$/	c #1E1816",
"%/	c #29201D",
"&/	c #121212",
"*/	c #141212",
"=/	c #131113",
"-/	c #4F3830",
";/	c #9E5C3A",
">/	c #3E4444",
",/	c #262727",
"'/	c #201E1E",
")/	c #563A30",
"!/	c #383A3C",
"~/	c #1C1C1F",
"{/	c #1D1D20",
"]/	c #212122",
"^/	c #2D2D2D",
"//	c #463E3E",
"(/	c #252625",
"_/	c #282A29",
":/	c #2F2A28",
"</	c #352D2A",
"[/	c #2D2724",
"}/	c #39332F",
"|/	c #413F3C",
"1/	c #1D2023",
"2/	c #0A0903",
"3/	c #2F3A3E",
"4/	c #3D484F",
"5/	c #3E474C",
"6/	c #2C2A24",
"7/	c #32302E",
"8/	c #3B3B39",
"9/	c #363838",
"0/	c #47403F",
"a/	c #493D39",
"b/	c #483A32",
"c/	c #42332C",
"d/	c #3E312B",
"e/	c #3E322C",
"f/	c #3C302C",
"g/	c #3F342E",
"h/	c #463933",
"i/	c #493933",
"j/	c #3C302B",
"k/	c #080A09",
"l/	c #1E1715",
"m/	c #2F2422",
"n/	c #161313",
"o/	c #151311",
"p/	c #4A342C",
"q/	c #965737",
"r/	c #3A3E3F",
"s/	c #262728",
"t/	c #272525",
"u/	c #5E3F32",
"v/	c #444445",
"w/	c #393A3B",
"x/	c #333434",
"y/	c #313233",
"z/	c #333232",
"A/	c #201F21",
"B/	c #1B1A1D",
"C/	c #262526",
"D/	c #2B2B2B",
"E/	c #2E2E2D",
"F/	c #453E3D",
"G/	c #1E1F1F",
"H/	c #272B2A",
"I/	c #272C2B",
"J/	c #232222",
"K/	c #2C2928",
"L/	c #272423",
"M/	c #332C2A",
"N/	c #3E3A38",
"O/	c #2A2E32",
"P/	c #202428",
"Q/	c #0B0905",
"R/	c #2C3336",
"S/	c #33383D",
"T/	c #252422",
"U/	c #403D3B",
"V/	c #424341",
"W/	c #3C3F40",
"X/	c #4A4140",
"Y/	c #463936",
"Z/	c #47372F",
"`/	c #42302A",
" (	c #3B2B24",
".(	c #3C2E27",
"+(	c #473B33",
"@(	c #3F302A",
"#(	c #3E2E27",
"$(	c #342A25",
"%(	c #090C0B",
"&(	c #2B201D",
"*(	c #251D19",
"=(	c #181212",
"-(	c #161110",
";(	c #463128",
">(	c #915536",
",(	c #383D3D",
"'(	c #343130",
")(	c #292929",
"!(	c #272828",
"~(	c #343334",
"{(	c #312F31",
"](	c #363537",
"^(	c #282729",
"/(	c #1B1B1D",
"((	c #1D1D1F",
"_(	c #1F1F21",
":(	c #1F2020",
"<(	c #1D1C1B",
"[(	c #1F1B1D",
"}(	c #332D2B",
"|(	c #3D3734",
"1(	c #363332",
"2(	c #2F3135",
"3(	c #100E07",
"4(	c #323133",
"5(	c #312F32",
"6(	c #2F2F2D",
"7(	c #383735",
"8(	c #3C3D3B",
"9(	c #3E403E",
"0(	c #3D3F3F",
"a(	c #3A3B3B",
"b(	c #4B4140",
"c(	c #443734",
"d(	c #44342D",
"e(	c #413029",
"f(	c #3B2A24",
"g(	c #3A2A26",
"h(	c #3C2E29",
"i(	c #41332D",
"j(	c #3C2E2A",
"k(	c #3C2D29",
"l(	c #372D2A",
"m(	c #0E1110",
"n(	c #1E1819",
"o(	c #231B19",
"p(	c #191513",
"q(	c #0F0E0D",
"r(	c #120E0D",
"s(	c #171413",
"t(	c #443027",
"u(	c #8B5134",
"v(	c #333333",
"w(	c #202121",
"x(	c #2B2A2B",
"y(	c #393839",
"z(	c #1E1D1F",
"A(	c #1C1B1D",
"B(	c #1F1E20",
"C(	c #2A2A29",
"D(	c #2C2C2B",
"E(	c #383332",
"F(	c #1C1C1D",
"G(	c #2C2C2D",
"H(	c #272320",
"I(	c #2C2622",
"J(	c #292221",
"K(	c #36302B",
"L(	c #342F2E",
"M(	c #111009",
"N(	c #3B383A",
"O(	c #383537",
"P(	c #2F2F31",
"Q(	c #353535",
"R(	c #373939",
"S(	c #393B3C",
"T(	c #3A3C3C",
"U(	c #4A4343",
"V(	c #453B38",
"W(	c #463A34",
"X(	c #3E302B",
"Y(	c #3C2F2B",
"Z(	c #3B302C",
"`(	c #3A2E2A",
" _	c #3C322D",
"._	c #382C28",
"+_	c #37302E",
"@_	c #0E1211",
"#_	c #221D1C",
"$_	c #131212",
"%_	c #0D0D0D",
"&_	c #0E0E0E",
"*_	c #47332B",
"=_	c #905435",
"-_	c #2E2E2E",
";_	c #212022",
">_	c #1F1D1E",
",_	c #1E1E20",
"'_	c #232424",
")_	c #3F3A39",
"!_	c #2D2725",
"~_	c #382F2B",
"{_	c #39322F",
"]_	c #3D3A3A",
"^_	c #3A3D3D",
"/_	c #2D3233",
"(_	c #0C0C07",
"__	c #393537",
":_	c #3C3737",
"<_	c #353131",
"[_	c #3C3A3A",
"}_	c #3A383A",
"|_	c #363736",
"1_	c #393B3B",
"2_	c #494544",
"3_	c #47413F",
"4_	c #423A36",
"5_	c #3F3733",
"6_	c #3F3934",
"7_	c #393633",
"8_	c #3A3531",
"9_	c #3F3B37",
"0_	c #393433",
"a_	c #0C100E",
"b_	c #111313",
"c_	c #111111",
"d_	c #45332D",
"e_	c #915333",
"f_	c #393C3C",
"g_	c #343536",
"h_	c #323231",
"i_	c #1E1D20",
"j_	c #1F1E21",
"k_	c #232324",
"l_	c #433C3B",
"m_	c #372D29",
"n_	c #38302C",
"o_	c #3D3830",
"p_	c #3C3637",
"q_	c #36383A",
"r_	c #252A2D",
"s_	c #0A0B08",
"t_	c #373333",
"u_	c #403937",
"v_	c #3D3936",
"w_	c #3D3B3E",
"x_	c #383938",
"y_	c #393B3A",
"z_	c #383738",
"A_	c #433F41",
"B_	c #423D3D",
"C_	c #433F39",
"D_	c #413C35",
"E_	c #3F3A36",
"F_	c #313131",
"G_	c #464444",
"H_	c #3B3836",
"I_	c #0E0F0D",
"J_	c #1A1514",
"K_	c #131111",
"L_	c #131211",
"M_	c #43332C",
"N_	c #8A4F31",
"O_	c #3A3938",
"P_	c #3C3430",
"Q_	c #343433",
"R_	c #202022",
"S_	c #443C3B",
"T_	c #1E1D1E",
"U_	c #322E2C",
"V_	c #342E29",
"W_	c #2D2523",
"X_	c #382F2A",
"Y_	c #332A25",
"Z_	c #383331",
"`_	c #272B2D",
" :	c #10120F",
".:	c #38322F",
"+:	c #3B3330",
"@:	c #383634",
"#:	c #373635",
"$:	c #3E3D3E",
"%:	c #393B3D",
"&:	c #454143",
"*:	c #3F3832",
"=:	c #413831",
"-:	c #3F3834",
";:	c #393735",
">:	c #353837",
",:	c #383A39",
"':	c #454242",
"):	c #3A3533",
"!:	c #13120E",
"~:	c #121012",
"{:	c #0F0E10",
"]:	c #171414",
"^:	c #323232",
"/:	c #68493D",
"(:	c #3A3431",
"_:	c #433733",
"::	c #343535",
"<:	c #323333",
"[:	c #2A2B2A",
"}:	c #433D3C",
"|:	c #1E1E1E",
"1:	c #36302A",
"2:	c #302826",
"3:	c #2A1F1E",
"4:	c #382D27",
"5:	c #423C35",
"6:	c #40413E",
"7:	c #323634",
"8:	c #161712",
"9:	c #3A2F2B",
"0:	c #3F322E",
"a:	c #373533",
"b:	c #383C3A",
"c:	c #333636",
"d:	c #383836",
"e:	c #383734",
"f:	c #392C28",
"g:	c #3B2B28",
"h:	c #382E2B",
"i:	c #413D3A",
"j:	c #403A3A",
"k:	c #181713",
"l:	c #231C1A",
"m:	c #121010",
"n:	c #1D1917",
"o:	c #30312F",
"p:	c #464746",
"q:	c #444D4F",
"r:	c #343637",
"s:	c #272928",
"t:	c #252726",
"u:	c #453F3E",
"v:	c #1F1E1F",
"w:	c #1F2425",
"x:	c #323838",
"y:	c #1E1917",
"z:	c #1B1516",
"A:	c #2D231F",
"B:	c #423B36",
"C:	c #484643",
"D:	c #373836",
"E:	c #131613",
"F:	c #3A2D2B",
"G:	c #433632",
"H:	c #3E3A37",
"I:	c #363635",
"J:	c #333736",
"K:	c #313433",
"L:	c #353634",
"M:	c #393A37",
"N:	c #4D4A49",
"O:	c #3C3634",
"P:	c #392F2D",
"Q:	c #3B2F2D",
"R:	c #3D3332",
"S:	c #413E3B",
"T:	c #41413F",
"U:	c #3E3C3A",
"V:	c #131513",
"W:	c #241C1A",
"X:	c #2C221F",
"Y:	c #1D1714",
"Z:	c #241F1B",
"`:	c #A86B51",
" <	c #4E4542",
".<	c #444D50",
"+<	c #2B2D2B",
"@<	c #2C2E2D",
"#<	c #2C2E2C",
"$<	c #222020",
"%<	c #212020",
"&<	c #333939",
"*<	c #1D1A1A",
"=<	c #1A1618",
"-<	c #2E2724",
";<	c #433C38",
"><	c #434040",
",<	c #313232",
"'<	c #121412",
")<	c #3F322F",
"!<	c #443530",
"~<	c #3F3835",
"{<	c #353332",
"]<	c #39393B",
"^<	c #3B3A3C",
"/<	c #343534",
"(<	c #474242",
"_<	c #403B3A",
":<	c #433834",
"<<	c #443935",
"[<	c #443A35",
"}<	c #3D332F",
"|<	c #453834",
"1<	c #3C2E2C",
"2<	c #3C2E2D",
"3<	c #383130",
"4<	c #0F1514",
"5<	c #2E231F",
"6<	c #3D2D26",
"7<	c #3B2D26",
"8<	c #2A1F1C",
"9<	c #231D1A",
"0<	c #AA6D54",
"a<	c #4D413D",
"b<	c #3C484A",
"c<	c #353736",
"d<	c #333534",
"e<	c #2F302E",
"f<	c #2E302E",
"g<	c #2C2D2C",
"h<	c #423D3C",
"i<	c #232120",
"j<	c #272827",
"k<	c #1D2323",
"l<	c #21201E",
"m<	c #231E1E",
"n<	c #392F2A",
"o<	c #444141",
"p<	c #453833",
"q<	c #483933",
"r<	c #3F3633",
"s<	c #393939",
"t<	c #353637",
"u<	c #3A3C3B",
"v<	c #474041",
"w<	c #443E3D",
"x<	c #413A35",
"y<	c #423029",
"z<	c #442D26",
"A<	c #412D25",
"B<	c #412D27",
"C<	c #372C29",
"D<	c #0D1514",
"E<	c #352A25",
"F<	c #433128",
"G<	c #382820",
"H<	c #2B201C",
"I<	c #A66D55",
"J<	c #4A403C",
"K<	c #38474A",
"L<	c #323332",
"M<	c #242525",
"N<	c #373534",
"O<	c #2C2A2A",
"P<	c #202726",
"Q<	c #343A39",
"R<	c #221818",
"S<	c #342821",
"T<	c #48403B",
"U<	c #434144",
"V<	c #453A37",
"W<	c #493F3B",
"X<	c #413B3A",
"Y<	c #3E3C3B",
"Z<	c #393A3A",
"`<	c #353739",
" [	c #433D3F",
".[	c #45423E",
"+[	c #402F28",
"@[	c #413028",
"#[	c #43342B",
"$[	c #42352C",
"%[	c #3F3029",
"&[	c #45352D",
"*[	c #3D3230",
"=[	c #111818",
"-[	c #362924",
";[	c #46332A",
">[	c #3F2F27",
",[	c #2D221C",
"'[	c #A26B54",
")[	c #473E3B",
"![	c #37474A",
"~[	c #2D2F2D",
"{[	c #31302F",
"][	c #2D2E2D",
"^[	c #32312F",
"/[	c #242524",
"([	c #242828",
"_[	c #343838",
":[	c #2A1E1A",
"<[	c #463F3D",
"[[	c #433F42",
"}[	c #34302F",
"|[	c #3A3333",
"1[	c #383535",
"2[	c #383939",
"3[	c #363638",
"4[	c #373A3A",
"5[	c #4A4848",
"6[	c #4A4B49",
"7[	c #454642",
"8[	c #3D2F2B",
"9[	c #423730",
"0[	c #3D322C",
"a[	c #453B39",
"b[	c #151A1A",
"c[	c #2E211D",
"d[	c #442F27",
"e[	c #46352C",
"f[	c #332721",
"g[	c #27201C",
"h[	c #A16C56",
"i[	c #49403D",
"j[	c #2D2C2C",
"k[	c #342E2C",
"l[	c #322D2C",
"m[	c #26292A",
"n[	c #303434",
"o[	c #373631",
"p[	c #4C4C4B",
"q[	c #4D4B4C",
"r[	c #151512",
"s[	c #3A3735",
"t[	c #393836",
"u[	c #373639",
"v[	c #38383A",
"w[	c #4F4A4A",
"x[	c #484445",
"y[	c #3D3939",
"z[	c #3B3331",
"A[	c #3A312E",
"B[	c #362E2C",
"C[	c #3F3431",
"D[	c #3E3631",
"E[	c #3D3732",
"F[	c #433A37",
"G[	c #403939",
"H[	c #161B1A",
"I[	c #2E221F",
"J[	c #3E2B25",
"K[	c #3A2A24",
"L[	c #271D19",
"M[	c #241C18",
"N[	c #A47360",
"O[	c #494340",
"P[	c #395052",
"Q[	c #293639",
"R[	c #3C2D2A",
"S[	c #322C2A",
"T[	c #2D2C2B",
"U[	c #2D2C2D",
"V[	c #2E2726",
"W[	c #2B2827",
"X[	c #2C2A2B",
"Y[	c #3B3838",
"Z[	c #262829",
"`[	c #2A2F30",
" }	c #414242",
".}	c #535556",
"+}	c #565658",
"@}	c #121310",
"#}	c #303336",
"$}	c #343739",
"%}	c #403F3D",
"&}	c #3B3A39",
"*}	c #3C3D3D",
"=}	c #363939",
"-}	c #443E3E",
";}	c #3E3836",
">}	c #403936",
",}	c #343232",
"'}	c #353333",
")}	c #353537",
"!}	c #121818",
"~}	c #332927",
"{}	c #3D2D2A",
"]}	c #2E2120",
"^}	c #211B1C",
"/}	c #1E1A1A",
"(}	c #282323",
"_}	c #2A2829",
":}	c #4E7170",
"<}	c #3A686B",
"[}	c #204C51",
"}}	c #2B3437",
"|}	c #402D27",
"1}	c #402C27",
"2}	c #382C29",
"3}	c #322C2B",
"4}	c #2A2C2B",
"5}	c #232626",
"6}	c #2F2624",
"7}	c #2F2725",
"8}	c #2F2B2B",
"9}	c #222121",
"0}	c #252B2E",
"a}	c #3E413F",
"b}	c #3C3E3B",
"c}	c #404242",
"d}	c #44484B",
"e}	c #4B4E50",
"f}	c #363837",
"g}	c #191A18",
"h}	c #383C3E",
"i}	c #35383A",
"j}	c #333738",
"k}	c #393435",
"l}	c #393434",
"m}	c #3D3835",
"n}	c #3E3935",
"o}	c #3A3736",
"p}	c #3D3E3C",
"q}	c #424242",
"r}	c #323235",
"s}	c #131717",
"t}	c #322825",
"u}	c #2D221F",
"v}	c #211D1D",
"w}	c #211C1B",
"x}	c #30302D",
"y}	c #252C2D",
"z}	c #417574",
"A}	c #1C5E5D",
"B}	c #264547",
"C}	c #284245",
"D}	c #2F4245",
"E}	c #2F4448",
"F}	c #274546",
"G}	c #263234",
"H}	c #212225",
"I}	c #222525",
"J}	c #2B2625",
"K}	c #2F2A27",
"L}	c #332D2D",
"M}	c #332F30",
"N}	c #181819",
"O}	c #242A2D",
"P}	c #3F3F3D",
"Q}	c #3F403C",
"R}	c #444846",
"S}	c #41474A",
"T}	c #42464A",
"U}	c #3A3C3F",
"V}	c #36373A",
"W}	c #37383A",
"X}	c #363739",
"Y}	c #3D3B3A",
"Z}	c #3F3B3A",
"`}	c #3D3B3B",
" |	c #191B18",
".|	c #28201D",
"+|	c #322623",
"@|	c #2E2420",
"#|	c #241D1A",
"$|	c #211B1A",
"%|	c #2B2421",
"&|	c #302F29",
"*|	c #222322",
"=|	c #282E30",
"-|	c #4F5D63",
";|	c #4A5258",
">|	c #3A3A3C",
",|	c #17484F",
"'|	c #135156",
")|	c #12555A",
"!|	c #185C5F",
"~|	c #18595A",
"{|	c #175355",
"]|	c #165052",
"^|	c #155253",
"/|	c #155355",
"(|	c #185559",
"_|	c #1B5A60",
":|	c #1B5B62",
"<|	c #1E5B62",
"[|	c #223F43",
"}|	c #222A2D",
"||	c #363533",
"1|	c #3C3B38",
"2|	c #3B3D40",
"3|	c #2E2C2C",
"4|	c #1D1C17",
"5|	c #373737",
"6|	c #38393B",
"7|	c #383B3C",
"8|	c #414141",
"9|	c #3F4244",
"0|	c #3C3C3E",
"a|	c #403F3E",
"b|	c #1B1D1A",
"c|	c #322724",
"d|	c #332A26",
"e|	c #27211E",
"f|	c #241F1C",
"g|	c #2B2825",
"h|	c #262A2C",
"i|	c #48545A",
"j|	c #464E51",
"k|	c #202627",
"l|	c #152122",
"m|	c #161D1E",
"n|	c #1B1F20",
"o|	c #1D2021",
"p|	c #1D2121",
"q|	c #171A1B",
"r|	c #191A1B",
"s|	c #312B2B",
"t|	c #373332",
"u|	c #547577",
"v|	c #3B6062",
"w|	c #144145",
"x|	c #144347",
"y|	c #15474B",
"z|	c #174B4E",
"A|	c #353231",
"B|	c #3A3737",
"C|	c #3C3E3F",
"D|	c #313031",
"E|	c #454749",
"F|	c #3D4044",
"G|	c #3F4144",
"H|	c #434445",
"I|	c #454746",
"J|	c #393A3D",
"K|	c #191A19",
"L|	c #302724",
"M|	c #3A2C28",
"N|	c #2C231F",
"O|	c #2A211B",
"P|	c #2B2522",
"Q|	c #1E1C1E",
"R|	c #252729",
"S|	c #444B4F",
"T|	c #383739",
"U|	c #20201F",
"V|	c #141617",
"W|	c #17191A",
"X|	c #1D1F20",
"Y|	c #1D1F21",
"Z|	c #1A1D1F",
"`|	c #1A1C1F",
" 1	c #1B1C1D",
".1	c #313639",
"+1	c #2A2727",
"@1	c #2D2829",
"#1	c #393635",
"$1	c #404141",
"%1	c #1F1E1D",
"&1	c #363535",
"*1	c #383638",
"=1	c #343437",
"-1	c #333236",
";1	c #424549",
">1	c #454949",
",1	c #41464A",
"'1	c #3C4144",
")1	c #434748",
"!1	c #474A4D",
"~1	c #3E4145",
"{1	c #1B1C1C",
"]1	c #291F1C",
"^1	c #3D2D27",
"/1	c #3D2F29",
"(1	c #3B2E27",
"_1	c #3A2E25",
":1	c #19181B",
"<1	c #272B2B",
"[1	c #4A555A",
"}1	c #454B50",
"|1	c #353737",
"11	c #373837",
"21	c #212120",
"31	c #171819",
"41	c #181A1B",
"51	c #1C1F21",
"61	c #202C30",
"71	c #233337",
"81	c #212A2E",
"91	c #202225",
"01	c #848587",
"a1	c #353638",
"b1	c #33373A",
"c1	c #2C2F31",
"d1	c #272A2D",
"e1	c #191919",
"f1	c #222120",
"g1	c #3D3C3B",
"h1	c #282A2D",
"i1	c #1C1C1C",
"j1	c #333336",
"k1	c #3E3F3E",
"l1	c #323637",
"m1	c #313537",
"n1	c #323338",
"o1	c #44494C",
"p1	c #464B4B",
"q1	c #454648",
"r1	c #464A4C",
"s1	c #434749",
"t1	c #42484B",
"u1	c #43484C",
"v1	c #3A4044",
"w1	c #1A1C1D",
"x1	c #2D2220",
"y1	c #392925",
"z1	c #372B29",
"A1	c #322624",
"B1	c #2F241D",
"C1	c #221B17",
"D1	c #1A1A1C",
"E1	c #252727",
"F1	c #1A1A1B",
"G1	c #171919",
"H1	c #302828",
"I1	c #2D2827",
"J1	c #212E31",
"K1	c #1E3B41",
"L1	c #7D8083",
"M1	c #2C282A",
"N1	c #2F2B2C",
"O1	c #1E1D1A",
"P1	c #21201F",
"Q1	c #32302F",
"R1	c #41403D",
"S1	c #40403F",
"T1	c #2D2F32",
"U1	c #1A1A1A",
"V1	c #363639",
"W1	c #414142",
"X1	c #414343",
"Y1	c #323136",
"Z1	c #42454A",
"`1	c #464647",
" 2	c #444546",
".2	c #404244",
"+2	c #3D4042",
"@2	c #36383C",
"#2	c #2D2321",
"$2	c #322523",
"%2	c #2A2122",
"&2	c #261D1F",
"*2	c #28231F",
"=2	c #222224",
"-2	c #3B434B",
";2	c #404545",
">2	c #272626",
",2	c #2B2B2D",
"'2	c #303D42",
")2	c #323F43",
"!2	c #262F32",
"~2	c #213D43",
"{2	c #6C7275",
"]2	c #2C2827",
"^2	c #2F2929",
"/2	c #3B3D3C",
"(2	c #1C1D17",
"_2	c #2A2A28",
":2	c #3C3B39",
"<2	c #474B4D",
"[2	c #484C4E",
"}2	c #373739",
"|2	c #3C3C40",
"12	c #2F2D30",
"22	c #2C2B2F",
"32	c #44474C",
"42	c #484C4F",
"52	c #454A4A",
"62	c #424241",
"72	c #444343",
"82	c #3F3F40",
"92	c #2C241F",
"02	c #2B2322",
"a2	c #211A1B",
"b2	c #281F1C",
"c2	c #2A2521",
"d2	c #555657",
"e2	c #272F31",
"f2	c #2C484B",
"g2	c #2B474A",
"h2	c #324A4D",
"i2	c #282627",
"j2	c #262E31",
"k2	c #263C43",
"l2	c #2B4046",
"m2	c #292E31",
"n2	c #2F2D2E",
"o2	c #787979",
"p2	c #2D2928",
"q2	c #3B4141",
"r2	c #3A3D3C",
"s2	c #302E2E",
"t2	c #3B3B3A",
"u2	c #373537",
"v2	c #484B4D",
"w2	c #474D4F",
"x2	c #1F1E1E",
"y2	c #3C3C3D",
"z2	c #302F31",
"A2	c #505558",
"B2	c #4C5152",
"C2	c #3F4141",
"D2	c #494949",
"E2	c #4C4B4C",
"F2	c #261E1C",
"G2	c #2D211E",
"H2	c #2D2422",
"I2	c #29201B",
"J2	c #656566",
"K2	c #333132",
"L2	c #303335",
"M2	c #36474A",
"N2	c #354648",
"O2	c #344143",
"P2	c #323132",
"Q2	c #252629",
"R2	c #332928",
"S2	c #352E2C",
"T2	c #352F30",
"U2	c #342F2F",
"V2	c #262224",
"W2	c #757575",
"X2	c #2D2A29",
"Y2	c #3E4040",
"Z2	c #3F4445",
"`2	c #1F1E1A",
" 3	c #393936",
".3	c #363333",
"+3	c #4C4F4F",
"@3	c #4B4F52",
"#3	c #1D1C1C",
"$3	c #464645",
"%3	c #3F3E3E",
"&3	c #3A3A39",
"*3	c #41403F",
"=3	c #3B3C3B",
"-3	c #4F5253",
";3	c #474B4C",
">3	c #3E4043",
",3	c #39383B",
"'3	c #2F3137",
")3	c #35373A",
"!3	c #1B1D1D",
"~3	c #241E1D",
"{3	c #2A2220",
"]3	c #2B2422",
"^3	c #251F1E",
"/3	c #211D1A",
"(3	c #252425",
"_3	c #242223",
":3	c #232223",
"<3	c #2A282A",
"[3	c #5F5E60",
"}3	c #4D4D4E",
"|3	c #1D1B1C",
"13	c #242121",
"23	c #2B2829",
"33	c #3F4143",
"43	c #1D1F1B",
"53	c #353433",
"63	c #383436",
"73	c #4E4F4E",
"83	c #4C4E50",
"93	c #1F1F1E",
"03	c #353334",
"a3	c #343233",
"b3	c #353434",
"c3	c #38383B",
"d3	c #3E403F",
"e3	c #333437",
"f3	c #343738",
"g3	c #171718",
"h3	c #292321",
"i3	c #26221F",
"j3	c #231F1D",
"k3	c #1E1B18",
"l3	c #1F1C18",
"m3	c #22211E",
"n3	c #2B2F32",
"o3	c #2D2D2F",
"p3	c #353633",
"q3	c #3E454A",
"r3	c #23282B",
"s3	c #0B0C0C",
"t3	c #303235",
"u3	c #3A3D40",
"v3	c #323335",
"w3	c #2A292A",
"x3	c #1E1D1C",
"y3	c #23211F",
"z3	c #272524",
"A3	c #333234",
"B3	c #333235",
"C3	c #363431",
"D3	c #303132",
"E3	c #1D1E1D",
"F3	c #323131",
"G3	c #30302F",
"H3	c #353437",
"I3	c #191714",
"J3	c #1B1A18",
"K3	c #181A1A",
"L3	c #222221",
"M3	c #242422",
"N3	c #262523",
"O3	c #262425",
"P3	c #282726",
"Q3	c #1A1B1A",
"R3	c #1D1D1E",
"S3	c #1B1B1B",
"T3	c #1E1D1B",
"U3	c #22201E",
"V3	c #211F20",
"W3	c #252423",
"X3	c #292725",
"Y3	c #2E2A2B",
"Z3	c #2D2B2B",
"`3	c #262625",
" 4	c #242123",
".4	c #252324",
"+4	c #262525",
"@4	c #18191A",
"#4	c #161919",
"$4	c #151816",
"%4	c #151616",
"&4	c #171515",
"*4	c #161614",
"=4	c #171717",
"-4	c #161717",
";4	c #171817",
">4	c #181716",
",4	c #191B19",
"'4	c #141514",
")4	c #151516",
"!4	c #141616",
"~4	c #141715",
"{4	c #151614",
"]4	c #161619",
"^4	c #242224",
"/4	c #262524",
"(4	c #232122",
"_4	c #232021",
":4	c #221F20",
"<4	c #201F1F",
"[4	c #20211F",
"}4	c #1F201F",
"  . + @ # $ % & * = - ; > , ' ) ! ~ { ] ^ / ( _ : < [ } | 1 2 3 4 5 6 7 8 9 0 a b c d e f g h i j k l m n o p q r s t u v w x y ",
"z A B C D E F G H I J K L M N O P Q R S T U V W X Y Z `  ...+.@.#.$.%.&.*.=.-.;.>.,.'.).!.~.{.].^./.(._.3 :.<.[.}.|.1.2.3.> 4.5.",
"6.7.8.9.0.a.b.c.d.e.f.g.h.i.j.k.l.m.n.o.p.q.r.s.t.u.v.w.x.y.y.w.z.A.B.C.D.E.F.G.H.I.J.K.L.M.N.O.P.Q.R.S.T.U.V.W.X.Y.Z.`. +.+++@+",
"#+$+%+&+*+=+-+;+%+>+,+'+)+!+0.~+{+]+R ^+/+(+_+:+<+[+}+|+1+2+3+4+5+6+7+8+9+0+a+b+c+d+e+f+g+h+i+j+k+l+m+n+o+p+q+r+$+Z.s+t+u+v+w+x+",
"y+z+A+B+C+D+E+F+G+H+I+J+K+L+M+N+O+P+Q+R+S+T+U+V+W+X+X+Y+Z+`+ @.@+@@@#@$@%@&@*@=@-@;@>@,@'@)@!@~@{@]@^@/@(@! _@:@<@[@}@|@1@2@3@4@",
"5@6@7@8@9@0@a@b@c@d@e@f@g@h@i@j@k@l@m@n@o@p@q@r@s@q@t@u@v@w@x@x@w@y@z@A@B@C@D@E@F@G@H@I@J@K@L@M@N@O@P@Q@R@S@T@U@V@W@X@Y@Z@`@ #.#",
"+#@###$#%#&#*#=#F+W -#;#>#,#'#)#!#~#`@{#]#^#/#(#_#:#<#[#}#|#1#2#3#4#5#6#7#8#9#0#a#b#c#d#e#f#g#h#i#j#k#l#m#n#o#p#q#r#s#t#u#v#w#x#",
"y#z#A#F+B#C#D#E#F#h@G#H#I#J#K#L#M#N#O#P#Q#R#S#T#U#V#W#X#Y#Z#`# $.$+$@$2 #$$$%$&$*$=$-$;$>$,$'$)$!$~${$]$'+^$/$($_$:$<$[$}$|$1$2$",
"3$4$A#5$6$7$;+8$9$0$N+a$b$c$w d$e$f$g$h$i$j$k$l$m$n$o$p$q$r$s$t$)+I#u$v$w$x$y$z$A$B$C$D$E$F$G$H$I$J$K$L$M$u$N$O$P$Q$O$R$S$T$U$V$",
"W$X$Y$Z$`$ %.%+%@%#%$%%%&%*%=%-%;%>%,%'%)%!%~%{%]%^%/%(%,+_%@$:%<%[%}%|%1%2%3%4%5%6%7%8%9%0%a%b%c%d%e%f%g%h%i%j%k%l%g%m%n%o%p%q%",
"V.r%s%t%u%v%w%x%y%z%A%B%C%D%E%F%G%H%I%J%K%L%M%N%O%P%Q%R%S%T%U%V%W%X%Y%Z%`% &.&+&@&#&$&%&&&*&=&-&;&>&,&'&d%)&!&~&{&]&^&/&(&_&:&<&",
"[&}&|&1&2&d.3&4&5&6&7&8&9&0&a&b&c&d&e&f&g&h&i&j&k&l&m&n&^ o&p&q&r&s&t&u&r#v&w&x&y&z&A&B&C&D&E&F&G&H&I&J&>&K&L&M&N&O&P&Q&R&S&,%T&",
"U&V&W&X&%+Y&Z&`&|# *7..*+*@*#*$*%*&***=*-*;*>*,*'*)*!*~*{*]*^*/*(*_*:*<*[*}*|*1*2*3*4*5*6*7*8*9*0*a*b*c*d*e*f*g*h*i*j*k*l*m*n*o*",
"p*q*r*r*s*5#t*u*v*w*x*y*z*A*B*C*D*E*F*G*H*I*J*K*L*C%M*N*O*P*Q*R*S*T*U*V*W*X*Y*Z*`* =.=+=@=#=$=%=&=*===-=;=>=,='=)=!=~={=]=^=/=(=",
"_=:=4.<=v%[=}=|=1=2=3=y*4=5=G#6=7=8=9=0=a=b=c=d=e=f=g=h=i=j=k=l=m=n=o=p=q=r=s=t=u=v=w=x=y=z=A=B=C=D=E=F=G=H=I=J=K=L=M=N=O=P=Q=R=",
"S=T=U=;+8.V=s*W=X=Y=Z=`= -.-+-@-#-$-S$%-&-*-=---;->-,-'-)-!-~-{-]-^-/-(-_-:-<-:-[-}-|-1-2-3-4-5-6-K=7-8-9-0-a-b-c-d-e-I=f-g-h-i-",
"j-k-l-m-n-o-p-q-`@7&r-s-t-u-v-w-x-y-z-A-B-C-D-E-F-G-H-I-J-K-L-M-N-O-P-2&Q-R-S-T-U-V-W-X-Y-Z-`- ;.;+;@;#;$;%;&;*;F&=;-;;;a*E=>;,;",
"';);!;~;{;];^;/;(;6&_;:;<;[;};|;1;2;3;4;5;6;7;8;9;0;a;b;c;d;e;f;g;h;i;j;k;l;m;n;o;p;q;r;s;t;u;v;w;x;y;z;$;A;B;C;D;E;H&F;G;9*I=H;",
"I;J;K;L;M;N;O;P;Q;R;9$`=S;T;U;V;W;T.j%X;Y;Z;`; >.>+>@>#>$>%>&>*>=>->;>>>,><;'>)>!>~>{>6@]>^>/>(>_>8-:>n;<>[>}>|>1>2>C&3>4>5>6>7>",
"p+8>9>0>{>a>q*b>c>d>e>`= -f>R g>h>i>j>k>l>m>r;n>o>p>q>r>};s>t>u>v>w>x><;y>z>A>z&B>C>D>D%E>T F>G>H>I>J>K>L>M>N>H&O>A-P>9*Q>R>S>T>",
"U>V>W>X>Y>Z>`>_$ ,.,+,`=@,#,$,%,&,*,&%=,-,;,>,,,',),o>i&!,!,~,{,],#-,@^,/,(,_,:,<,[,},|,P$1,2,3,4,(>5,6,P>7,8,9,l%0,a,a*b,c,d,e,",
"f,g,X&h,^;i,2&j,k,l,m,n,o,]>*,p,q,r,s,t,u,v,w,x,y,2 ,,z,A,B,C,D,E,F,z,G,H,I,J,K,L,M,y,o>N,O,P,Q,R,S,T,U,V,O>W,X,Y,Z,,$`, '.'+'Z,",
"@'#'i,$'%'&'*'='-';'*+>'A-,'3;q,'')'!'~'{']'^'/'@$g@('_':'<'['}'|'1'2'n.3'3'~&4'5'6'7'8'9'3>0'a'b'c'd'e'c%f'g'h'i'j'k'l'm'n'o'p'",
"T=L;q'r'n-s't'u'v'w'x'>'y'z'A'B'C'[%D'E'F'G'H'I'J'k*z,K'L'M'N'O'P'g&Q'R'S'T'3'U'V'W'X'Y'Z'`' ).)5,+)@)#)$)%)&)*)=)-);)>),)')))!)",
"2#W>~){)])X>^)X&/)()_)L>:)Y,d%<)[)})|)1)2)3)4)5)6)7)R 8)H,('R ,,,+9)0)a)Q'b)c)d)e)f)g)h)i)j)k)l)m)n)o)p)q)r)s)t)u)v)w)x)y)b*z);;",
"A)8.B)C)^;C)D)~)E)F)X=G)(>H)I)J)K)_'L)M)N)O)P)Q)#-R)D*8))>S)T)U)V)W)N,X)Y)Z)n'`) !.!+!0,i)@!#!$!%!&!*!=!-!;!>!,!'!)!!!~!{!]!^!9*",
"a./!P)q-(!_!X&_!:!<![!}!|!1!2!3!4!5!6!7!8!9!0!--a!g@b!c!d!e!f!g!h!i!j!k!l!m!n!o!p!q!r!s-s!t!>!J$u!t!v!w!x!y!z!A!B!C!|)D!E!F!d,G!",
"H!-#I!:$W l-p-J!j,K!L!}!M!N!0=O!A-P!Q!R!S!R%}&:%0)2@z&T!U!V!W!X!Y!Z!`!v> ~.~+~@~#~$~%~&~*~=~-~;~N,0)v#>~,~~&5''~)'m.)~!~~~]={~1!",
"a./!q>]~^~/~(~s'q'_~:~<~;$j*d%[~}~i%|~1~2~},3~:%z&y,4~5~6~7~8~8~9~0~a~b~c~d~e~f~)>g~h~i~j~k~l~m~n~o~p~.+q~r~s~t~u~x>v~z,S%w~x~y~",
"z~A~B~C~D~E~F~='C~G~H~I~J~m;F;K~L>L~M~N~O~P~Q~L;I#R~S~T~U~e&4#V~W~n.X~Y~Z~`~ {)'.{v +{@{#{${%{&{*{={c$-{;{>{,{'{){!{~{{{]{^{/{({",
"_{t's'G~:{<{[{}{|{[{1{2{3{4{5{6{f%_&7{8{9{P~W>0{M;a{b{c{d{G%e{D>f{g{H+h{i{^=j{k{l{m{n{o{p{q{r{s{t{u{A&v{w{x{y{z{A{B{C{, D{E{F{G{",
"H{I{ &S.J{K{L{M{N{K{O{P{Q{R{S{K~Q{T{U{V{W{X{Y{Z{`{ ].]+]@]#]$]%]&]*]p>=]<;-]3';]>],]'])]!]~]{]]]^]B>/](]_]:]<][]}]|]1]2]|)3]4]5]",
"6]7]8]9]0]a]b]c]d]e]f]g]h]i]j]k]l]m]n]o]X#p]q]r]s]t]u]v]w]x]y]z]A]B]C]D]E]F]G])>H]5)I]J]K]L]f]M]N]O]V=P]Q]R]S]T]6=U]W,V]W]8)u>@,",
"X]Y]L{Z]`] ^.^+^@^#^$^%^O=&^*^4!`==^-^;^>^P),^)''^)^K'!^T O+8$~^{^]^^^/^(^_^^,:^<^[^u>}^|^1^2^3^4^5^6^},_]7^8^9^.$0^a^b^c^d^e^f^",
"g^h^i^j^k^l^m^n^o^p^q^r^s^t^Q{u^v^w^x^y^z^N,a!'^.{5)y>f{n.x~A^B^C^D^E^^,/^^,F^ -G^>~,^H^I^J^K^L^M^N^x+O^P^Q^R^S^+&T^U^V^d@H+t&%+",
"W^X^Y^Z^`^ /1^X^./+/@/#/$/%/3{&/*/=/-/;/>/a!o>,//,'/)/.-x&!/_,K+S$)>5'~/{/]/6)^///,@(/_/:/</[/}/|/H^n&1/2/3/4/5/>#6/7/8/9/!/d.W ",
"0/a/b/c/d/e/f/g/h/i/j/k/l/m/m;n/o/d%p/q/r/7)s/r]'^t/u/v/w/x/y/:~z/A/B/5'E-C/D/E/F/G/H/I/J/K/L/M/N/E>O/P/Q/R/S/e{T/M^U/V/W/M d.L!",
"X/Y/Z/`/ (.(k#+(@(#($(%(E&&(*(=(-(S,;(>(,('()(!(5)I]u>J'B>~({(](^(/(((_(_(>~D/E/F/:(j><%<(H)[(}(|(1(2(n*3(4(5(C>6(7(8(9(++8~0(a(",
"b(c(d(e(f(g(h(i(j(k(l(m(n(o(p(q(r(s(t(u(`{v(D*t-',w(x(c^c^/~9&y(z(A(B(_(_()'C(D(E(F(G(^/H(I(J(Q@K(L(B>)+M(N(O(P(E>Q(Q(R(S(W/r*T(",
"U(V(W(X(Y(Z(`( _._0]+_@_H$#_$_%_&_U,*_=_b!-_!(s/i&`~', {;_i{>_ {B(_(B(,_,_'_)(]=)_j%I#U{!_~_<{{_b@]_^_/_(___:_<_[_}_|_/)1_Q~T(x#",
"2_3_4_5_6_7_M^8_9_];0_a_j]F=U,b_c_!&d_e_f_g_h_u>!,-]^=i{5)i_j__(_(5),_P&P&k_)(&%l_j%G(0)/@m_n_o_{_p_q_r_s_t_u_v_u'w_x_y_9/> z_j!",
"A_B_C_D_E_N,^ F_}&G_H_I_E$J_K_$_L_t-M_N_O_P_Q_v([%-]^=t-#-R_B(j{j{j{j{P&,_k_t-]=S_T_9&D/U_V_W_X_Y_Z_.-`_ :.:+:@:#:W $:d.%:`@r>v#",
"&:D~*:=:-:;:>:,:W@':):!:$/E;~:{:]:^:6$/:(:_:::::<:8)D*)()(4=w(j{G/P&P&G/j{F^#-[:}:|:9&)(K+1:2:3:4:5:6:7:8:9:0:):a:8(a>b:c:::d:e:",
"W^S.f:g:g:h:0_1{i:j:v&k:l:H;K~m:n:o:p:q:v(r:N,9!::@-[%_/D*s:t:)^j{j{G/j{5)'^r]+*u:v:>~)(w:x:y:z:A:B:C:D:E:F:G:H:I:++W>J:K:L:M:h,",
"N:O:P:Q:R:S:T:U:H:)_G~V:W:X:p'Y:Z:`: <.<^:g_::::d^g>+<@<@<@<#<p,j{,_j{5)R_',u>C%F/$<%<t-:'&<*<=<-<;<><,<'<)<!<~<{<]<^<w#/<Q(x_L:",
"(<_<4_:<<<[<}<|<1<2<3<4<5<6<7<8<9<0<a<b<,^g_d^c<d<e<g>7)7)f<H^-_g<'_>~k_`~)'r][%h<i<%<j<k<&<l<m<n<&.o<(,i~p<q<r<s'Y{s<> t<u<z+.+",
"v<w<x<Z^y<;(z<A<B<`/C<D<E<F<G<H<c*I<J<K<k*x/F_L<%,7)H^H^H^H^H^H^,^-],/-]`~M<s/M<N<O<3;!(P<Q<;$R<S<T<U<)+w^V<W<X<Y<_$0!q-|,Z<-#`<",
" [o<.[.^+[@[#[$[%[&[*[=[-[;[>[,[J~'[)[![G(]>3]~[{[4]^/][a!-_-_|$C>7=^=-]^=!(}),/j>^[j%/[([_[C=:[e/<[[[4(4!}[|[~;1[};B)2[3[:$P)4[",
"5[6[7[m^8[`(9[0[n<p<a[b[c[d[e[f[g[h[i[![:%I#7{L&l(j[k[l[</^/I#-_C>G(-]-]B^!(s/-]D/Y>:(I]m[n[o[B;u%p[q[w#r[[,1$s[t[s<s<u[v[/)Z<.-",
"w[x[y[z[A[B[C[D[E[F[G[H[I[J[K[L[M[N[O[P[Q[:%I#R[Y(S[T[M/D/+*U[[%G(g{t-V[B^s/s/W[X[Y[v~5)Z[`[2[~( }.}+}v-@}#}$}x_%}&}r>W *}9/=}^>",
"-}h<;}>}F+,}'}i,U;q')}!}~}{}]}^}/}(}_}:}<}[}}}x~|}1}2}3}4}7=-],/,/i&i&5}z,,/6}7}8}%'9}=*n.0}a}b}c}d}e}f}g}f$h}8~q#k,x_y_++i}j}O'",
"k}l}m}n}{;o}p}q}Y{Q(r}s}t}j(u}v}w}2]x}B!y}z}A}B}C}D}E}F}G}H}T&/,/,,@H,I}P]J}7}K}L}M}N}j_<;O}P}Q}R}S}T}K+H#r:%:U}w'W>9/2[3~V}W}X}",
"Y[O q>Y}Z}Y}i;r'X>`}y( |.|+|@|#|$|%|&|*|=|-|;|a&N'>|,|'|)|!|~|{|]|^|/|{|(|_|:|<|[|;_4'j%)>}|||1|E+2|6@3|4|5|W 6|7|A>P;2[5|3[x&>|",
"8|U}9| }N L;0|W@a| %%+b|p'c|d|e|!=f|g|v:h|i|j|Q~a(M;#-5)k|l|m|n|o|p|q|`)r|s|t|7(u|v|w|x|y|z|A|B|[_z+C|D|l<B>s<> N'x&x&Y{W}3~P)3[",
"E|F|5&q#2.a&G|H|I|H|J|K|L|M|0[N|O|P|x>Q|R|~{S|*}`@T|L!R)U|V|W|X|Y|X|Z|`| 1r>J'Z<e{e$.1l%B'+1@1#1Y<$1W~T%%1(~q-&1q-`>(!*1=1X}R(-1",
";1x >1D+z~,#,1'1)1!1~1{1]1^1/1(1_1%|t-:1<1[1}1#'|111Q(B!213141516171819101r>Q_a1b1c1d1e1l%f1[$_!g1-#~#h1i1j1v[H+W Z<k1a(l1m1r:n1",
"x o1p1q1F !+r1s1t1u1v1w1x1y1z1A1B1C1G/D1E1E{z%(~L!B@d.F1i1G1>_H1I1C!J1K1L1M1N1X[M%#$k{O1P15]Q1R1S1=%G#T1U1v+V1_$W1d.X11_`{I%r:Y1",
"S=Z1T=d.{>`1 2.2s*+2@2:&#2$2%2&2]1*2; F(=2-2>%;2*]I#>2B(F(I],2_%'2)2!2~2{2]2^2C!%,/24[(2_2#::2g10(<2[2r:!&}2v[`>d.|27&Q~E>_%1222",
"324252a>8|627282W@q#W>g}92E<02a2b2c2d2(;e2f2g2h2I!1$/<D|i2^=j2k2l2m2n2Z{:^o2p2~(l1q2r28&s2t2t2u20!v2w2r:x2y282(!w/N;W@^<3.z2}]I#",
"A2B26&v[y26|X1C2D2E2v%l%F2G2H2m;I2J2K2*~L2M2N2O2u2x#M~j!n2P2@$Q2R2S2T2U2V2W2X2Y2Z&Z2q_`2l.U; 3.3{)+3@3I%#3S1$3%3T|v-&3*382}2=3t<",
"-3;3>3,3Y2e&'3)3X1e.^$!3~3{3]3^3/3M>9&S;''(3_3:3S;''(3 {<3[3}3},|3>_>_Q|$:132333@'Z&7|43r]{(5363E+7383{+93.-%+03a3L)Q$b3T|c3*}L!",
"83*+v%0(d3A>e3r2f_%:f3g3n!h3i3j3k3l3m3T/y>n3o3P p3D:H+$19|q3r3s3t3u3v3w3x3y3z3A3B3j1R~e1s/o:C31[Y<-+D+D3E39!::F3h_U[U[G3x#H3}2k!",
"f>_%Q$-_Q)O$i2]=i2^=k_'+=^i%h%2!r)I3J3!& ~K3F(L3M3N3O3P3P3]/Q3;!D1R3i1S3e1t~T3U3V33; ~T.F(; W3X3|)Y3Z3|:N}w(F^x>`3x> 4.4$-S;+4:3",
"v~v~!~R)|:R3P!x2i1U1@4#4$4h)%4D!&4*44!=4-4%4@{;4>4D!@{@{'+=4,4K|w^'4u^)4%4!4~4{4w^<&U']431:&K)P1P1V3>_P&=*v~,@^4/4O3(4_4:4<4[4}4"};
