/* XPM */
static char * w_t_r_xpm[] = {
"64 64 3048 2",
"  	c #60676D",
". 	c #595E64",
"+ 	c #5A5E63",
"@ 	c #5B5F63",
"# 	c #595E61",
"$ 	c #53585D",
"% 	c #585E61",
"& 	c #575C60",
"* 	c #5A6064",
"= 	c #52585E",
"- 	c #4A5055",
"; 	c #212221",
"> 	c #373839",
", 	c #474C4F",
"' 	c #505658",
") 	c #4D5456",
"! 	c #4A5053",
"~ 	c #494E50",
"{ 	c #434647",
"] 	c #232121",
"^ 	c #2E3132",
"/ 	c #51585D",
"( 	c #54595C",
"_ 	c #4E5052",
": 	c #4A4C4C",
"< 	c #47484B",
"[ 	c #4B4C4E",
"} 	c #525355",
"| 	c #4E5154",
"1 	c #505457",
"2 	c #2E3030",
"3 	c #1A1C1B",
"4 	c #5D666B",
"5 	c #5A6167",
"6 	c #545858",
"7 	c #555452",
"8 	c #4E4B4A",
"9 	c #4A4547",
"0 	c #544F4C",
"a 	c #5B514A",
"b 	c #655953",
"c 	c #5A4E4D",
"d 	c #514947",
"e 	c #2B2722",
"f 	c #5B453A",
"g 	c #70584E",
"h 	c #6E5F5A",
"i 	c #6F6661",
"j 	c #696562",
"k 	c #666362",
"l 	c #5A5556",
"m 	c #3F3A3A",
"n 	c #1B1B17",
"o 	c #545D60",
"p 	c #5F666B",
"q 	c #5E6366",
"r 	c #585D5E",
"s 	c #4B4E52",
"t 	c #4E5051",
"u 	c #4A4C4D",
"v 	c #424446",
"w 	c #3F4044",
"x 	c #43474B",
"y 	c #494A50",
"z 	c #5B6066",
"A 	c #4C4F52",
"B 	c #4B4D4E",
"C 	c #505252",
"D 	c #515354",
"E 	c #4A4D4F",
"F 	c #47484A",
"G 	c #4B4C4D",
"H 	c #4A4A4C",
"I 	c #494C50",
"J 	c #3B3F44",
"K 	c #1B1D1C",
"L 	c #2F3231",
"M 	c #3C3E41",
"N 	c #3F3F3F",
"O 	c #363435",
"P 	c #313030",
"Q 	c #363534",
"R 	c #303131",
"S 	c #1E1C1B",
"T 	c #303334",
"U 	c #4F5960",
"V 	c #464B4D",
"W 	c #3B3A3B",
"X 	c #3A3B3B",
"Y 	c #3A3A3B",
"Z 	c #3C3D3C",
"` 	c #3A3C3C",
" .	c #3C3E3E",
"..	c #404345",
"+.	c #242727",
"@.	c #5B656A",
"#.	c #5D6468",
"$.	c #4E4C4B",
"%.	c #4E4641",
"&.	c #51463E",
"*.	c #4A3C37",
"=.	c #503F39",
"-.	c #574339",
";.	c #5B463D",
">.	c #5B4C47",
",.	c #4F4743",
"'.	c #272522",
").	c #4B3328",
"!.	c #5D3E31",
"~.	c #5D4338",
"{.	c #58443A",
"].	c #4D3C37",
"^.	c #594D48",
"/.	c #544A47",
"(.	c #363130",
"_.	c #4A5054",
":.	c #53565B",
"<.	c #55575A",
"[.	c #555758",
"}.	c #454748",
"|.	c #454444",
"1.	c #3E3C3E",
"2.	c #363538",
"3.	c #424445",
"4.	c #45484C",
"5.	c #575E62",
"6.	c #484B4C",
"7.	c #3E3E3F",
"8.	c #414143",
"9.	c #464849",
"0.	c #434345",
"a.	c #434444",
"b.	c #464745",
"c.	c #3E3F40",
"d.	c #424647",
"e.	c #353A3C",
"f.	c #131414",
"g.	c #282B2E",
"h.	c #404144",
"i.	c #424342",
"j.	c #333231",
"k.	c #2C2B2A",
"l.	c #302F2E",
"m.	c #262729",
"n.	c #1A1919",
"o.	c #303637",
"p.	c #505C63",
"q.	c #464B4F",
"r.	c #3B3B3C",
"s.	c #393A3B",
"t.	c #3A3C3D",
"u.	c #3B3E3F",
"v.	c #404448",
"w.	c #252729",
"x.	c #17191A",
"y.	c #59636A",
"z.	c #585F67",
"A.	c #403B3C",
"B.	c #463A34",
"C.	c #504034",
"D.	c #4C3A30",
"E.	c #534138",
"F.	c #544036",
"G.	c #4A3530",
"H.	c #534440",
"I.	c #494440",
"J.	c #1A1C1C",
"K.	c #37231B",
"L.	c #543729",
"M.	c #553A2D",
"N.	c #472F27",
"O.	c #473129",
"P.	c #4C3932",
"Q.	c #51433E",
"R.	c #3B3432",
"S.	c #181718",
"T.	c #44474F",
"U.	c #505258",
"V.	c #4F5154",
"W.	c #505253",
"X.	c #505050",
"Y.	c #494848",
"Z.	c #39373A",
"`.	c #323034",
" +	c #333436",
".+	c #3B3D3E",
"++	c #414245",
"@+	c #53595F",
"#+	c #434446",
"$+	c #3D3D3D",
"%+	c #3E3E41",
"&+	c #424447",
"*+	c #3E3E42",
"=+	c #424041",
"-+	c #424141",
";+	c #414442",
">+	c #35393B",
",+	c #161616",
"'+	c #2D2F30",
")+	c #474A4C",
"!+	c #393A3E",
"~+	c #37393B",
"{+	c #3E3F3C",
"]+	c #1C1B1C",
"^+	c #2A3033",
"/+	c #4C5960",
"(+	c #464C4F",
"_+	c #3B3C3C",
":+	c #383A3A",
"<+	c #383C3C",
"[+	c #3B3E3E",
"}+	c #3C4041",
"|+	c #414549",
"1+	c #242628",
"2+	c #141617",
"3+	c #525C64",
"4+	c #515962",
"5+	c #3F3938",
"6+	c #41352E",
"7+	c #43342A",
"8+	c #412E25",
"9+	c #483831",
"0+	c #524239",
"a+	c #4B3D36",
"b+	c #504441",
"c+	c #4A4644",
"d+	c #1C1E1B",
"e+	c #2B1A13",
"f+	c #41281D",
"g+	c #462D23",
"h+	c #3B251E",
"i+	c #433027",
"j+	c #4C3931",
"k+	c #4C3C36",
"l+	c #322927",
"m+	c #181818",
"n+	c #4A4F54",
"o+	c #5D5F63",
"p+	c #555759",
"q+	c #454142",
"r+	c #363136",
"s+	c #313033",
"t+	c #2F3033",
"u+	c #343539",
"v+	c #3A3B3E",
"w+	c #4E545A",
"x+	c #3D3E3F",
"y+	c #3B3C39",
"z+	c #404241",
"A+	c #444649",
"B+	c #454546",
"C+	c #42413F",
"D+	c #3D3937",
"E+	c #363233",
"F+	c #383838",
"G+	c #303437",
"H+	c #1A191A",
"I+	c #333435",
"J+	c #4A4F50",
"K+	c #4B5152",
"L+	c #43494C",
"M+	c #3F4648",
"N+	c #424745",
"O+	c #353837",
"P+	c #1D1D1F",
"Q+	c #2A3234",
"R+	c #4B5960",
"S+	c #444C4F",
"T+	c #393B3D",
"U+	c #373B3C",
"V+	c #373B3D",
"W+	c #3A3E3E",
"X+	c #3D4141",
"Y+	c #45484B",
"Z+	c #292A2B",
"`+	c #161819",
" @	c #535B62",
".@	c #443F3C",
"+@	c #3F342E",
"@@	c #3D2E28",
"#@	c #3F302B",
"$@	c #483E38",
"%@	c #504840",
"&@	c #4F4643",
"*@	c #534E4D",
"=@	c #4E4B4D",
"-@	c #222223",
";@	c #30221B",
">@	c #3C281E",
",@	c #3F2C23",
"'@	c #362421",
")@	c #342420",
"!@	c #42322B",
"~@	c #41322D",
"{@	c #2D2624",
"]@	c #191A1A",
"^@	c #585C5E",
"/@	c #4E4F52",
"(@	c #454548",
"_@	c #474647",
":@	c #413D3F",
"<@	c #3C393A",
"[@	c #3B3A3A",
"}@	c #353738",
"|@	c #343639",
"1@	c #36363A",
"2@	c #4A4F58",
"3@	c #3B3C3E",
"4@	c #3F3F3B",
"5@	c #3F3E3C",
"6@	c #414140",
"7@	c #484743",
"8@	c #43403C",
"9@	c #3D3935",
"0@	c #373030",
"a@	c #373435",
"b@	c #313436",
"c@	c #181717",
"d@	c #343635",
"e@	c #474C4E",
"f@	c #454E50",
"g@	c #434B4F",
"h@	c #3F4649",
"i@	c #3F4342",
"j@	c #3F4241",
"k@	c #252424",
"l@	c #2C3335",
"m@	c #4D5B62",
"n@	c #424B4F",
"o@	c #383C3D",
"p@	c #3B3E40",
"q@	c #63B5B4",
"r@	c #60B7B7",
"s@	c #5EB8B8",
"t@	c #5BB8B7",
"u@	c #5CBAB9",
"v@	c #79BEBD",
"w@	c #9ECECD",
"x@	c #453E3A",
"y@	c #3E322B",
"z@	c #3E3029",
"A@	c #41332C",
"B@	c #463B37",
"C@	c #47403B",
"D@	c #4B4543",
"E@	c #524F4F",
"F@	c #494749",
"G@	c #1C1C1B",
"H@	c #31241B",
"I@	c #3D2A20",
"J@	c #38261E",
"K@	c #35241E",
"L@	c #362823",
"M@	c #3E302A",
"N@	c #463833",
"O@	c #322C29",
"P@	c #151716",
"Q@	c #41484A",
"R@	c #515355",
"S@	c #4C4B4F",
"T@	c #434344",
"U@	c #404040",
"V@	c #403D3E",
"W@	c #3D393B",
"X@	c #3C3C39",
"Y@	c #363637",
"Z@	c #323337",
"`@	c #313236",
" #	c #4B5158",
".#	c #3A3C3E",
"+#	c #3B3C38",
"@#	c #3E3B38",
"##	c #413E3D",
"$#	c #48433F",
"%#	c #3C3434",
"&#	c #403A37",
"*#	c #3A3B3D",
"=#	c #1A1A16",
"-#	c #2F3131",
";#	c #43474A",
">#	c #3E4648",
",#	c #495354",
"'#	c #464E4F",
")#	c #35383B",
"!#	c #252223",
"~#	c #323A3A",
"{#	c #4F5D62",
"]#	c #414C4F",
"^#	c #373D3E",
"/#	c #80C6C3",
"(#	c #4AA9A5",
"_#	c #45AFAC",
":#	c #27ABAA",
"<#	c #26A9A7",
"[#	c #27AAA8",
"}#	c #29ABA9",
"|#	c #29AAA7",
"1#	c #27ABA7",
"2#	c #28ADA9",
"3#	c #2EABA9",
"4#	c #3EADA9",
"5#	c #89CBC8",
"6#	c #7DBABA",
"7#	c #463935",
"8#	c #48403C",
"9#	c #4B4544",
"0#	c #4B4747",
"a#	c #434143",
"b#	c #1D1A18",
"c#	c #241914",
"d#	c #2F201A",
"e#	c #271B17",
"f#	c #2E211E",
"g#	c #3B2F29",
"h#	c #352A24",
"i#	c #42362F",
"j#	c #342E2A",
"k#	c #181918",
"l#	c #3C4043",
"m#	c #464749",
"n#	c #414144",
"o#	c #434343",
"p#	c #404240",
"q#	c #393638",
"r#	c #353233",
"s#	c #343332",
"t#	c #343333",
"u#	c #353536",
"v#	c #353435",
"w#	c #4B535A",
"x#	c #393B3F",
"y#	c #393736",
"z#	c #433C3A",
"A#	c #453E3B",
"B#	c #403A39",
"C#	c #424240",
"D#	c #424645",
"E#	c #3D4144",
"F#	c #191916",
"G#	c #2D2D2E",
"H#	c #3E4044",
"I#	c #43484D",
"J#	c #464F50",
"K#	c #434849",
"L#	c #323538",
"M#	c #323335",
"N#	c #252323",
"O#	c #303738",
"P#	c #4B5A5E",
"Q#	c #404A4C",
"R#	c #5AAFAD",
"S#	c #329D9A",
"T#	c #30918F",
"U#	c #3E6C6A",
"V#	c #3E5C5B",
"W#	c #3A5658",
"X#	c #3D5758",
"Y#	c #3B5758",
"Z#	c #3A5B5A",
"`#	c #3A6767",
" $	c #398C8A",
".$	c #389795",
"+$	c #35ADAB",
"@$	c #30A9A8",
"#$	c #2CA9A6",
"$$	c #319C9B",
"%$	c #7CBDBC",
"&$	c #494343",
"*$	c #463F42",
"=$	c #423E41",
"-$	c #1E1A18",
";$	c #1C1514",
">$	c #211918",
",$	c #1E1717",
"'$	c #231B1A",
")$	c #2D2420",
"!$	c #2E2621",
"~$	c #372E27",
"{$	c #292320",
"]$	c #393C3E",
"^$	c #3B3D3F",
"/$	c #393A3C",
"($	c #3D3E3E",
"_$	c #383839",
":$	c #302E30",
"<$	c #2F2D2F",
"[$	c #323030",
"}$	c #2F2E2F",
"|$	c #302F30",
"1$	c #2C2B2D",
"2$	c #54595F",
"3$	c #3A3B3F",
"4$	c #373131",
"5$	c #403938",
"6$	c #46413E",
"7$	c #3C4143",
"8$	c #3D4548",
"9$	c #495154",
"0$	c #1D1C19",
"a$	c #2F2E2E",
"b$	c #3B3B3F",
"c$	c #45494B",
"d$	c #373B3B",
"e$	c #343837",
"f$	c #21211F",
"g$	c #2D3132",
"h$	c #8BB1B0",
"i$	c #328D8D",
"j$	c #2A8585",
"k$	c #348281",
"l$	c #3F6967",
"m$	c #415C5C",
"n$	c #415858",
"o$	c #3E5354",
"p$	c #324242",
"q$	c #39494A",
"r$	c #3B4F50",
"s$	c #3B5051",
"t$	c #405B5A",
"u$	c #456966",
"v$	c #3D6260",
"w$	c #3E706D",
"x$	c #377472",
"y$	c #2E8683",
"z$	c #2A9A98",
"A$	c #4FB0AF",
"B$	c #91CCCA",
"C$	c #464243",
"D$	c #221C19",
"E$	c #1A1413",
"F$	c #141010",
"G$	c #151113",
"H$	c #211C1D",
"I$	c #261F1D",
"J$	c #221B19",
"K$	c #211A19",
"L$	c #1B1617",
"M$	c #121112",
"N$	c #2C2D2F",
"O$	c #2E2E30",
"P$	c #29282A",
"Q$	c #2C2C2E",
"R$	c #2E2D2E",
"S$	c #2A292B",
"T$	c #2C2B2B",
"U$	c #262427",
"V$	c #222023",
"W$	c #201E20",
"X$	c #4F5359",
"Y$	c #424143",
"Z$	c #3A3837",
"`$	c #3E3A35",
" %	c #433D39",
".%	c #403E3E",
"+%	c #434648",
"@%	c #414648",
"#%	c #404649",
"$%	c #444A4E",
"%%	c #414447",
"&%	c #1F1D1A",
"*%	c #2B2A2A",
"=%	c #404142",
"-%	c #414445",
";%	c #444A4A",
">%	c #3E4546",
",%	c #3A4043",
"'%	c #2B2E31",
")%	c #1F1F1E",
"!%	c #91A3A3",
"~%	c #4E8588",
"{%	c #246D6F",
"]%	c #356464",
"^%	c #3A6160",
"/%	c #386564",
"(%	c #386465",
"_%	c #366464",
":%	c #356261",
"<%	c #325F5C",
"[%	c #355858",
"}%	c #384B4E",
"|%	c #3A4F50",
"1%	c #3C4A49",
"2%	c #3D4747",
"3%	c #3E4747",
"4%	c #3D4A4A",
"5%	c #356A6A",
"6%	c #31A09F",
"7%	c #78ABAB",
"8%	c #4C4C4D",
"9%	c #474446",
"0%	c #1B1713",
"a%	c #141110",
"b%	c #120E10",
"c%	c #161215",
"d%	c #1B1717",
"e%	c #171412",
"f%	c #171415",
"g%	c #181414",
"h%	c #171314",
"i%	c #131213",
"j%	c #191717",
"k%	c #1A1918",
"l%	c #1D1D1D",
"m%	c #1E1E1C",
"n%	c #181817",
"o%	c #161618",
"p%	c #191819",
"q%	c #161515",
"r%	c #110F10",
"s%	c #110F11",
"t%	c #484747",
"u%	c #3D3B38",
"v%	c #3C3835",
"w%	c #3F3B39",
"x%	c #3D3E40",
"y%	c #434848",
"z%	c #434949",
"A%	c #414649",
"B%	c #404549",
"C%	c #3A3D41",
"D%	c #1C1B18",
"E%	c #2A2B2B",
"F%	c #3F4142",
"G%	c #454A49",
"H%	c #444B49",
"I%	c #394041",
"J%	c #383D40",
"K%	c #323436",
"L%	c #212120",
"M%	c #677C7F",
"N%	c #1D6E76",
"O%	c #293133",
"P%	c #323637",
"Q%	c #383F40",
"R%	c #394243",
"S%	c #394142",
"T%	c #3A4243",
"U%	c #3B4344",
"V%	c #3B4345",
"W%	c #384B4D",
"X%	c #316061",
"Y%	c #316163",
"Z%	c #384F50",
"`%	c #3D4545",
" &	c #3D4646",
".&	c #325454",
"+&	c #247E80",
"@&	c #31BEBB",
"#&	c #7AE6DF",
"$&	c #46494B",
"%&	c #404044",
"&&	c #171411",
"*&	c #110E0D",
"=&	c #161213",
"-&	c #171213",
";&	c #1C1714",
">&	c #1A1716",
",&	c #141213",
"'&	c #141013",
")&	c #191517",
"!&	c #1E1B1B",
"~&	c #1E1D1D",
"{&	c #18181A",
"]&	c #141414",
"^&	c #10100F",
"/&	c #111010",
"(&	c #0E0E0F",
"_&	c #121211",
":&	c #171616",
"<&	c #1A1B1B",
"[&	c #151415",
"}&	c #46484D",
"|&	c #3D3D3E",
"1&	c #3A3634",
"2&	c #373432",
"3&	c #3C3B3A",
"4&	c #3E4242",
"5&	c #424545",
"6&	c #414546",
"7&	c #414345",
"8&	c #1E1E19",
"9&	c #2C2B2C",
"0&	c #3B3C40",
"a&	c #3B3C3F",
"b&	c #3B3F41",
"c&	c #32383A",
"d&	c #383E3F",
"e&	c #36393B",
"f&	c #1B191D",
"g&	c #476469",
"h&	c #1D656D",
"i&	c #2A3134",
"j&	c #2A2A2D",
"k&	c #2E3031",
"l&	c #353B3D",
"m&	c #3A4242",
"n&	c #3B4444",
"o&	c #3C4445",
"p&	c #3C4345",
"q&	c #3B4244",
"r&	c #355456",
"s&	c #2C6163",
"t&	c #305A5C",
"u&	c #325455",
"v&	c #2C6866",
"w&	c #277A78",
"x&	c #36BCB8",
"y&	c #4BF0EA",
"z&	c #8FEDE7",
"A&	c #393B40",
"B&	c #151412",
"C&	c #161210",
"D&	c #1C1512",
"E&	c #1D1615",
"F&	c #1C1413",
"G&	c #1A1516",
"H&	c #171313",
"I&	c #1D1919",
"J&	c #1B1719",
"K&	c #2E2A2A",
"L&	c #2E2B2B",
"M&	c #272324",
"N&	c #221E1D",
"O&	c #1C1A1A",
"P&	c #1E1E1F",
"Q&	c #232629",
"R&	c #293032",
"S&	c #272C2F",
"T&	c #222225",
"U&	c #45454A",
"V&	c #39383C",
"W&	c #393837",
"X&	c #3C3C3B",
"Y&	c #3B3D3D",
"Z&	c #3E4243",
"`&	c #424646",
" *	c #404445",
".*	c #464A4B",
"+*	c #1C1C17",
"@*	c #2C2C2C",
"#*	c #3F4043",
"$*	c #3E3F43",
"%*	c #323236",
"&*	c #2F3334",
"**	c #373C3A",
"=*	c #363A3A",
"-*	c #202020",
";*	c #667576",
">*	c #234B52",
",*	c #2A2A2C",
"'*	c #292B2C",
")*	c #2B2C2D",
"!*	c #2F3234",
"~*	c #353B3C",
"{*	c #394141",
"]*	c #3B4545",
"^*	c #3B4343",
"/*	c #3B4243",
"(*	c #394344",
"_*	c #365457",
":*	c #277B7D",
"<*	c #1E8988",
"[*	c #2A7876",
"}*	c #32D0CA",
"|*	c #43EEE7",
"1*	c #84EEE7",
"2*	c #38393F",
"3*	c #111211",
"4*	c #17100F",
"5*	c #201614",
"6*	c #1B1311",
"7*	c #1E1614",
"8*	c #261D1C",
"9*	c #1D1614",
"0*	c #201815",
"a*	c #241E1C",
"b*	c #1C1A18",
"c*	c #2A2221",
"d*	c #251C1C",
"e*	c #211818",
"f*	c #2B231F",
"g*	c #221C1B",
"h*	c #241F1F",
"i*	c #2C2D2E",
"j*	c #343A3A",
"k*	c #2D3234",
"l*	c #26282C",
"m*	c #1F1F22",
"n*	c #47494D",
"o*	c #3E4042",
"p*	c #3E4141",
"q*	c #3E4142",
"r*	c #3C4142",
"s*	c #3F4446",
"t*	c #43494B",
"u*	c #454A4D",
"v*	c #484C50",
"w*	c #45474A",
"x*	c #1D1B17",
"y*	c #2D2D2B",
"z*	c #3D3F42",
"A*	c #3D4043",
"B*	c #2E2F32",
"C*	c #282929",
"D*	c #313331",
"E*	c #333432",
"F*	c #858788",
"G*	c #353638",
"H*	c #2F3031",
"I*	c #272829",
"J*	c #2B2D2F",
"K*	c #2C2E30",
"L*	c #2D3032",
"M*	c #303436",
"N*	c #373E3F",
"O*	c #394645",
"P*	c #326868",
"Q*	c #238C8E",
"R*	c #296A6A",
"S*	c #305B5A",
"T*	c #31B8B5",
"U*	c #5CEEE9",
"V*	c #443F40",
"W*	c #433D40",
"X*	c #131110",
"Y*	c #120C0E",
"Z*	c #1E1515",
"`*	c #1D1514",
" =	c #261C18",
".=	c #2B221F",
"+=	c #1F1716",
"@=	c #241B1A",
"#=	c #27201E",
"$=	c #1B1819",
"%=	c #251C1F",
"&=	c #201716",
"*=	c #1D1413",
"==	c #231A1A",
"-=	c #201A18",
";=	c #191312",
">=	c #24201E",
",=	c #2B2B2A",
"'=	c #282728",
")=	c #2A2928",
"!=	c #211F1F",
"~=	c #3F4246",
"{=	c #414346",
"]=	c #3C3D3F",
"^=	c #3C3E40",
"/=	c #393D40",
"(=	c #3D4245",
"_=	c #454B4E",
":=	c #45494D",
"<=	c #414244",
"[=	c #262726",
"}=	c #37393C",
"|=	c #2E3033",
"1=	c #292829",
"2=	c #2B292B",
"3=	c #272528",
"4=	c #494B4C",
"5=	c #404244",
"6=	c #3D3F40",
"7=	c #36393A",
"8=	c #323435",
"9=	c #313336",
"0=	c #2D2F31",
"a=	c #2B2C2F",
"b=	c #2B2B2E",
"c=	c #292B2D",
"d=	c #2D2F32",
"e=	c #384040",
"f=	c #394F50",
"g=	c #2E676A",
"h=	c #2A8081",
"i=	c #273132",
"j=	c #323C3C",
"k=	c #3E7C77",
"l=	c #4D9590",
"m=	c #51443F",
"n=	c #4B4240",
"o=	c #161211",
"p=	c #150F11",
"q=	c #191012",
"r=	c #1F1416",
"s=	c #291D19",
"t=	c #271D1A",
"u=	c #221816",
"v=	c #211816",
"w=	c #1F1918",
"x=	c #161514",
"y=	c #1D1817",
"z=	c #261E1A",
"A=	c #2C2420",
"B=	c #251A19",
"C=	c #241916",
"D=	c #1F1613",
"E=	c #221916",
"F=	c #201B1A",
"G=	c #211E1E",
"H=	c #282623",
"I=	c #211E1D",
"J=	c #45484D",
"K=	c #424547",
"L=	c #434644",
"M=	c #3B3F42",
"N=	c #414448",
"O=	c #3C3F42",
"P=	c #181714",
"Q=	c #292A29",
"R=	c #38393A",
"S=	c #3B3E3D",
"T=	c #313332",
"U=	c #262626",
"V=	c #272526",
"W=	c #696A6B",
"X=	c #3E4041",
"Y=	c #343638",
"Z=	c #373A3B",
"`=	c #383A3B",
" -	c #383B3D",
".-	c #353838",
"+-	c #3C3F41",
"@-	c #383C3E",
"#-	c #313335",
"$-	c #303333",
"%-	c #303234",
"&-	c #2F3537",
"*-	c #296466",
"=-	c #295D61",
"--	c #343939",
";-	c #292C2D",
">-	c #272D2F",
",-	c #394646",
"'-	c #737D7C",
")-	c #50403B",
"!-	c #4B3F3E",
"~-	c #161414",
"{-	c #141211",
"]-	c #171212",
"^-	c #181012",
"/-	c #271B19",
"(-	c #241A18",
"_-	c #211717",
":-	c #1C1516",
"<-	c #141314",
"[-	c #1D1B19",
"}-	c #2D2520",
"|-	c #372E2A",
"1-	c #271C1B",
"2-	c #251817",
"3-	c #281D1B",
"4-	c #201918",
"5-	c #201919",
"6-	c #28211F",
"7-	c #201B19",
"8-	c #45464A",
"9-	c #3E3D3F",
"0-	c #3E3E3D",
"a-	c #403D3C",
"b-	c #3D3A39",
"c-	c #3F3E3B",
"d-	c #3E3D3C",
"e-	c #3A3A3A",
"f-	c #404346",
"g-	c #171714",
"h-	c #282828",
"i-	c #373838",
"j-	c #393938",
"k-	c #353533",
"l-	c #2B2928",
"m-	c #2B282A",
"n-	c #A5A6A8",
"o-	c #8C8E8F",
"p-	c #888C8C",
"q-	c #282D2C",
"r-	c #215754",
"s-	c #228583",
"t-	c #278A88",
"u-	c #2B8F8B",
"v-	c #298D8A",
"w-	c #29807B",
"x-	c #1E2B2B",
"y-	c #1E2627",
"z-	c #1C2828",
"A-	c #212527",
"B-	c #292A2E",
"C-	c #282F32",
"D-	c #2B4849",
"E-	c #2E3739",
"F-	c #674337",
"G-	c #915339",
"H-	c #AE9C8F",
"I-	c #4A3834",
"J-	c #48342E",
"K-	c #493732",
"L-	c #4A3B3A",
"M-	c #0E0E0D",
"N-	c #151110",
"O-	c #1C1314",
"P-	c #1A1112",
"Q-	c #191110",
"R-	c #1D1A1D",
"S-	c #302B2C",
"T-	c #39312E",
"U-	c #372F2B",
"V-	c #191112",
"W-	c #1D1616",
"X-	c #201817",
"Y-	c #2E2521",
"Z-	c #251F1D",
"`-	c #424145",
" ;	c #3E3B3C",
".;	c #403C3B",
"+;	c #3E3938",
"@;	c #3D3736",
"#;	c #403B39",
"$;	c #3C3938",
"%;	c #363433",
"&;	c #393A39",
"*;	c #404547",
"=;	c #191816",
"-;	c #242527",
";;	c #333335",
">;	c #373637",
",;	c #2E2C2E",
"';	c #2E2C2A",
");	c #747779",
"!;	c #454F4E",
"~;	c #3F4746",
"{;	c #355352",
"];	c #27726E",
"^;	c #1B8C84",
"/;	c #207B76",
"(;	c #2E8381",
"_;	c #317F7E",
":;	c #336866",
"<;	c #2A8B86",
"[;	c #24B8B1",
"};	c #25BCB6",
"|;	c #29C0BB",
"1;	c #2C7D7D",
"2;	c #245353",
"3;	c #232E30",
"4;	c #282D2F",
"5;	c #272D30",
"6;	c #3D3835",
"7;	c #694D43",
"8;	c #C68864",
"9;	c #52403A",
"0;	c #533E39",
"a;	c #483632",
"b;	c #443736",
"c;	c #131212",
"d;	c #0F0D0C",
"e;	c #130F10",
"f;	c #181313",
"g;	c #1E1615",
"h;	c #140E11",
"i;	c #151011",
"j;	c #1B1412",
"k;	c #181314",
"l;	c #332F2E",
"m;	c #38312E",
"n;	c #302825",
"o;	c #1F1816",
"p;	c #1D1717",
"q;	c #191414",
"r;	c #1B1514",
"s;	c #1E1817",
"t;	c #48494D",
"u;	c #424347",
"v;	c #424244",
"w;	c #3B3B3B",
"x;	c #3C3C3C",
"y;	c #414041",
"z;	c #3B3B3D",
"A;	c #363839",
"B;	c #3A4041",
"C;	c #434A4E",
"D;	c #252325",
"E;	c #302F32",
"F;	c #383737",
"G;	c #2B2929",
"H;	c #556162",
"I;	c #3A494B",
"J;	c #323F41",
"K;	c #2C3D3F",
"L;	c #227270",
"M;	c #206B6B",
"N;	c #28635F",
"O;	c #246360",
"P;	c #324442",
"Q;	c #3F5651",
"R;	c #2D6662",
"S;	c #2A7370",
"T;	c #347E7A",
"U;	c #34938A",
"V;	c #358F87",
"W;	c #347C79",
"X;	c #1B938D",
"Y;	c #1D6C6A",
"Z;	c #222C2D",
"`;	c #24292A",
" >	c #2E3437",
".>	c #9A5D3D",
"+>	c #C8AFA1",
"@>	c #503C37",
"#>	c #4B3934",
"$>	c #473A38",
"%>	c #151513",
"&>	c #100C0A",
"*>	c #120C0C",
"=>	c #141011",
"->	c #191514",
";>	c #161013",
">>	c #231D1B",
",>	c #1E191A",
"'>	c #131012",
")>	c #23201D",
"!>	c #2B2523",
"~>	c #2F2623",
"{>	c #2A211E",
"]>	c #211C18",
"^>	c #17110F",
"/>	c #1D1612",
"(>	c #1E1716",
"_>	c #171312",
":>	c #464A4F",
"<>	c #404041",
"[>	c #3F4040",
"}>	c #3F4343",
"|>	c #394044",
"1>	c #3B434A",
"2>	c #3B4347",
"3>	c #303133",
"4>	c #3B6162",
"5>	c #2D4848",
"6>	c #325A5A",
"7>	c #304F4F",
"8>	c #272F33",
"9>	c #2D5856",
"0>	c #2B3333",
"a>	c #453F3B",
"b>	c #2A3839",
"c>	c #423B37",
"d>	c #3C4A45",
"e>	c #31605D",
"f>	c #2E7873",
"g>	c #45B3A7",
"h>	c #46E3D1",
"i>	c #40CDBD",
"j>	c #3B5955",
"k>	c #247A77",
"l>	c #1F6464",
"m>	c #226261",
"n>	c #244241",
"o>	c #2F3738",
"p>	c #545250",
"q>	c #A15B39",
"r>	c #B79584",
"s>	c #4E3831",
"t>	c #503D36",
"u>	c #4D403C",
"v>	c #151410",
"w>	c #110C09",
"x>	c #170F0F",
"y>	c #151010",
"z>	c #0E0B0B",
"A>	c #0D0B0B",
"B>	c #1A1511",
"C>	c #211B17",
"D>	c #1C1717",
"E>	c #161413",
"F>	c #1F1C19",
"G>	c #191412",
"H>	c #1E1B1A",
"I>	c #1C1A19",
"J>	c #181413",
"K>	c #241C16",
"L>	c #201916",
"M>	c #231E1C",
"N>	c #1B1A19",
"O>	c #494D50",
"P>	c #444749",
"Q>	c #3C3D3E",
"R>	c #3B3939",
"S>	c #3B3837",
"T>	c #393637",
"U>	c #3C3B3C",
"V>	c #3B3E41",
"W>	c #40464B",
"X>	c #40464A",
"Y>	c #252525",
"Z>	c #313435",
"`>	c #677174",
" ,	c #32A3A0",
".,	c #306463",
"+,	c #328380",
"@,	c #287773",
"#,	c #1C1F22",
"$,	c #202C30",
"%,	c #232021",
"&,	c #462E28",
"*,	c #32231E",
"=,	c #442C26",
"-,	c #343632",
";,	c #2E4C4B",
">,	c #2D6968",
",,	c #3C7572",
"',	c #3D8B85",
"),	c #39817C",
"!,	c #3D5250",
"~,	c #365A5A",
"{,	c #384544",
"],	c #2E5E5E",
"^,	c #2C5452",
"/,	c #272A2B",
"(,	c #4E4541",
"_,	c #774533",
":,	c #926E61",
"<,	c #858586",
"[,	c #4E3F3D",
"},	c #4D4444",
"|,	c #12120F",
"1,	c #0B0805",
"2,	c #150F0F",
"3,	c #0D090B",
"4,	c #0E0B0D",
"5,	c #181310",
"6,	c #100D0D",
"7,	c #1C1716",
"8,	c #141012",
"9,	c #161314",
"0,	c #151514",
"a,	c #14100F",
"b,	c #251C19",
"c,	c #2B211C",
"d,	c #2D2723",
"e,	c #24211F",
"f,	c #434549",
"g,	c #3E3E40",
"h,	c #3A3937",
"i,	c #3A3838",
"j,	c #3F3D3D",
"k,	c #3F3E40",
"l,	c #44474A",
"m,	c #414548",
"n,	c #171611",
"o,	c #242322",
"p,	c #2F3030",
"q,	c #95A0A2",
"r,	c #3FA09A",
"s,	c #345A58",
"t,	c #374F4F",
"u,	c #2D4948",
"v,	c #262A2B",
"w,	c #18181B",
"x,	c #2B2222",
"y,	c #3C2723",
"z,	c #3F2B25",
"A,	c #4D3A31",
"B,	c #4E4740",
"C,	c #4A524D",
"D,	c #515B55",
"E,	c #55625D",
"F,	c #57615B",
"G,	c #5F5F56",
"H,	c #5C574E",
"I,	c #604839",
"J,	c #5D5449",
"K,	c #364340",
"L,	c #394241",
"M,	c #424543",
"N,	c #7B4936",
"O,	c #864830",
"P,	c #504E50",
"Q,	c #463D3E",
"R,	c #101110",
"S,	c #0E0C0A",
"T,	c #17120F",
"U,	c #16110F",
"V,	c #100B0B",
"W,	c #1B1716",
"X,	c #1C1816",
"Y,	c #141312",
"Z,	c #100E0D",
"`,	c #221F1D",
" '	c #242020",
".'	c #201D1D",
"+'	c #231C1B",
"@'	c #241819",
"#'	c #302422",
"$'	c #372A25",
"%'	c #312623",
"&'	c #424548",
"*'	c #3D3A38",
"='	c #3B3737",
"-'	c #393636",
";'	c #3E3A3A",
">'	c #403C3C",
",'	c #3F3D3C",
"''	c #454446",
")'	c #191815",
"!'	c #C5D4D3",
"~'	c #506363",
"{'	c #323535",
"]'	c #313334",
"^'	c #2D3031",
"/'	c #1B1C20",
"('	c #2D2E30",
"_'	c #222426",
":'	c #1F1E1F",
"<'	c #49322B",
"['	c #52382F",
"}'	c #4E342C",
"|'	c #653B2A",
"1'	c #74412C",
"2'	c #78432C",
"3'	c #78452E",
"4'	c #57372A",
"5'	c #623D2C",
"6'	c #55362B",
"7'	c #252224",
"8'	c #334446",
"9'	c #3A4344",
"0'	c #7F4A32",
"a'	c #4D4A4C",
"b'	c #423531",
"c'	c #3A3232",
"d'	c #0E1010",
"e'	c #100C0D",
"f'	c #130F0C",
"g'	c #110C0A",
"h'	c #16100E",
"i'	c #140F0A",
"j'	c #201A15",
"k'	c #201B17",
"l'	c #2F2C28",
"m'	c #2F2A26",
"n'	c #241D1C",
"o'	c #241D1D",
"p'	c #362D29",
"q'	c #3C312A",
"r'	c #322621",
"s'	c #352723",
"t'	c #312421",
"u'	c #322723",
"v'	c #29211E",
"w'	c #3C3A3B",
"x'	c #403E3C",
"y'	c #3C3939",
"z'	c #3F3C3D",
"A'	c #3F3D3B",
"B'	c #3A3B38",
"C'	c #3F4041",
"D'	c #404246",
"E'	c #1C1918",
"F'	c #23201F",
"G'	c #6CADAC",
"H'	c #364647",
"I'	c #2A2C2C",
"J'	c #2F3132",
"K'	c #2F3232",
"L'	c #2A2C2D",
"M'	c #2C2D30",
"N'	c #1F2022",
"O'	c #333334",
"P'	c #202022",
"Q'	c #262627",
"R'	c #302E2E",
"S'	c #2C2A2A",
"T'	c #2E302F",
"U'	c #393431",
"V'	c #41322E",
"W'	c #3E302C",
"X'	c #312A29",
"Y'	c #352C2A",
"Z'	c #2E2727",
"`'	c #2F3335",
" )	c #354446",
".)	c #8B5236",
"+)	c #463835",
"@)	c #3B3333",
"#)	c #0F1211",
"$)	c #0F0B0A",
"%)	c #120C0B",
"&)	c #0F0C0B",
"*)	c #171211",
"=)	c #17120E",
"-)	c #241E19",
";)	c #211B19",
">)	c #292624",
",)	c #2A2423",
"')	c #261F1E",
"))	c #25201F",
"!)	c #302B29",
"~)	c #2D2623",
"{)	c #2A201E",
"])	c #332822",
"^)	c #2F241E",
"/)	c #2F231E",
"()	c #271D1C",
"_)	c #3F4345",
":)	c #3F3F3E",
"<)	c #3F3E3D",
"[)	c #3E3B3B",
"})	c #3C3B3D",
"|)	c #373938",
"1)	c #3D3F41",
"2)	c #3B3F43",
"3)	c #191615",
"4)	c #6F9E9D",
"5)	c #353D3F",
"6)	c #1E2022",
"7)	c #252628",
"8)	c #202123",
"9)	c #1B1C1F",
"0)	c #2C2C2D",
"a)	c #2F2F31",
"b)	c #202122",
"c)	c #1E1F21",
"d)	c #1F2324",
"e)	c #243638",
"f)	c #1C8B85",
"g)	c #1F9C94",
"h)	c #225150",
"i)	c #1F3031",
"j)	c #1D1F21",
"k)	c #2B2E30",
"l)	c #282B2D",
"m)	c #1E1D20",
"n)	c #313536",
"o)	c #364445",
"p)	c #3C4949",
"q)	c #96583A",
"r)	c #525050",
"s)	c #4B3D3A",
"t)	c #453B3C",
"u)	c #141615",
"v)	c #0E0C09",
"w)	c #110E0A",
"x)	c #0E0B07",
"y)	c #16130D",
"z)	c #18140F",
"A)	c #14100D",
"B)	c #18130E",
"C)	c #151210",
"D)	c #0C0B0C",
"E)	c #181614",
"F)	c #211B18",
"G)	c #2B2420",
"H)	c #221E1A",
"I)	c #1E1C17",
"J)	c #1F1B19",
"K)	c #221E1C",
"L)	c #26201C",
"M)	c #1F1713",
"N)	c #424344",
"O)	c #3E3E3E",
"P)	c #3C3A39",
"Q)	c #3D3C3C",
"R)	c #3D3E41",
"S)	c #414347",
"T)	c #131210",
"U)	c #1F1C1C",
"V)	c #181715",
"W)	c #151312",
"X)	c #1E1E1D",
"Y)	c #4E5151",
"Z)	c #4C5051",
"`)	c #4C5355",
" !	c #1E2023",
".!	c #1C1D20",
"+!	c #1D1E20",
"@!	c #2F484C",
"#!	c #30AEA4",
"$!	c #3AC2B8",
"%!	c #2B908D",
"&!	c #255454",
"*!	c #242728",
"=!	c #303638",
"-!	c #384749",
";!	c #3F4D4E",
">!	c #9B5C3D",
",!	c #4C494A",
"'!	c #443633",
")!	c #443938",
"!!	c #110D0A",
"~!	c #140F0C",
"{!	c #1B1611",
"]!	c #17110E",
"^!	c #120D0D",
"/!	c #0E0909",
"(!	c #0E0D0C",
"_!	c #0E0D0D",
":!	c #141413",
"<!	c #181412",
"[!	c #1D1716",
"}!	c #201C1A",
"|!	c #1C1715",
"1!	c #1A1613",
"2!	c #13110F",
"3!	c #1A1411",
"4!	c #211916",
"5!	c #1F1815",
"6!	c #3D3C3D",
"7!	c #3C3B3B",
"8!	c #3D3D3C",
"9!	c #3F3F41",
"0!	c #454649",
"a!	c #11110F",
"b!	c #1D1A19",
"c!	c #252120",
"d!	c #1B1917",
"e!	c #141111",
"f!	c #171615",
"g!	c #1C1E1F",
"h!	c #88A8A9",
"i!	c #1A6F71",
"j!	c #1A2427",
"k!	c #1A1C1E",
"l!	c #1C1E20",
"m!	c #1E2021",
"n!	c #252728",
"o!	c #2B2E2F",
"p!	c #2D3133",
"q!	c #2B2F32",
"r!	c #2E3134",
"s!	c #1E1F22",
"t!	c #26292B",
"u!	c #222224",
"v!	c #313739",
"w!	c #394B4B",
"x!	c #405152",
"y!	c #985D3E",
"z!	c #423432",
"A!	c #453937",
"B!	c #0E0D09",
"C!	c #140F0D",
"D!	c #1A1311",
"E!	c #120D0B",
"F!	c #100E0C",
"G!	c #0C0A09",
"H!	c #161517",
"I!	c #121416",
"J!	c #141517",
"K!	c #232322",
"L!	c #2D2A2A",
"M!	c #2C2A29",
"N!	c #171716",
"O!	c #1A1917",
"P!	c #292523",
"Q!	c #211C1A",
"R!	c #3E3F41",
"S!	c #39393A",
"T!	c #3D3B39",
"U!	c #424144",
"V!	c #3A393A",
"W!	c #1E1B19",
"X!	c #282322",
"Y!	c #1A1717",
"Z!	c #151313",
"`!	c #1D1E1F",
" ~	c #252626",
".~	c #168586",
"+~	c #172428",
"@~	c #16191C",
"#~	c #181A1C",
"$~	c #2A2D2E",
"%~	c #2E3232",
"&~	c #303639",
"*~	c #294849",
"=~	c #1F2123",
"-~	c #232527",
";~	c #29292B",
">~	c #212326",
",~	c #2F3638",
"'~	c #394A4C",
")~	c #3B4D4E",
"!~	c #8F593C",
"~~	c #3C3A3C",
"{~	c #493E3D",
"]~	c #473B39",
"^~	c #0F100B",
"/~	c #2D292A",
"(~	c #3C3639",
"_~	c #383637",
":~	c #3E3B3D",
"<~	c #343435",
"[~	c #2E2E2F",
"}~	c #242424",
"|~	c #0A0705",
"1~	c #1B1B1E",
"2~	c #191A1D",
"3~	c #242425",
"4~	c #33302F",
"5~	c #232323",
"6~	c #222423",
"7~	c #2F2C2A",
"8~	c #393838",
"9~	c #383635",
"0~	c #3B3839",
"a~	c #3D3B3C",
"b~	c #3A393B",
"c~	c #403D3F",
"d~	c #3A3839",
"e~	c #13120F",
"f~	c #120E11",
"g~	c #191614",
"h~	c #151213",
"i~	c #147D7F",
"j~	c #174245",
"k~	c #181F21",
"l~	c #16181B",
"m~	c #2B2C2C",
"n~	c #2F3C3E",
"o~	c #2A6867",
"p~	c #1A8F8C",
"q~	c #228282",
"r~	c #3A6566",
"s~	c #327377",
"t~	c #2C8181",
"u~	c #2A827F",
"v~	c #2F4345",
"w~	c #2F3E40",
"x~	c #344042",
"y~	c #875037",
"z~	c #363436",
"A~	c #4B3D3B",
"B~	c #493D3A",
"C~	c #131311",
"D~	c #373032",
"E~	c #3E3638",
"F~	c #3D373A",
"G~	c #474141",
"H~	c #433F40",
"I~	c #373638",
"J~	c #3F4042",
"K~	c #0E0B09",
"L~	c #100F0C",
"M~	c #151413",
"N~	c #1B1A1A",
"O~	c #242323",
"P~	c #212121",
"Q~	c #242627",
"R~	c #2A2C2E",
"S~	c #2C2F30",
"T~	c #282A2C",
"U~	c #444446",
"V~	c #3D3B3D",
"W~	c #393738",
"X~	c #3C3838",
"Y~	c #3E3939",
"Z~	c #3C3837",
"`~	c #3C383A",
" {	c #3D3837",
".{	c #393534",
"+{	c #14120D",
"@{	c #221C18",
"#{	c #271F1D",
"${	c #141112",
"%{	c #191818",
"&{	c #191616",
"*{	c #1E3235",
"={	c #186265",
"-{	c #183A3C",
";{	c #191F23",
">{	c #182224",
",{	c #1D2022",
"'{	c #2A2B2E",
"){	c #2D2E31",
"!{	c #2B3B3C",
"~{	c #285D5D",
"{{	c #257072",
"]{	c #21888A",
"^{	c #2F7B7D",
"/{	c #445B5B",
"({	c #465755",
"_{	c #405C5C",
":{	c #3B6363",
"<{	c #386364",
"[{	c #354849",
"}{	c #4B332C",
"|{	c #27292D",
"1{	c #515153",
"2{	c #575556",
"3{	c #3C3535",
"4{	c #4F4A4B",
"5{	c #5D5B5B",
"6{	c #656565",
"7{	c #493F3A",
"8{	c #48413E",
"9{	c #3A363A",
"0{	c #0A0500",
"a{	c #263138",
"b{	c #313D49",
"c{	c #38444F",
"d{	c #445159",
"e{	c #465259",
"f{	c #445056",
"g{	c #4D5960",
"h{	c #536169",
"i{	c #4C5C65",
"j{	c #4B5B64",
"k{	c #4B565D",
"l{	c #423F42",
"m{	c #3F3936",
"n{	c #3D3632",
"o{	c #3F3734",
"p{	c #413834",
"q{	c #3C342F",
"r{	c #393533",
"s{	c #0D100B",
"t{	c #1F1917",
"u{	c #27201F",
"v{	c #1B1817",
"w{	c #131112",
"x{	c #171516",
"y{	c #1B1F21",
"z{	c #1B292C",
"A{	c #254849",
"B{	c #203234",
"C{	c #1A272B",
"D{	c #1A1D1F",
"E{	c #1F2225",
"F{	c #26272A",
"G{	c #2F3135",
"H{	c #374144",
"I{	c #2E6266",
"J{	c #188D90",
"K{	c #397070",
"L{	c #425757",
"M{	c #445352",
"N{	c #405353",
"O{	c #3F5B5C",
"P{	c #313A3A",
"Q{	c #222429",
"R{	c #343235",
"S{	c #473E3D",
"T{	c #453C3C",
"U{	c #423B3C",
"V{	c #4B4141",
"W{	c #333133",
"X{	c #343334",
"Y{	c #6C6D6E",
"Z{	c #A7A9AA",
"`{	c #27292C",
" ]	c #0B0600",
".]	c #333F47",
"+]	c #35414B",
"@]	c #363F48",
"#]	c #40484E",
"$]	c #3C4248",
"%]	c #3F4447",
"&]	c #4A5257",
"*]	c #434D53",
"=]	c #3E474E",
"-]	c #3D4347",
";]	c #433D41",
">]	c #3E3736",
",]	c #3C3331",
"']	c #3C322F",
")]	c #3E332F",
"!]	c #40342F",
"~]	c #3A2F2A",
"{]	c #3A3535",
"]]	c #0C0E0E",
"^]	c #1A1616",
"/]	c #261F20",
"(]	c #1C1818",
"_]	c #181617",
":]	c #1E1C1C",
"<]	c #B9BBB9",
"[]	c #1B1F20",
"}]	c #171B1E",
"|]	c #292B2E",
"1]	c #222528",
"2]	c #1B1D20",
"3]	c #1C2023",
"4]	c #1A1D20",
"5]	c #1D2023",
"6]	c #24282A",
"7]	c #252A2D",
"8]	c #274445",
"9]	c #275F60",
"0]	c #236365",
"a]	c #2E5455",
"b]	c #2D6A6C",
"c]	c #2B6D6D",
"d]	c #2C5355",
"e]	c #272E32",
"f]	c #272A2F",
"g]	c #383436",
"h]	c #514340",
"i]	c #3E383A",
"j]	c #4F4442",
"k]	c #3A3334",
"l]	c #353335",
"m]	c #50504F",
"n]	c #373738",
"o]	c #37393E",
"p]	c #222527",
"q]	c #0A0600",
"r]	c #2F373C",
"s]	c #343B40",
"t]	c #333639",
"u]	c #303030",
"v]	c #282321",
"w]	c #2D2823",
"x]	c #292422",
"y]	c #333331",
"z]	c #2E2E2C",
"A]	c #272625",
"B]	c #464040",
"C]	c #3F3635",
"D]	c #3D3430",
"E]	c #3D332E",
"F]	c #3D312D",
"G]	c #3C2F2C",
"H]	c #3F3130",
"I]	c #40322E",
"J]	c #423630",
"K]	c #453732",
"L]	c #382F2F",
"M]	c #090A0A",
"N]	c #1D1718",
"O]	c #292021",
"P]	c #1D1918",
"Q]	c #161312",
"R]	c #191613",
"S]	c #191716",
"T]	c #324245",
"U]	c #296D70",
"V]	c #16474A",
"W]	c #171E21",
"X]	c #232326",
"Y]	c #29282B",
"Z]	c #202325",
"`]	c #222728",
" ^	c #202326",
".^	c #1F2125",
"+^	c #1D1F22",
"@^	c #1F2326",
"#^	c #1B3236",
"$^	c #1B4548",
"%^	c #254041",
"&^	c #292E31",
"*^	c #282D31",
"=^	c #714634",
"-^	c #2F2829",
";^	c #514E4E",
">^	c #534E4E",
",^	c #4B4646",
"'^	c #483E3D",
")^	c #312E2F",
"!^	c #686969",
"~^	c #2D2828",
"{^	c #3B393B",
"]^	c #242626",
"^^	c #090401",
"/^	c #2C333B",
"(^	c #313943",
"_^	c #3A4247",
":^	c #2C2927",
"<^	c #1F1C1D",
"[^	c #242225",
"}^	c #2A2A2A",
"|^	c #494242",
"1^	c #3F3735",
"2^	c #40332D",
"3^	c #3E322D",
"4^	c #3F332E",
"5^	c #473932",
"6^	c #52453F",
"7^	c #4A3E39",
"8^	c #382F2D",
"9^	c #0C0D0E",
"0^	c #292121",
"a^	c #1C1819",
"b^	c #191817",
"c^	c #1C1B1A",
"d^	c #354548",
"e^	c #327779",
"f^	c #1B4D50",
"g^	c #1A2325",
"h^	c #1F2024",
"i^	c #222427",
"j^	c #262D2E",
"k^	c #283132",
"l^	c #2A3131",
"m^	c #252A2C",
"n^	c #202527",
"o^	c #1D393E",
"p^	c #115F63",
"q^	c #193E41",
"r^	c #2F3233",
"s^	c #7B4730",
"t^	c #3E3838",
"u^	c #53423F",
"v^	c #4F403D",
"w^	c #1C1D1B",
"x^	c #312B29",
"y^	c #3A302E",
"z^	c #302722",
"A^	c #291F1D",
"B^	c #2E2928",
"C^	c #3B393A",
"D^	c #464548",
"E^	c #313132",
"F^	c #2D373E",
"G^	c #2F3A44",
"H^	c #384247",
"I^	c #373C3E",
"J^	c #343430",
"K^	c #211D1B",
"L^	c #2B2826",
"M^	c #323032",
"N^	c #353636",
"O^	c #383A38",
"P^	c #333433",
"Q^	c #4B4444",
"R^	c #3E3734",
"S^	c #3C312D",
"T^	c #40332F",
"U^	c #3E312D",
"V^	c #3D322E",
"W^	c #3E3531",
"X^	c #483D38",
"Y^	c #4E4441",
"Z^	c #483C38",
"`^	c #3A322E",
" /	c #0F1010",
"./	c #201C19",
"+/	c #281F1D",
"@/	c #141515",
"#/	c #161615",
"$/	c #151515",
"%/	c #28292A",
"&/	c #1C2124",
"*/	c #1D2A2D",
"=/	c #1A1E21",
"-/	c #1E2427",
";/	c #1D4E51",
">/	c #1E595A",
",/	c #1D2527",
"'/	c #202426",
")/	c #1F4345",
"!/	c #195B5D",
"~/	c #1B3438",
"{/	c #1C3B3D",
"]/	c #1F2D2F",
"^/	c #212325",
"//	c #433834",
"(/	c #854A2F",
"_/	c #3E3636",
":/	c #503D39",
"</	c #493835",
"[/	c #191A16",
"}/	c #2B2524",
"|/	c #362C29",
"1/	c #372E2B",
"2/	c #302626",
"3/	c #35312E",
"4/	c #353534",
"5/	c #0B0A04",
"6/	c #323D42",
"7/	c #3B464E",
"8/	c #374146",
"9/	c #2F3336",
"0/	c #2C2B27",
"a/	c #231F1C",
"b/	c #332F2D",
"c/	c #404140",
"d/	c #494342",
"e/	c #433A35",
"f/	c #42352E",
"g/	c #40332E",
"h/	c #3E322E",
"i/	c #3A302D",
"j/	c #4B413C",
"k/	c #4E403B",
"l/	c #413734",
"m/	c #0C0D0C",
"n/	c #1E1816",
"o/	c #29201D",
"p/	c #121212",
"q/	c #141212",
"r/	c #131113",
"s/	c #6F7171",
"t/	c #1F2021",
"u/	c #272828",
"v/	c #2F2C2C",
"w/	c #1D2225",
"x/	c #1D3537",
"y/	c #1E3B3C",
"z/	c #1F2224",
"A/	c #202224",
"B/	c #223234",
"C/	c #1F3E3E",
"D/	c #21282A",
"E/	c #253031",
"F/	c #654335",
"G/	c #915031",
"H/	c #3D302E",
"I/	c #646464",
"J/	c #473733",
"K/	c #1A1A17",
"L/	c #2F2A28",
"M/	c #352D2A",
"N/	c #2D2724",
"O/	c #39332F",
"P/	c #413F3C",
"Q/	c #2E2F2E",
"R/	c #282D2E",
"S/	c #0A0903",
"T/	c #2F3A3E",
"U/	c #3D484F",
"V/	c #3E474C",
"W/	c #2C2A24",
"X/	c #32302E",
"Y/	c #3B3B39",
"Z/	c #363838",
"`/	c #383A3C",
" (	c #47403F",
".(	c #493D39",
"+(	c #483A32",
"@(	c #42332C",
"#(	c #3E312B",
"$(	c #3E322C",
"%(	c #3C302C",
"&(	c #463933",
"*(	c #493933",
"=(	c #3C302B",
"-(	c #080A09",
";(	c #1E1715",
">(	c #2F2422",
",(	c #161313",
"'(	c #151311",
")(	c #9E9F9F",
"!(	c #1A1B1C",
"~(	c #1D1F1F",
"{(	c #252526",
"](	c #252425",
"^(	c #202021",
"/(	c #1C1E1E",
"((	c #1D1F20",
"_(	c #1D2021",
":(	c #212324",
"<(	c #212224",
"[(	c #202223",
"}(	c #232B2C",
"|(	c #253233",
"1(	c #2A2E30",
"2(	c #343537",
"3(	c #864C32",
"4(	c #57372B",
"5(	c #2F2E2D",
"6(	c #292827",
"7(	c #6B6A69",
"8(	c #161717",
"9(	c #232222",
"0(	c #2C2928",
"a(	c #272423",
"b(	c #332C2A",
"c(	c #3E3A38",
"d(	c #343436",
"e(	c #2A2E32",
"f(	c #202428",
"g(	c #0B0905",
"h(	c #2C3336",
"i(	c #33383D",
"j(	c #323638",
"k(	c #252422",
"l(	c #403D3B",
"m(	c #424341",
"n(	c #3C3F40",
"o(	c #4A4140",
"p(	c #463936",
"q(	c #47372F",
"r(	c #42302A",
"s(	c #3B2B24",
"t(	c #3C2E27",
"u(	c #473B33",
"v(	c #3F302A",
"w(	c #3E2E27",
"x(	c #342A25",
"y(	c #090C0B",
"z(	c #2B201D",
"A(	c #251D19",
"B(	c #181212",
"C(	c #161110",
"D(	c #9A9B9B",
"E(	c #18191B",
"F(	c #1E1F20",
"G(	c #2A292A",
"H(	c #433E3B",
"I(	c #1E1E20",
"J(	c #1C1D1F",
"K(	c #1C1D1E",
"L(	c #1B1D1D",
"M(	c #1B1D1E",
"N(	c #242526",
"O(	c #28292B",
"P(	c #313637",
"Q(	c #373636",
"R(	c #884A2F",
"S(	c #452C22",
"T(	c #222324",
"U(	c #2D2C2A",
"V(	c #555451",
"W(	c #151715",
"X(	c #1D1C1B",
"Y(	c #1F1B1D",
"Z(	c #332D2B",
"`(	c #3D3734",
" _	c #363332",
"._	c #100E07",
"+_	c #323133",
"@_	c #312F32",
"#_	c #2F2F2F",
"$_	c #2F2F2D",
"%_	c #383735",
"&_	c #3C3D3B",
"*_	c #3E403E",
"=_	c #3D3F3F",
"-_	c #4B4140",
";_	c #443734",
">_	c #44342D",
",_	c #413029",
"'_	c #3B2A24",
")_	c #3A2A26",
"!_	c #3C2E29",
"~_	c #41332D",
"{_	c #3C2E2A",
"]_	c #3C2D29",
"^_	c #372D2A",
"/_	c #0E1110",
"(_	c #1E1819",
"__	c #231B19",
":_	c #191513",
"<_	c #0F0E0D",
"[_	c #717272",
"}_	c #49423E",
"|_	c #212021",
"1_	c #1E1F1F",
"2_	c #222325",
"3_	c #222425",
"4_	c #272729",
"5_	c #292A2C",
"6_	c #383D3E",
"7_	c #574038",
"8_	c #8A4A2E",
"9_	c #43281F",
"0_	c #2C2D2D",
"a_	c #272320",
"b_	c #2C2622",
"c_	c #292221",
"d_	c #36302B",
"e_	c #342F2E",
"f_	c #111009",
"g_	c #3B383A",
"h_	c #383537",
"i_	c #353535",
"j_	c #373939",
"k_	c #393B3C",
"l_	c #4A4343",
"m_	c #453B38",
"n_	c #3E302B",
"o_	c #3C2F2B",
"p_	c #3B302C",
"q_	c #3A2E2A",
"r_	c #3C322D",
"s_	c #382C28",
"t_	c #37302E",
"u_	c #0E1211",
"v_	c #221D1C",
"w_	c #0D0D0D",
"x_	c #444345",
"y_	c #202121",
"z_	c #282727",
"A_	c #353130",
"B_	c #443E3B",
"C_	c #1F1F20",
"D_	c #232425",
"E_	c #262728",
"F_	c #2E3032",
"G_	c #2E3233",
"H_	c #363A3C",
"I_	c #6A4636",
"J_	c #8C4C2F",
"K_	c #42281F",
"L_	c #1A1C1D",
"M_	c #1B1E20",
"N_	c #353332",
"O_	c #31302F",
"P_	c #2D2725",
"Q_	c #382F2B",
"R_	c #39322F",
"S_	c #3D3A3A",
"T_	c #3A3D3D",
"U_	c #2D3233",
"V_	c #0C0C07",
"W_	c #393537",
"X_	c #3C3737",
"Y_	c #353131",
"Z_	c #3C3A3A",
"`_	c #3A383A",
" :	c #363736",
".:	c #393B3B",
"+:	c #3B3C3D",
"@:	c #494544",
"#:	c #47413F",
"$:	c #423A36",
"%:	c #3F3733",
"&:	c #3F3934",
"*:	c #393633",
"=:	c #3A3531",
"-:	c #3F3B37",
";:	c #393433",
">:	c #0C100E",
",:	c #111313",
"':	c #242426",
"):	c #282829",
"!:	c #3B3533",
"~:	c #272525",
"{:	c #1D1D1E",
"]:	c #212223",
"^:	c #242525",
"/:	c #2B2B2D",
"(:	c #2F3032",
"_:	c #343738",
"::	c #383B3C",
"<:	c #774934",
"[:	c #573425",
"}:	c #241F1E",
"|:	c #1B1C1E",
"1:	c #343232",
"2:	c #454545",
"3:	c #5D5C5E",
"4:	c #38302C",
"5:	c #3D3830",
"6:	c #3C3637",
"7:	c #36383A",
"8:	c #0A0B08",
"9:	c #373333",
"0:	c #403937",
"a:	c #3D3936",
"b:	c #3D3B3E",
"c:	c #383938",
"d:	c #393B3A",
"e:	c #383738",
"f:	c #433F41",
"g:	c #423D3D",
"h:	c #433F39",
"i:	c #413C35",
"j:	c #3F3A36",
"k:	c #313131",
"l:	c #464444",
"m:	c #3B3836",
"n:	c #0E0F0D",
"o:	c #1A1514",
"p:	c #131111",
"q:	c #232324",
"r:	c #272728",
"s:	c #302E2F",
"t:	c #3E3634",
"u:	c #393332",
"v:	c #1C1C1D",
"w:	c #1D1E1E",
"x:	c #252627",
"y:	c #28282A",
"z:	c #403F3E",
"A:	c #81492E",
"B:	c #452B22",
"C:	c #1F2223",
"D:	c #232526",
"E:	c #9B9B9B",
"F:	c #382F2A",
"G:	c #332A25",
"H:	c #383331",
"I:	c #272B2D",
"J:	c #10120F",
"K:	c #38322F",
"L:	c #3B3330",
"M:	c #383634",
"N:	c #373635",
"O:	c #3E3D3E",
"P:	c #454143",
"Q:	c #3F3832",
"R:	c #413831",
"S:	c #3F3834",
"T:	c #393735",
"U:	c #383A39",
"V:	c #454242",
"W:	c #3A3533",
"X:	c #13120E",
"Y:	c #121012",
"Z:	c #2A2B2C",
"`:	c #212023",
" <	c #232325",
".<	c #2A2929",
"+<	c #3F3837",
"@<	c #403A38",
"#<	c #1F2121",
"$<	c #2D2E2F",
"%<	c #2E3133",
"&<	c #343839",
"*<	c #423C39",
"=<	c #884B2C",
"-<	c #4B2E24",
";<	c #1A1B1E",
"><	c #232626",
",<	c #2D3131",
"'<	c #363331",
")<	c #7C7877",
"!<	c #817E7F",
"~<	c #382D27",
"{<	c #423C35",
"]<	c #40413E",
"^<	c #323634",
"/<	c #161712",
"(<	c #3A2F2B",
"_<	c #3F322E",
":<	c #373533",
"<<	c #383C3A",
"[<	c #333636",
"}<	c #343535",
"|<	c #383836",
"1<	c #383734",
"2<	c #392C28",
"3<	c #3B2B28",
"4<	c #382E2B",
"5<	c #413D3A",
"6<	c #403A3A",
"7<	c #393331",
"8<	c #181713",
"9<	c #231C1A",
"0<	c #2A2A2B",
"a<	c #423B3B",
"b<	c #3F3A38",
"c<	c #1B1C1D",
"d<	c #262528",
"e<	c #272628",
"f<	c #724734",
"g<	c #74432C",
"h<	c #3B2A25",
"i<	c #1D1D20",
"j<	c #2D2C2C",
"k<	c #433836",
"l<	c #413634",
"m<	c #8A8889",
"n<	c #423B36",
"o<	c #484643",
"p<	c #373836",
"q<	c #131613",
"r<	c #3A2D2B",
"s<	c #433632",
"t<	c #3E3A37",
"u<	c #363635",
"v<	c #333736",
"w<	c #313433",
"x<	c #353634",
"y<	c #393A37",
"z<	c #4D4A49",
"A<	c #3C3634",
"B<	c #392F2D",
"C<	c #3B2F2D",
"D<	c #3D3332",
"E<	c #413E3B",
"F<	c #41413F",
"G<	c #3E3C3A",
"H<	c #3F3A39",
"I<	c #131513",
"J<	c #241C1A",
"K<	c #8E8E8F",
"L<	c #171719",
"M<	c #1B1B1D",
"N<	c #423B39",
"O<	c #212123",
"P<	c #282729",
"Q<	c #2E2F30",
"R<	c #2E2F31",
"S<	c #303335",
"T<	c #333839",
"U<	c #373736",
"V<	c #824B32",
"W<	c #452D23",
"X<	c #1C1B1E",
"Y<	c #312726",
"Z<	c #382A28",
"`<	c #343030",
" [	c #2B4E56",
".[	c #374447",
"+[	c #838282",
"@[	c #433C38",
"#[	c #434040",
"$[	c #313232",
"%[	c #121412",
"&[	c #3F322F",
"*[	c #443530",
"=[	c #3F3835",
"-[	c #39393B",
";[	c #3B3A3C",
">[	c #343534",
",[	c #474242",
"'[	c #403B3A",
")[	c #443935",
"![	c #443A35",
"~[	c #3D332F",
"{[	c #453834",
"][	c #3C2E2C",
"^[	c #3C2E2D",
"/[	c #383130",
"([	c #0F1514",
"_[	c #2E231F",
":[	c #656566",
"<[	c #1C1C1E",
"[[	c #413937",
"}[	c #303033",
"|[	c #333637",
"1[	c #323738",
"2[	c #453D3B",
"3[	c #8C4D30",
"4[	c #472B22",
"5[	c #262122",
"6[	c #372C2B",
"7[	c #635F5E",
"8[	c #444141",
"9[	c #453833",
"0[	c #483933",
"a[	c #3F3633",
"b[	c #393939",
"c[	c #353637",
"d[	c #3A3C3B",
"e[	c #474041",
"f[	c #443E3D",
"g[	c #413A35",
"h[	c #423029",
"i[	c #463128",
"j[	c #442D26",
"k[	c #412D25",
"l[	c #412D27",
"m[	c #372C29",
"n[	c #0D1514",
"o[	c #686869",
"p[	c #373332",
"q[	c #383432",
"r[	c #252527",
"s[	c #262628",
"t[	c #2A2B2D",
"u[	c #2F3133",
"v[	c #353939",
"w[	c #3E3C3B",
"x[	c #714432",
"y[	c #7D452C",
"z[	c #3A2620",
"A[	c #1A1A1D",
"B[	c #17181B",
"C[	c #252020",
"D[	c #362B28",
"E[	c #382D29",
"F[	c #372C2A",
"G[	c #3D322F",
"H[	c #2E2828",
"I[	c #929494",
"J[	c #453A37",
"K[	c #493F3B",
"L[	c #413B3A",
"M[	c #3E3F3F",
"N[	c #363738",
"O[	c #393A3A",
"P[	c #353739",
"Q[	c #433D3F",
"R[	c #45423E",
"S[	c #402F28",
"T[	c #413028",
"U[	c #43342B",
"V[	c #42352C",
"W[	c #3F3029",
"X[	c #45352D",
"Y[	c #3D3230",
"Z[	c #7D7D7E",
"`[	c #363231",
" }	c #3B3534",
".}	c #282525",
"+}	c #313434",
"@}	c #34393A",
"#}	c #373C3C",
"$}	c #51423D",
"%}	c #8D4A2E",
"&}	c #4D2D22",
"*}	c #191B1E",
"=}	c #17181A",
"-}	c #3E2E29",
";}	c #433129",
">}	c #244B54",
",}	c #959595",
"'}	c #34302F",
")}	c #3A3333",
"!}	c #383535",
"~}	c #383939",
"{}	c #363638",
"]}	c #373A3A",
"^}	c #4A4848",
"/}	c #4A4B49",
"(}	c #454642",
"_}	c #3D2F2B",
":}	c #423730",
"<}	c #3D322C",
"[}	c #392F2A",
"}}	c #747576",
"|}	c #353333",
"1}	c #423D3A",
"2}	c #342F2D",
"3}	c #29292A",
"4}	c #2C2E2F",
"5}	c #2E3131",
"6}	c #35393A",
"7}	c #353A3A",
"8}	c #3C4040",
"9}	c #674A3E",
"0}	c #994E2D",
"a}	c #4F2E23",
"b}	c #17191B",
"c}	c #1F1F21",
"d}	c #372925",
"e}	c #463028",
"f}	c #382E2C",
"g}	c #28454C",
"h}	c #2D3336",
"i}	c #8C8D8D",
"j}	c #151512",
"k}	c #3A3735",
"l}	c #393836",
"m}	c #373639",
"n}	c #38383A",
"o}	c #4F4A4A",
"p}	c #484445",
"q}	c #3D3939",
"r}	c #3B3331",
"s}	c #3A312E",
"t}	c #362E2C",
"u}	c #3F3431",
"v}	c #3E3631",
"w}	c #3D3732",
"x}	c #8F8F90",
"y}	c #2B2B2C",
"z}	c #453F3D",
"A}	c #393432",
"B}	c #282A2A",
"C}	c #27282A",
"D}	c #323536",
"E}	c #744B3B",
"F}	c #984D2E",
"G}	c #492B21",
"H}	c #1F2020",
"I}	c #3F2D27",
"J}	c #3A2A25",
"K}	c #403433",
"L}	c #363131",
"M}	c #6A6B6A",
"N}	c #121310",
"O}	c #303336",
"P}	c #343739",
"Q}	c #403F3D",
"R}	c #3B3A39",
"S}	c #3C3D3D",
"T}	c #363939",
"U}	c #37383B",
"V}	c #443E3E",
"W}	c #423D3C",
"X}	c #3E3836",
"Y}	c #403936",
"Z}	c #858787",
"`}	c #191A1B",
" |	c #282827",
".|	c #3C3734",
"+|	c #4F433D",
"@|	c #322D2A",
"#|	c #303233",
"$|	c #333333",
"%|	c #433E3A",
"&|	c #81523E",
"*|	c #2A2222",
"=|	c #AFACAA",
"-|	c #1E2020",
";|	c #262120",
">|	c #222122",
",|	c #1E2326",
"'|	c #4B4E50",
")|	c #363837",
"!|	c #191A18",
"~|	c #35383A",
"{|	c #333738",
"]|	c #333537",
"^|	c #393435",
"/|	c #393434",
"(|	c #3E3935",
"_|	c #3A3736",
":|	c #3D3E3C",
"<|	c #424242",
"[|	c #414141",
"}|	c #1D1C1D",
"||	c #242223",
"1|	c #352A28",
"2|	c #2F2B2A",
"3|	c #2B2B2B",
"4|	c #343433",
"5|	c #353433",
"6|	c #3C3533",
"7|	c #363737",
"8|	c #343637",
"9|	c #644335",
"0|	c #8D543C",
"a|	c #322F31",
"b|	c #332F30",
"c|	c #999A99",
"d|	c #414242",
"e|	c #191C1E",
"f|	c #171B1C",
"g|	c #1B1E1E",
"h|	c #1B1E1F",
"i|	c #1A1D1D",
"j|	c #191C1D",
"k|	c #242A2C",
"l|	c #363F41",
"m|	c #42464A",
"n|	c #3A3C3F",
"o|	c #3A3B3C",
"p|	c #36373A",
"q|	c #37383A",
"r|	c #363739",
"s|	c #3B3838",
"t|	c #3D3B3A",
"u|	c #3F3B3A",
"v|	c #3D3D3B",
"w|	c #788081",
"x|	c #243132",
"y|	c #243232",
"z|	c #232D2D",
"A|	c #212526",
"B|	c #2E2C2C",
"C|	c #282324",
"D|	c #292727",
"E|	c #2C2E2E",
"F|	c #383534",
"G|	c #3A3433",
"H|	c #3C3735",
"I|	c #343838",
"J|	c #373A3C",
"K|	c #674B42",
"L|	c #8C6E63",
"M|	c #383433",
"N|	c #312C2C",
"O|	c #363333",
"P|	c #555656",
"Q|	c #171A1B",
"R|	c #27292B",
"S|	c #252829",
"T|	c #232528",
"U|	c #2B474B",
"V|	c #2D5E64",
"W|	c #6C8689",
"X|	c #1D1C17",
"Y|	c #373737",
"Z|	c #38393B",
"`|	c #3A3A3C",
" 1	c #3F4244",
".1	c #3C3C3E",
"+1	c #78A6A4",
"@1	c #1D6866",
"#1	c #175E5A",
"$1	c #184443",
"%1	c #1A3B3B",
"&1	c #274849",
"*1	c #224143",
"=1	c #234447",
"-1	c #22464A",
";1	c #214D50",
">1	c #214F53",
",1	c #235052",
"'1	c #234C4E",
")1	c #2B3033",
"!1	c #2E3234",
"~1	c #2E3335",
"{1	c #3C3A38",
"]1	c #3B4849",
"^1	c #324E50",
"/1	c #537271",
"(1	c #5E9497",
"_1	c #322C2A",
":1	c #312B2B",
"<1	c #5E605F",
"[1	c #131617",
"}1	c #181B1C",
"|1	c #1E2123",
"11	c #2D373A",
"21	c #344144",
"31	c #292E30",
"41	c #484A4B",
"51	c #3C3E3F",
"61	c #313031",
"71	c #21201E",
"81	c #454749",
"91	c #3D4044",
"01	c #3F4144",
"a1	c #434445",
"b1	c #454746",
"c1	c #AEAEAE",
"d1	c #212122",
"e1	c #19191B",
"f1	c #1A1A1B",
"g1	c #212022",
"h1	c #1B3033",
"i1	c #193335",
"j1	c #193638",
"k1	c #1B3C3D",
"l1	c #1C3D40",
"m1	c #69797A",
"n1	c #749696",
"o1	c #468B8C",
"p1	c #3D8889",
"q1	c #3D8F8F",
"r1	c #459A99",
"s1	c #76AAA8",
"t1	c #373D40",
"u1	c #202427",
"v1	c #494A49",
"w1	c #363536",
"x1	c #7E7F7F",
"y1	c #2F2F30",
"z1	c #333233",
"A1	c #6E6F6F",
"B1	c #404141",
"C1	c #1F1E1D",
"D1	c #363535",
"E1	c #383638",
"F1	c #343437",
"G1	c #333236",
"H1	c #424549",
"I1	c #454949",
"J1	c #41464A",
"K1	c #3C4144",
"L1	c #8F9090",
"M1	c #464747",
"N1	c #222124",
"O1	c #2D2B30",
"P1	c #2B282D",
"Q1	c #201E21",
"R1	c #141316",
"S1	c #151316",
"T1	c #636262",
"U1	c #767676",
"V1	c #4A555A",
"W1	c #454B50",
"X1	c #353737",
"Y1	c #373837",
"Z1	c #3C4044",
"`1	c #23272A",
" 2	c #0C0B0D",
".2	c #4A4A49",
"+2	c #312E2C",
"@2	c #33373A",
"#2	c #2C2F31",
"$2	c #535455",
"%2	c #222424",
"&2	c #363537",
"*2	c #282A2D",
"=2	c #1C1C1C",
"-2	c #333336",
";2	c #3E3F3E",
">2	c #313537",
",2	c #323338",
"'2	c #44494C",
")2	c #464B4B",
"!2	c #454648",
"~2	c #464A4C",
"{2	c #5A5B5B",
"]2	c #2D2B2E",
"^2	c #6B6B6B",
"/2	c #221B17",
"(2	c #1A1A1C",
"_2	c #252727",
":2	c #343536",
"<2	c #373739",
"[2	c #3F4347",
"}2	c #25292D",
"|2	c #090A0C",
"12	c #2A2D2F",
"22	c #353231",
"32	c #2C282A",
"42	c #2F2B2C",
"52	c #2C2A2B",
"62	c #2E2D2F",
"72	c #2D3030",
"82	c #818181",
"92	c #232424",
"02	c #272627",
"a2	c #343434",
"b2	c #949594",
"c2	c #1A1A1A",
"d2	c #363639",
"e2	c #414142",
"f2	c #414343",
"g2	c #333536",
"h2	c #323136",
"i2	c #42454A",
"j2	c #464647",
"k2	c #68696B",
"l2	c #1D2A2C",
"m2	c #1F2023",
"n2	c #4A4A4A",
"o2	c #261D1F",
"p2	c #291F1C",
"q2	c #28231F",
"r2	c #3B434B",
"s2	c #202526",
"t2	c #080B0A",
"u2	c #232829",
"v2	c #40403F",
"w2	c #3D3B36",
"x2	c #2C2726",
"y2	c #2C2827",
"z2	c #2F2929",
"A2	c #303130",
"B2	c #3B3D3C",
"C2	c #807F7F",
"D2	c #545354",
"E2	c #7C7C7C",
"F2	c #7C7B7C",
"G2	c #6D6D6E",
"H2	c #3C3C40",
"I2	c #303032",
"J2	c #2F2D30",
"K2	c #2C2B2F",
"L2	c #44474C",
"M2	c #484C4F",
"N2	c #454A4A",
"O2	c #606162",
"P2	c #272727",
"Q2	c #2B2A29",
"R2	c #283234",
"S2	c #24444A",
"T2	c #21383D",
"U2	c #1E1E21",
"V2	c #1F1E20",
"W2	c #252426",
"X2	c #7F7E7E",
"Y2	c #281F1C",
"Z2	c #2A2521",
"`2	c #3F484F",
" 3	c #3A3A39",
".3	c #383B3F",
"+3	c #1F2325",
"@3	c #0B0C0D",
"#3	c #35393D",
"$3	c #3A3936",
"%3	c #2C2826",
"&3	c #2D2928",
"*3	c #3B4141",
"=3	c #3A3D3C",
"-3	c #8B8B8C",
";3	c #242C2E",
">3	c #223137",
",3	c #223539",
"'3	c #1D2529",
")3	c #1C2024",
"!3	c #25292A",
"~3	c #2F3639",
"{3	c #34494E",
"]3	c #394A4E",
"^3	c #323F42",
"/3	c #545456",
"(3	c #8C8D8E",
"_3	c #302F31",
":3	c #505558",
"<3	c #4C5152",
"[3	c #5D5E5E",
"}3	c #2E2D2D",
"|3	c #2D2C2D",
"13	c #2A3B3E",
"23	c #22454B",
"33	c #1F2529",
"43	c #2E3135",
"53	c #303337",
"63	c #5F5F60",
"73	c #26201D",
"83	c #1C1B1B",
"93	c #394247",
"03	c #3F4242",
"a3	c #3F454A",
"b3	c #262A2D",
"c3	c #0F100F",
"d3	c #383F3F",
"e3	c #454C4E",
"f3	c #3D3F43",
"g3	c #292626",
"h3	c #231F1F",
"i3	c #2D2A29",
"j3	c #3E4040",
"k3	c #3F4445",
"l3	c #282626",
"m3	c #2C2828",
"n3	c #2A444A",
"o3	c #284F54",
"p3	c #254148",
"q3	c #2D2B2C",
"r3	c #2A2727",
"s3	c #312E2E",
"t3	c #312F2E",
"u3	c #2E2C2D",
"v3	c #888989",
"w3	c #3F3F40",
"x3	c #3B3C3B",
"y3	c #4F5253",
"z3	c #474B4C",
"A3	c #3E4043",
"B3	c #39383B",
"C3	c #737475",
"D3	c #4D4E4E",
"E3	c #2F2D2D",
"F3	c #343132",
"G3	c #36383C",
"H3	c #383B3E",
"I3	c #1C2021",
"J3	c #353D41",
"K3	c #3F4141",
"L3	c #4A555B",
"M3	c #2D3538",
"N3	c #0D0E0E",
"O3	c #353A3D",
"P3	c #42484D",
"Q3	c #3A3D42",
"R3	c #242121",
"S3	c #2B2829",
"T3	c #3F4143",
"U3	c #2A2525",
"V3	c #2C2929",
"W3	c #2A2E2F",
"X3	c #5A5F61",
"Y3	c #575A5B",
"Z3	c #4D4D4D",
"`3	c #4E4E4E",
" 4	c #4F4F50",
".4	c #797978",
"+4	c #353434",
"@4	c #383739",
"#4	c #38383B",
"$4	c #4C4E50",
"%4	c #3E403F",
"&4	c #333437",
"*4	c #393C3C",
"=4	c #57595A",
"-4	c #211F20",
";4	c #222020",
">4	c #252221",
",4	c #42312A",
"'4	c #48362E",
")4	c #4A3A31",
"!4	c #44382F",
"~4	c #2D2825",
"{4	c #4C4D4D",
"]4	c #2D2D2F",
"^4	c #353633",
"/4	c #3E454A",
"(4	c #23282B",
"_4	c #0B0C0C",
":4	c #303235",
"<4	c #3A3D40",
"[4	c #1E1D1C",
"}4	c #23211F",
"|4	c #272524",
"14	c #333234",
"24	c #333235",
"34	c #2C2B2E",
"44	c #191919",
"54	c #5A5B59",
"64	c #5E5E5E",
"74	c #303132",
"84	c #1D1E1D",
"94	c #333535",
"04	c #323131",
"a4	c #323231",
"b4	c #30302F",
"c4	c #353437",
"d4	c #343336",
"e4	c #2E2E2E",
"f4	c #282627",
"g4	c #AAABAB",
"h4	c #A7A7A7",
"i4	c #191714",
"j4	c #1B1A18",
"k4	c #1B1A1C",
"l4	c #181A1A",
"m4	c #222221",
"n4	c #242422",
"o4	c #262523",
"p4	c #262425",
"q4	c #282726",
"r4	c #1A1B1A",
"s4	c #1B1B1B",
"t4	c #1E1D1B",
"u4	c #22201E",
"v4	c #201E1F",
"w4	c #252423",
"x4	c #292725",
"y4	c #2E2A2B",
"z4	c #2D2B2B",
"A4	c #1E1E1E",
"B4	c #181819",
"C4	c #222323",
"D4	c #262625",
"E4	c #242123",
"F4	c #252324",
"G4	c #262525",
"H4	c #232223",
"I4	c #222222",
"J4	c #1F1E1E",
"K4	c #18191A",
"L4	c #161919",
"M4	c #151816",
"N4	c #151616",
"O4	c #171515",
"P4	c #161614",
"Q4	c #171717",
"R4	c #161716",
"S4	c #171817",
"T4	c #181716",
"U4	c #191B19",
"V4	c #191A19",
"W4	c #141514",
"X4	c #151516",
"Y4	c #141616",
"Z4	c #141715",
"`4	c #151614",
" 5	c #151517",
".5	c #161619",
"+5	c #171819",
"@5	c #21201F",
"#5	c #1F1D1E",
"$5	c #242224",
"%5	c #262524",
"&5	c #232122",
"*5	c #221F20",
"=5	c #201F1F",
"-5	c #20211F",
";5	c #1F201F",
"  . + @ # $ % & * = - ; > , ' ) ! ~ { ] ^ / ( _ : < [ } | 1 2 3 4 5 6 7 8 9 0 a b c d e f g h i j k l m n o p q r s t u v w x y ",
"z A B C D E F G H I J K L M N O P Q R S T U V W X Y Z `  ...+.3 @.#.$.%.&.*.=.-.;.>.,.'.).!.~.{.].^./.(.3 _.:.<.[.}.|.1.2.> 3.4.",
"5.6.7.8.9.0.a.b.c.d.e.f.g.h.i.j.k.l.m.n.o.p.q.r.Z s.t. .u.v.w.x.y.z.A.B.C.D.E.F.G.H.I.J.K.L.M.N.O.P.Q.R.S.T.U.V.W.X.Y.Z.`. +.+++",
"@+#+$+%+&+*+=+-+$+;+>+,+'+)+9.!+~+{+R ]+^+/+(+_+:+~+<+[+}+|+1+2+3+4+5+6+7+8+9+0+a+b+c+d+e+f+g+h+i+j+k+l+m+n+o+p+#+Y.q+r+s+t+u+v+",
"w+x+y+z+A+B+C+D+E+F+G+H+I+J+K+L+M+N+O+P+Q+R+S+T+U+V+U+W+X+Y+Z+`+3+ @.@+@@@#@$@%@&@*@=@-@;@>@,@'@)@!@~@{@]@! ^@/@(@_@:@<@[@}@|@1@",
"2@3@4@5@6@7@8@9@0@a@b@c@d@e@f@g@h@i@j@k@l@m@n@o@o@V+p@q@r@s@t@u@v@w@x@y@z@A@B@C@D@E@F@G@H@I@J@K@L@M@N@O@P@Q@R@S@T@U@V@W@X@Y@Z@`@",
" #.#+#@###$#%#&#D+W *#=#-#;#>#,#'#)#Y@!#~#{#]#^#/#(#_#:#<#[#}#|#1#2#3#4#5#6#7#8#9#0#a#b#c#d#e#f#g#h#i#j#k#l#m#n#o#p#q#r#s#t#u#v#",
"w#x#y#D+z#A#B#C#D#e@E#F#G#H#I#J#K#L#M#N#O#P#Q#R#S#T#U#V#W#X#Y#Z#`# $.$+$@$#$$$%$&$*$=$-$;$>$,$'$)$!$~${$,+]$^$/$($_$:$<$[$}$|$1$",
"2$3$y#4$5$6$-+7$8$9$L+0$a$b$w c$U+d$e$f$g$h$i$j$k$l$m$n$o$p$q$r$s$t$u$v$w$x$y$z$A$B$C$D$E$F$G$H$I$J$K$L$M$N$O$P$Q$R$P$S$T$U$V$W$",
"X$Y$Z$`$ %.%+%@%#%$%%%&%*%=%-%;%>%,%'%)%!%~%{%]%^%/%(%_%:%<%[%}%|%1%2%3%3%4%5%6%7%8%9%0%a%b%c%d%e%f%g%h%i%j%k%l%m%n%i%o%p%q%r%s%",
"U.t%u%v%w%x%y%z%A%B%C%D%E%F%G%H%I%J%K%L%M%N%O%P%Q%R%R%S%T%U%V%W%X%Y%Z%`% &.&+&@&#&$&%&&&*&=&-&;&>&,&'&)&f%!&~&{&]&^&/&(&_&:&<&[&",
"}&|&1&2&3&c.4&5&..6&7&8&9&0&a&b&c&d&e&f&g&h&i&j&k&T l&m&U%n&o&p&q&r&s&t&u&v&w&x&y&z&A&B&C&D&E&F&G&H&I&J&,&K&L&M&N&O&P&Q&R&S&'%T&",
"U&V&W&X&$+Y&Z&`& *.*6.+*@*#*$*%*&***=*-*;*>*Q+,*'*)*N$!*~*{*]*p&^*/*(*_*:*<*[*}*|*1*2*3*4*5*6*7*8*9*0*a*b*c*d*e*f*g*h*i*j*k*l*m*",
"n*o*p*p*q*r*s*t*u*v*w*x*y*z*A*B*C*D*E*F*v G*I+H*I*Z+'*J*K*L*M*N*S%T%O*P*Q*R*S*T*U*V*W*X*Y*Z*`* =.=+=@=#=$=%=&=*===-=;=>=,='=)=!=",
"~={=3.]=x%^=/=(=_=:=<=x*[=}=E#|=1=2=3=4=o*5=6=6=.+7=8=9=0=a=b=c=d=e=f=g=h=i=j=k=l=m=n=o=p=q=r=s=t=u=v=w=x=y=z=A=B=C=D=E=F=G=H=I=",
"J=K=L=-+7.6=q*}+M=N=O=P=Q=R=S=T=U=V=W=X=5=Y=t.Z=`= -.-+-@-#-|=$-%-&-*-=---;->-,-'-)-!-~-{-]-^-/-(-B=_-:-<-[-}-|-1-2-3-z=4-5-6-7-",
"8-9-0-a-b-c-d-e-Y@7&f-g-h-i-j-k-l-m-n-o-p-q-r-s-t-u-v-w-x-y-z-A-B-C-D-E-F-G-H-I-J-K-L-x=M-N-9*u=O-P-Q-]-R-S-T-U-F&V-W-X-9*v=Y-Z-",
"`- ;.;+;@;#;$;%;&;6&*;=;-;;;>;,;';);!;~;{;];^;/;(;_;:;<;[;};|;1;2;3;4;5;6;7;8;9;0;a;b;c;d;e;f;g;h;i;j;k;R-l;m;n;o;p;H&q;r;7*z=s;",
"t;u;v;w;x;y;z;A;B;C;8$P=D;E;F;G;H;I;J;K;L;M;N;O;P;Q;R;S;T;U;V;W;X;Y;Z;`;`; >.>+>@>#>$>%>&>*>=>->;>:->>,>'>)>!>~>{>]>C&^>/>g;(>_>",
"n+:>v.X=<>[>o*}>|>1>2>P=Q=3>R 4>5>6>7>8>9>0>a>b>c>d>e>f>g>h>i>j>k>l>m>n>o>p>q>r>s>t>u>v>w>x>y>z>A>B>C>D>E>F>G>H&H>I>J>7*K>L>M>N>",
"O>P>Q>R>S>T>U>($V>W>X>P=Y>Z>`> ,.,+,@,#,$,%,&,*,=,-,;,>,,,',),!,~,{,],^,/,(,_,:,<,[,},|,1,x>2,3,4,->5,6,J>7,8,9,n%0,a,9*b,c,d,e,",
"f,g,X&h,$;i,3&j,k,l,m,n,o,p,q,r,s,t,u,w.v,w,x,y,z,A,B,C,D,E,F,G,H,I,J,K,L,M,N,O,P,$>Q,R,S,T,U,V,e;W,X,Y,Z,H>`, '.'+'>$@'#'$'%'+'",
"&'r.i,*'='-';'>','''&+)'I>!#!'~'{']'T ^''+/'('_':'<'['}'|'1'2'3'4'5'6'7'&-8'9'0'a'b'c'd'e'^>f'g'h'i'j'k'e%l'm'n'o'p'q'r's't'u'v'",
"K=w;w'x'b-y'z'A'B'C'D')'E'F'G'H'I'J'K'L'M'N'O'i*P'Q'R'S'T'U'V'W'X'Y'Z'P+`' )9'.)P,+)@)#)$)%)&)*)5,=)-);){->),)')))!)~){)])^)/)()",
"_)Q>:)<)[)R>})X&|)1)2)E>3).'f%4)5)6)7)8)N'9)0)a)b)c)d)e)f)g)h)i)j)k)l)m)n)o)p)q)r)s)t)u)v)w)x)y)z)A)B)C)D)E)F)G)H)I)J)K)L)0*M)X-",
"N)7.O)P)$;P)Q):)R)S)M=T)->U)V)W)X)Y)Z)`) !9)9).!+!c)`;@!#!$!%!&!_'l)*!P+=!-!;!>!,!'!)!0,v)!!~!{!]!^!/!(!_!:!<![!}!|!1!2!3!4!5!7*",
"0.6!_+e-7!8!X&8!9!0!+-a!b!c!d!e!f!g!g!h!i!j!k!l!m!n!/,o!p!q!r!&*s!c)t!u!v!w!x!y!a#z!A!g-B!C!<!J$D!C!E!F!G!H!I!J!K!L!M!N!O!P!d,Q!",
"R!*#S!_$W 0-d-T!j,U!V!a!W!X!Y!Z!I>`! ~Y!.~+~@~#~6)$~%~#-K%&~*~>-=~-~;~>~,~'~)~!~~~{~]~^~/~(~_~:~<~[~t#}~|~{&1~2~3~l.4~5~6~,=7~c!",
"0.6!8~9~0~a~b~y'w'c~d~e~-$h*f%f~g~k%]+h~i~j~k~l~k!I*m~M'n~o~p~q~r~s~t~u~v~w~x~y~z~A~B~C~D~E~F~G~H~I~J~ +K~L~M~N~O~k@P~Q~R~o!S~T~",
"U~V~W~X~Y~Z~`~>'X~ {.{+{@{#{q;${E>%{&{a%*{={-{;{>{,{'{){!{~{{{]{^{/{({_{:{<{[{}{|{1{2{3{4{5{6{7{8{9{b$'{0{a{b{c{d{e{f{g{h{i{j{k{",
"l{z'y' {m{n{o{p{q{o{r{s{t{u{v{w{h%:&x{F$y{z{A{B{C{D{E{F{a=G{H{I{J{K{L{M{N{O{P{g$Q{R{S{T{U{V{W{X{Y{Z{A&`{ ].]+]@]#]$]%], &]*]=]-]",
";]A.>]R.,]'])]!]~]']{]]]^]/](]${^]_]:]<][]}]w.|]1]2]3]4]5]6]7]8]9]0]a]b]c]d]e]Q&f]g]h]i]j]k]l]a@m]n]o]p]q]r]s]t]u]v]w]x]M!y]z]A]",
"B]C]D]E]F]G]H]I]J]K]L]M]N]O]P]Q]R]S]!=T]U]V]W]X]Y]/'Z]`] ^>~.^+^@^#^$^%^&^*^E+=^-^;^>^,^'^)^v#!^~^{^6=]^^^/^(^_^|=:^`,<^[^m~}^Y>",
"|^1^)]2^z@3^4^5^6^7^8^9^F=0^a^f!P=b^c^d^e^f^g^Q&('h^i^j^k^l^m^Z]n^o^p^q^6)r^o{s^t^u^v^w^x^y^z^A^B^C^D^E^q]F^G^H^I^J^K^L^M^N^O^P^",
"Q^R^S^T^U^V^W^X^Y^Z^`^ /./+/^]@/#/$/N~%/=~8)-@&/*/=/-/;/>/,/'/)/!/~/{/]/^/'+//(/_/:/</[/}/|/1/2/3/4/v+a=5/6/7/8/9/0/a/b/a@F+c/$+",
"d/e/f/g/h/i/y^e/j/k/l/m/n/o/t{p/q/r/s/b)t/u/v/b)w/l!,{x/y/z/A/B/C/,/D/E/t!K%F/G/H/I/J/K/L/M/N/O/P/Q/R/5]S/T/U/V/-#W/X/Y/Z/`/c.W ",
" (.(+(@(#($(%(+@&(*(=(-(;(>(#{,('()(!(~(P+{(P ](^(`!`!/(((_(m!:(<([(}(|(1(2(3(4(5(6(7(8(9(0(a(b(c(d(e(f(g(h(i(j(k(3/l(m(n(M c.V!",
"o(p(q(r(s(t(i#u(v(w(x(y(E&z(A(B(C(D(E(F({(G(H(P'I(J(K(L(M(/(m![(N(1+O(;-P(Q(R(S(T(U(V(W(X(U)Y(Z(`( _G{l*._+_@_#_$_%_&_*_.+u.=_X ",
"-_;_>_,_'_)_!_~_{_]_^_/_(___:_<_[_> K(-@Q'9&}_|_1_1_K(L(`!b)2_3_4_5_('&*6_7_8_9_2]U=)=0_a_b_c_O@d_e_n]'+f_g_h_a)d(i_i_j_k_n(p*` ",
"l_m_B.n_o_p_q_r_s_F]t_u_H$v_c;w_x_P&y_N(z_A_B_C_`!/(L(K(t/T(D_E_5_)*F_G_H_I_J_K_L_M_N_O_P_Q_n{R_9@S_T_U_V_W_X_Y_Z_`_ :|).:+:` v#",
"@:#:$:%:&:*:3/=:-:#;;:>:P]w=Y,,:N ^(':):e_!:~:`!{:/(/(K(]:^:N(%//:Q$(:_:::<:[:}:|:Z]%/1:2:3:4:5:R_6:7:7]8:9:0:a:A'b:c:d:Z/> e:W{",
"f:g:h:i:j:<~^ k:|&l:m:n:E$o:p:c;|&q:r:s:t:u:y_v:K(w:`!t/N(x:y:/:N$('(:H_z:A:B:M_M_C:D:/:R h-E:F:G:H:R=I:J:K:L:M:N:W O:c.T+Y@Q(t#",
"P:Y~Q:R:S:T:O+U:U@V:W:X:n/p;Y:Z:`: <.<+<@<D_#<v:K(`!T(N(Q'I*Q$N$N$$<%<&<*<=<-<j);<j)3_><,<'<)<!<~<{<]<^</<(<_<W::<&_[><<[<}<|<1<",
"d/R.2<3<3<4<;:r{5<6<7<8<9<s;${ <J(]:0<a<b<3_b)c<{:2_{(d<e<b=M'('('B*P%}@f<g<h<.!;<i<c)q:j<4~k<l<m<n<o<p<q<r<s<t<u<.+Q>v<w<x<y<h,",
"z<A<B<C<D<E<F<G<t<H< {I<J<K<L<M<P+Q'{]N<k.b)F(`!O<3~{(P<N$Q<){R<S<P%T<U<V<W</'J(1~1~X<Y<Z<`< [.[+[@[#[$[%[&[*[=[N_-[;[u#>[i_c:x<",
",['[$://)[![~[{[][^[/[([_[:[<[I(':1=[[!:F(`!]: <':N(,*N$0=R<}[|[j(T<1[2[3[4[2~9)|:M<1~5[Z<6[u#W:7[%.8[)*C~9[0[a[y'Y b[> c[d[x+ +",
"e[f[g[g/h[i[j[k[l[r(m[n[o[O<I(]:D_p[q[-*F(T(r[x:s[t[('0=^'u[|[v[v[>+w[x[y[z[A[;<A[B[B[P&C[D[E[F[G[H[I['+$/J[K[L[w[($M[e-N[O[*#P[",
"Q[8[R[4^S[T[U[V[W[X[Y[Z[u!T(D_I*`[ }.}P&D_I*y:L''+k&k&k&F_+}&<@}#}o@$}%}&}*}=}<[+!I(m)t/`!-};}T<>}k),}+_f!'})}+;!}>;O)~}{}_$_+]}",
"^}/}(}W^_}q_:}<}[}9[}}{:1_-@E_|}1}2}5~E_I*C*3}4}H*k&^ 5}J'+}6}7}T_8}9}0}a}2~b}|:t/c}^(t/K(d}e}f}g}h}i}u#j}Z:|$k}l}b[b[m}n}|)O[R=",
"o}p}q}r}s}t}u}v}w}x}L<!(c<T(y}z}A}}^B}C}):y:0<R<^ J'^ J'r^D}v[6}`= .E}F}G}2~#~!(N'b)b)H}c<}:I}J}K}L}M}j-N}O}P}c:Q}R}Q(W S}Z/T}U}",
"V}W}X}Y}D+1:|}i,F;Z}{&`}C_ |.|+|E[@|E%%/):Z+N$F_J'r^#|$|T=}<A;.-Z=%|&|*|=|O[L_J(P'^(-|-|L_x.;|>|,|]$'|)|!|d$@-u.o#k,c:d:.+~|{|]|",
"^|/|6;(|@;_|:|<|Y [|~&}|||L/I]1|X'2|3|0<3})*^'F_G_T ]'4|5|6|7|_:8|9|0|a|b|c|d|e|f|L_g|h|i|j|k|l|8$`)m|I+F#8|T+n|C'Q>Z/~}o|p|q|r|",
"s|O 8~t|u|t|v|x'w|x|y|z|A|B|>]C|D|3}3}0<3|E|k&^ %<#|F|;:%;G|H|I|J|K|L|M|N|O|5@P|6)Q|d)p]R|S|T|U|V|W|3@B|X|Y|W Z|::Z=A;~}Y|{}t.`|",
"[|n| 1d|N w;.1U@z:+1@1#1$1%1&1*1=1-1;1>1,1'1)1p!!1~1|[{1b-Q)]1^1/1(1l]r{_1:1p[%_<1[1}1|11121315_41x+516171n]b[> `=t.t.Y q|o|_+{}",
"8191..o#1.a&01a1b1c1d1e1f1g1s!h1i1j1k1l1m1f{n1o1p1q1r1s1}@t1u1_!Z/v1|&-'p[Q(w1O[j(x12+`+M(y161z1A1B1o@'*C1b~e-D1e-U>7!E1F1r|j_G1",
"H1x I1B+U~;#J1K1L1M1M<+!N1O1P1Q1R1S1U>T1U1V1W1r.X1Y1i_N^N^Z1`1 2]|.2w[+24~Q(4|G*@2#2$2+:%2@*w1&2R$_$)#*2=2-2n}F+W O[;2X P%>28|,2",
"x '2)2!2F )+~2{2I+b)A[s[]2P$](T1^2/21_(2_2*]B%b~V!j-:2u#<2[2}2|212d[[@22K&32425262R<7282Q~9202D1a23~b2d=c2t+d2($e2c.f2.:g2K%8|h2",
"J=i2K=c.<>j2k2N'l2m2I(y1V!W{n2o2p2q2; v:u!r2,%.:w;W Y@_$S!/=s2t2u28|v2w2x2y2z2L!A2B2]}C27)b)92F;$|d1!(y_D2E2n}F2G2H27&+:d(I2J2K2",
"L2M2N2[>[|O2P2Q2R2S2T2U2V2 <W2X2Y2Z2X)8(3_`2E# 3j-{^S!R=I~.3+3@31(#3[>$3y2%3&3X{P%*3=3-3D:{(;3>3,3'3)3!3#_~3{3]3^3&</3(32._3u]G#",
":3<36&n}[3($z_}3|3132333F{4353'%637383$/[]9303R} :b[S!O[Z|a3b3c3d3e3f3O'g3h3i3j3Z&k37:s.l3m3n~n3o3p3C-q3r3P P s3t3R'u3v3w3<2x3c[",
"y3z3A3B3j3e&C3b[D3F+4|E3F3t+G3H_H3T+!^83I3J3.#Q($|Y@~}K3v.L3M3N3O3P3Q3Y@A]R3S3T3&'Z&::6{C1U3y2V3W3X3Y3<>e-Z3`3d| 4.4R$+4@4#4S}V!",
"$4&+x%=_%4Z=&4=3*4T+=4-4;4>4,4'4)4!4~4{4N(q!]4P ^4p<F+B1 1/4(4_4:4<4M#G([4}4|41424-23444!^o#5464w[=+B+748494}<04a4|3|3b4v#c4<2d4",
"3>I2R$e4y}P$f4,=f4'=q:,+b^g4h4d!E)i4j4~&k4l4v:m4n4o4p4q4q4d1r4:!(2{:=2s444N~t4u4-4v4k4S.v:; w4x4M!y4z4A4B4y_C4k@D4k@E4F4V=D;G4H4",
"P~P~5~I4A4{:`!J4=2c2K4L4M4u)N4N!O4P4f!Q48(N4R4S4T4N!R4R4,+Q4U4V4$/W4@/X4N4Y4Z4`4$/[& 5.5+5<&X)@5@5-4#5P&-*P~-@$5%5p4&5%,*5=5-5;5"};
