/* XPM */
static char * w_t_l_xpm[] = {
"64 64 3042 2",
"  	c #60676D",
". 	c #595E64",
"+ 	c #5A5E63",
"@ 	c #5B5F63",
"# 	c #595E61",
"$ 	c #53585D",
"% 	c #585E61",
"& 	c #575C60",
"* 	c #5A6064",
"= 	c #52585E",
"- 	c #4A5055",
"; 	c #212221",
"> 	c #373839",
", 	c #474C4F",
"' 	c #505658",
") 	c #4D5456",
"! 	c #4A5053",
"~ 	c #494E50",
"{ 	c #434647",
"] 	c #232121",
"^ 	c #2E3132",
"/ 	c #51585D",
"( 	c #54595C",
"_ 	c #4E5052",
": 	c #4A4C4C",
"< 	c #47484B",
"[ 	c #4B4C4E",
"} 	c #525355",
"| 	c #4E5154",
"1 	c #505457",
"2 	c #2E3030",
"3 	c #1A1C1B",
"4 	c #5D666B",
"5 	c #5A6167",
"6 	c #545858",
"7 	c #555452",
"8 	c #4E4B4A",
"9 	c #4A4547",
"0 	c #544F4C",
"a 	c #5B514A",
"b 	c #655953",
"c 	c #5A4E4D",
"d 	c #514947",
"e 	c #2B2722",
"f 	c #5B453A",
"g 	c #70584E",
"h 	c #6E5F5A",
"i 	c #6F6661",
"j 	c #696562",
"k 	c #666362",
"l 	c #5A5556",
"m 	c #3F3A3A",
"n 	c #1B1B17",
"o 	c #545D60",
"p 	c #5F666B",
"q 	c #5E6366",
"r 	c #585D5E",
"s 	c #4B4E52",
"t 	c #4E5051",
"u 	c #4A4C4D",
"v 	c #424446",
"w 	c #3F4044",
"x 	c #43474B",
"y 	c #494A50",
"z 	c #5B6066",
"A 	c #4C4F52",
"B 	c #4B4D4E",
"C 	c #505252",
"D 	c #515354",
"E 	c #4A4D4F",
"F 	c #47484A",
"G 	c #4B4C4D",
"H 	c #4A4A4C",
"I 	c #494C50",
"J 	c #3B3F44",
"K 	c #1B1D1C",
"L 	c #2F3231",
"M 	c #3C3E41",
"N 	c #3F3F3F",
"O 	c #363435",
"P 	c #313030",
"Q 	c #363534",
"R 	c #303131",
"S 	c #1E1C1B",
"T 	c #303334",
"U 	c #4F5960",
"V 	c #464B4D",
"W 	c #3B3A3B",
"X 	c #3A3B3B",
"Y 	c #3A3A3B",
"Z 	c #3C3D3C",
"` 	c #3A3C3C",
" .	c #3C3E3E",
"..	c #404345",
"+.	c #242727",
"@.	c #5B656A",
"#.	c #5D6468",
"$.	c #4E4C4B",
"%.	c #4E4641",
"&.	c #51463E",
"*.	c #4A3C37",
"=.	c #503F39",
"-.	c #574339",
";.	c #5B463D",
">.	c #5B4C47",
",.	c #4F4743",
"'.	c #272522",
").	c #4B3328",
"!.	c #5D3E31",
"~.	c #5D4338",
"{.	c #58443A",
"].	c #4D3C37",
"^.	c #594D48",
"/.	c #544A47",
"(.	c #363130",
"_.	c #4A5054",
":.	c #53565B",
"<.	c #55575A",
"[.	c #555758",
"}.	c #454748",
"|.	c #454444",
"1.	c #3E3C3E",
"2.	c #363538",
"3.	c #424445",
"4.	c #45484C",
"5.	c #575E62",
"6.	c #484B4C",
"7.	c #3E3E3F",
"8.	c #414143",
"9.	c #464849",
"0.	c #434345",
"a.	c #434444",
"b.	c #464745",
"c.	c #3E3F40",
"d.	c #424647",
"e.	c #353A3C",
"f.	c #131414",
"g.	c #282B2E",
"h.	c #404144",
"i.	c #424342",
"j.	c #333231",
"k.	c #2C2B2A",
"l.	c #302F2E",
"m.	c #262729",
"n.	c #1A1919",
"o.	c #303637",
"p.	c #505C63",
"q.	c #464B4F",
"r.	c #3B3B3C",
"s.	c #393A3B",
"t.	c #3A3C3D",
"u.	c #3B3E3F",
"v.	c #404448",
"w.	c #252729",
"x.	c #17191A",
"y.	c #59636A",
"z.	c #585F67",
"A.	c #403B3C",
"B.	c #463A34",
"C.	c #504034",
"D.	c #4C3A30",
"E.	c #534138",
"F.	c #544036",
"G.	c #4A3530",
"H.	c #534440",
"I.	c #494440",
"J.	c #1A1C1C",
"K.	c #37231B",
"L.	c #543729",
"M.	c #553A2D",
"N.	c #472F27",
"O.	c #473129",
"P.	c #4C3932",
"Q.	c #51433E",
"R.	c #3B3432",
"S.	c #181718",
"T.	c #44474F",
"U.	c #505258",
"V.	c #4F5154",
"W.	c #505253",
"X.	c #505050",
"Y.	c #494848",
"Z.	c #39373A",
"`.	c #323034",
" +	c #333436",
".+	c #3B3D3E",
"++	c #414245",
"@+	c #53595F",
"#+	c #434446",
"$+	c #3D3D3D",
"%+	c #3E3E41",
"&+	c #424447",
"*+	c #3E3E42",
"=+	c #424041",
"-+	c #424141",
";+	c #414442",
">+	c #35393B",
",+	c #161616",
"'+	c #2D2F30",
")+	c #474A4C",
"!+	c #393A3E",
"~+	c #37393B",
"{+	c #3E3F3C",
"]+	c #1C1B1C",
"^+	c #2A3033",
"/+	c #4C5960",
"(+	c #464C4F",
"_+	c #3B3C3C",
":+	c #383A3A",
"<+	c #383C3C",
"[+	c #3B3E3E",
"}+	c #3C4041",
"|+	c #414549",
"1+	c #242628",
"2+	c #141617",
"3+	c #525C64",
"4+	c #515962",
"5+	c #3F3938",
"6+	c #41352E",
"7+	c #43342A",
"8+	c #412E25",
"9+	c #483831",
"0+	c #524239",
"a+	c #4B3D36",
"b+	c #504441",
"c+	c #4A4644",
"d+	c #1C1E1B",
"e+	c #2B1A13",
"f+	c #41281D",
"g+	c #462D23",
"h+	c #3B251E",
"i+	c #433027",
"j+	c #4C3931",
"k+	c #4C3C36",
"l+	c #322927",
"m+	c #181818",
"n+	c #4A4F54",
"o+	c #5D5F63",
"p+	c #555759",
"q+	c #454142",
"r+	c #363136",
"s+	c #313033",
"t+	c #2F3033",
"u+	c #343539",
"v+	c #3A3B3E",
"w+	c #4E545A",
"x+	c #3D3E3F",
"y+	c #3B3C39",
"z+	c #404241",
"A+	c #444649",
"B+	c #454546",
"C+	c #42413F",
"D+	c #3D3937",
"E+	c #363233",
"F+	c #383838",
"G+	c #303437",
"H+	c #1A191A",
"I+	c #333435",
"J+	c #4A4F50",
"K+	c #4B5152",
"L+	c #43494C",
"M+	c #3F4648",
"N+	c #424745",
"O+	c #353837",
"P+	c #1D1D1F",
"Q+	c #2A3234",
"R+	c #4B5960",
"S+	c #444C4F",
"T+	c #393B3D",
"U+	c #373B3C",
"V+	c #373B3D",
"W+	c #3A3E3E",
"X+	c #3D4141",
"Y+	c #45484B",
"Z+	c #292A2B",
"`+	c #161819",
" @	c #535B62",
".@	c #443F3C",
"+@	c #3F342E",
"@@	c #3D2E28",
"#@	c #3F302B",
"$@	c #483E38",
"%@	c #504840",
"&@	c #4F4643",
"*@	c #534E4D",
"=@	c #4E4B4D",
"-@	c #222223",
";@	c #30221B",
">@	c #3C281E",
",@	c #3F2C23",
"'@	c #362421",
")@	c #342420",
"!@	c #42322B",
"~@	c #41322D",
"{@	c #2D2624",
"]@	c #191A1A",
"^@	c #585C5E",
"/@	c #4E4F52",
"(@	c #454548",
"_@	c #474647",
":@	c #413D3F",
"<@	c #3C393A",
"[@	c #3B3A3A",
"}@	c #353738",
"|@	c #343639",
"1@	c #36363A",
"2@	c #4A4F58",
"3@	c #3B3C3E",
"4@	c #3F3F3B",
"5@	c #3F3E3C",
"6@	c #414140",
"7@	c #484743",
"8@	c #43403C",
"9@	c #3D3935",
"0@	c #373030",
"a@	c #373435",
"b@	c #313436",
"c@	c #181717",
"d@	c #343635",
"e@	c #474C4E",
"f@	c #454E50",
"g@	c #434B4F",
"h@	c #3F4649",
"i@	c #3F4342",
"j@	c #3F4241",
"k@	c #252424",
"l@	c #2C3335",
"m@	c #4D5B62",
"n@	c #424B4F",
"o@	c #383C3D",
"p@	c #3B3E40",
"q@	c #3E4143",
"r@	c #3D4243",
"s@	c #46494B",
"t@	c #9ECECD",
"u@	c #79BEBD",
"v@	c #5CBAB9",
"w@	c #5BB8B7",
"x@	c #5EB8B8",
"y@	c #60B7B7",
"z@	c #63B5B4",
"A@	c #41332C",
"B@	c #463B37",
"C@	c #47403B",
"D@	c #4B4543",
"E@	c #524F4F",
"F@	c #494749",
"G@	c #1C1C1B",
"H@	c #31241B",
"I@	c #3D2A20",
"J@	c #38261E",
"K@	c #35241E",
"L@	c #362823",
"M@	c #3E302A",
"N@	c #463833",
"O@	c #322C29",
"P@	c #151716",
"Q@	c #41484A",
"R@	c #515355",
"S@	c #4C4B4F",
"T@	c #434344",
"U@	c #404040",
"V@	c #403D3E",
"W@	c #3D393B",
"X@	c #3C3C39",
"Y@	c #363637",
"Z@	c #323337",
"`@	c #313236",
" #	c #4B5158",
".#	c #3A3C3E",
"+#	c #3B3C38",
"@#	c #3E3B38",
"##	c #413E3D",
"$#	c #48433F",
"%#	c #3C3434",
"&#	c #403A37",
"*#	c #3A3B3D",
"=#	c #1A1A16",
"-#	c #2F3131",
";#	c #43474A",
">#	c #3E4648",
",#	c #495354",
"'#	c #464E4F",
")#	c #35383B",
"!#	c #252223",
"~#	c #323A3A",
"{#	c #4F5D62",
"]#	c #414C4F",
"^#	c #373D3E",
"/#	c #7DBABA",
"(#	c #89CBC8",
"_#	c #3EADA9",
":#	c #2EABA9",
"<#	c #28ADA9",
"[#	c #27ABA7",
"}#	c #29AAA7",
"|#	c #29ABA9",
"1#	c #27AAA8",
"2#	c #26A9A7",
"3#	c #27ABAA",
"4#	c #45AFAC",
"5#	c #4AA9A5",
"6#	c #80C6C3",
"7#	c #4B4544",
"8#	c #4B4747",
"9#	c #434143",
"0#	c #1D1A18",
"a#	c #241914",
"b#	c #2F201A",
"c#	c #271B17",
"d#	c #2E211E",
"e#	c #3B2F29",
"f#	c #352A24",
"g#	c #42362F",
"h#	c #342E2A",
"i#	c #181918",
"j#	c #3C4043",
"k#	c #464749",
"l#	c #414144",
"m#	c #434343",
"n#	c #404240",
"o#	c #393638",
"p#	c #353233",
"q#	c #343332",
"r#	c #343333",
"s#	c #353536",
"t#	c #353435",
"u#	c #4B535A",
"v#	c #393B3F",
"w#	c #393736",
"x#	c #433C3A",
"y#	c #453E3B",
"z#	c #403A39",
"A#	c #424240",
"B#	c #424645",
"C#	c #3D4144",
"D#	c #191916",
"E#	c #2D2D2E",
"F#	c #3E4044",
"G#	c #43484D",
"H#	c #464F50",
"I#	c #434849",
"J#	c #323538",
"K#	c #323335",
"L#	c #252323",
"M#	c #303738",
"N#	c #4B5A5E",
"O#	c #404A4C",
"P#	c #363A3C",
"Q#	c #7CBDBC",
"R#	c #319C9B",
"S#	c #2CA9A6",
"T#	c #30A9A8",
"U#	c #35ADAB",
"V#	c #389795",
"W#	c #398C8A",
"X#	c #3A6767",
"Y#	c #3A5B5A",
"Z#	c #3B5758",
"`#	c #3D5758",
" $	c #3A5658",
".$	c #3E5C5B",
"+$	c #3E6C6A",
"@$	c #30918F",
"#$	c #329D9A",
"$$	c #5AAFAD",
"%$	c #463F42",
"&$	c #423E41",
"*$	c #1E1A18",
"=$	c #1C1514",
"-$	c #211918",
";$	c #1E1717",
">$	c #231B1A",
",$	c #2D2420",
"'$	c #2E2621",
")$	c #372E27",
"!$	c #292320",
"~$	c #393C3E",
"{$	c #3B3D3F",
"]$	c #393A3C",
"^$	c #3D3E3E",
"/$	c #383839",
"($	c #302E30",
"_$	c #2F2D2F",
":$	c #323030",
"<$	c #2F2E2F",
"[$	c #302F30",
"}$	c #2C2B2D",
"|$	c #54595F",
"1$	c #3A3B3F",
"2$	c #373131",
"3$	c #403938",
"4$	c #46413E",
"5$	c #3C4143",
"6$	c #3D4548",
"7$	c #495154",
"8$	c #1D1C19",
"9$	c #2F2E2E",
"0$	c #3B3B3F",
"a$	c #45494B",
"b$	c #373B3B",
"c$	c #343837",
"d$	c #21211F",
"e$	c #2D3132",
"f$	c #3B4449",
"g$	c #91CCCA",
"h$	c #4FB0AF",
"i$	c #2A9A98",
"j$	c #2E8683",
"k$	c #377472",
"l$	c #3E706D",
"m$	c #3D6260",
"n$	c #456966",
"o$	c #405B5A",
"p$	c #3B5051",
"q$	c #3B4F50",
"r$	c #39494A",
"s$	c #324242",
"t$	c #3E5354",
"u$	c #415858",
"v$	c #415C5C",
"w$	c #3F6967",
"x$	c #348281",
"y$	c #2A8585",
"z$	c #328D8D",
"A$	c #8BB1B0",
"B$	c #221C19",
"C$	c #1A1413",
"D$	c #141010",
"E$	c #151113",
"F$	c #211C1D",
"G$	c #261F1D",
"H$	c #221B19",
"I$	c #211A19",
"J$	c #1B1617",
"K$	c #121112",
"L$	c #2C2D2F",
"M$	c #2E2E30",
"N$	c #29282A",
"O$	c #2C2C2E",
"P$	c #2E2D2E",
"Q$	c #2A292B",
"R$	c #2C2B2B",
"S$	c #262427",
"T$	c #222023",
"U$	c #201E20",
"V$	c #4F5359",
"W$	c #424143",
"X$	c #3A3837",
"Y$	c #3E3A35",
"Z$	c #433D39",
"`$	c #403E3E",
" %	c #434648",
".%	c #414648",
"+%	c #404649",
"@%	c #444A4E",
"#%	c #414447",
"$%	c #1F1D1A",
"%%	c #2B2A2A",
"&%	c #404142",
"*%	c #414445",
"=%	c #444A4A",
"-%	c #3E4546",
";%	c #3A4043",
">%	c #2B2E31",
",%	c #1F1F1E",
"'%	c #1F2022",
")%	c #33383C",
"!%	c #383C3E",
"~%	c #78ABAB",
"{%	c #31A09F",
"]%	c #356A6A",
"^%	c #3D4A4A",
"/%	c #3E4747",
"(%	c #3D4747",
"_%	c #3C4A49",
":%	c #3A4F50",
"<%	c #384B4E",
"[%	c #355858",
"}%	c #325F5C",
"|%	c #356261",
"1%	c #366464",
"2%	c #386465",
"3%	c #386564",
"4%	c #3A6160",
"5%	c #356464",
"6%	c #246D6F",
"7%	c #4E8588",
"8%	c #91A3A3",
"9%	c #141110",
"0%	c #120E10",
"a%	c #161215",
"b%	c #1B1717",
"c%	c #171412",
"d%	c #171415",
"e%	c #181414",
"f%	c #171314",
"g%	c #131213",
"h%	c #191717",
"i%	c #1A1918",
"j%	c #1D1D1D",
"k%	c #1E1E1C",
"l%	c #181817",
"m%	c #161618",
"n%	c #191819",
"o%	c #161515",
"p%	c #110F10",
"q%	c #110F11",
"r%	c #484747",
"s%	c #3D3B38",
"t%	c #3C3835",
"u%	c #3F3B39",
"v%	c #3D3E40",
"w%	c #434848",
"x%	c #434949",
"y%	c #414649",
"z%	c #404549",
"A%	c #3A3D41",
"B%	c #1C1B18",
"C%	c #2A2B2B",
"D%	c #3F4142",
"E%	c #454A49",
"F%	c #444B49",
"G%	c #394041",
"H%	c #383D40",
"I%	c #323436",
"J%	c #212120",
"K%	c #1C1C1D",
"L%	c #303338",
"M%	c #34363A",
"N%	c #7AE6DF",
"O%	c #31BEBB",
"P%	c #247E80",
"Q%	c #325454",
"R%	c #3D4646",
"S%	c #3D4545",
"T%	c #384F50",
"U%	c #316163",
"V%	c #316061",
"W%	c #384B4D",
"X%	c #3B4345",
"Y%	c #3B4344",
"Z%	c #3A4243",
"`%	c #394142",
" &	c #394243",
".&	c #383F40",
"+&	c #323637",
"@&	c #293133",
"#&	c #1D6E76",
"$&	c #677C7F",
"%&	c #110E0D",
"&&	c #161213",
"*&	c #171213",
"=&	c #1C1714",
"-&	c #1A1716",
";&	c #141213",
">&	c #141013",
",&	c #191517",
"'&	c #1E1B1B",
")&	c #1E1D1D",
"!&	c #18181A",
"~&	c #141414",
"{&	c #10100F",
"]&	c #111010",
"^&	c #0E0E0F",
"/&	c #121211",
"(&	c #171616",
"_&	c #1A1B1B",
":&	c #151415",
"<&	c #46484D",
"[&	c #3D3D3E",
"}&	c #3A3634",
"|&	c #373432",
"1&	c #3C3B3A",
"2&	c #3E4242",
"3&	c #424545",
"4&	c #414546",
"5&	c #414345",
"6&	c #1E1E19",
"7&	c #2C2B2C",
"8&	c #3B3C40",
"9&	c #3B3C3F",
"0&	c #3B3F41",
"a&	c #32383A",
"b&	c #383E3F",
"c&	c #36393B",
"d&	c #1B191D",
"e&	c #202222",
"f&	c #383F41",
"g&	c #8FEDE7",
"h&	c #4BF0EA",
"i&	c #36BCB8",
"j&	c #277A78",
"k&	c #2C6866",
"l&	c #325455",
"m&	c #305A5C",
"n&	c #2C6163",
"o&	c #355456",
"p&	c #3B4244",
"q&	c #3C4345",
"r&	c #3C4445",
"s&	c #3B4444",
"t&	c #3A4242",
"u&	c #353B3D",
"v&	c #2E3031",
"w&	c #2A2A2D",
"x&	c #2A3134",
"y&	c #1D656D",
"z&	c #476469",
"A&	c #161210",
"B&	c #1C1512",
"C&	c #1D1615",
"D&	c #1C1413",
"E&	c #1A1516",
"F&	c #171313",
"G&	c #1D1919",
"H&	c #1B1719",
"I&	c #2E2A2A",
"J&	c #2E2B2B",
"K&	c #272324",
"L&	c #221E1D",
"M&	c #1C1A1A",
"N&	c #1E1E1F",
"O&	c #232629",
"P&	c #293032",
"Q&	c #272C2F",
"R&	c #222225",
"S&	c #45454A",
"T&	c #39383C",
"U&	c #393837",
"V&	c #3C3C3B",
"W&	c #3B3D3D",
"X&	c #3E4243",
"Y&	c #424646",
"Z&	c #404445",
"`&	c #464A4B",
" *	c #1C1C17",
".*	c #2C2C2C",
"+*	c #3F4043",
"@*	c #3E3F43",
"#*	c #323236",
"$*	c #2F3334",
"%*	c #373C3A",
"&*	c #363A3A",
"**	c #202020",
"=*	c #262828",
"-*	c #3E4647",
";*	c #84EEE7",
">*	c #43EEE7",
",*	c #32D0CA",
"'*	c #2A7876",
")*	c #1E8988",
"!*	c #277B7D",
"~*	c #365457",
"{*	c #394344",
"]*	c #3B4243",
"^*	c #3B4343",
"/*	c #3B4545",
"(*	c #394141",
"_*	c #353B3C",
":*	c #2F3234",
"<*	c #2B2C2D",
"[*	c #292B2C",
"}*	c #2A2A2C",
"|*	c #234B52",
"1*	c #667576",
"2*	c #17100F",
"3*	c #201614",
"4*	c #1B1311",
"5*	c #1E1614",
"6*	c #261D1C",
"7*	c #1D1614",
"8*	c #201815",
"9*	c #241E1C",
"0*	c #1C1A18",
"a*	c #2A2221",
"b*	c #251C1C",
"c*	c #211818",
"d*	c #2B231F",
"e*	c #221C1B",
"f*	c #241F1F",
"g*	c #2C2D2E",
"h*	c #343A3A",
"i*	c #2D3234",
"j*	c #26282C",
"k*	c #1F1F22",
"l*	c #47494D",
"m*	c #3E4042",
"n*	c #3E4141",
"o*	c #3E4142",
"p*	c #3C4142",
"q*	c #3F4446",
"r*	c #43494B",
"s*	c #454A4D",
"t*	c #484C50",
"u*	c #45474A",
"v*	c #1D1B17",
"w*	c #2D2D2B",
"x*	c #3D3F42",
"y*	c #3D4043",
"z*	c #2E2F32",
"A*	c #282929",
"B*	c #313331",
"C*	c #333432",
"D*	c #1B1918",
"E*	c #262929",
"F*	c #393F43",
"G*	c #393D40",
"H*	c #5CEEE9",
"I*	c #31B8B5",
"J*	c #305B5A",
"K*	c #296A6A",
"L*	c #238C8E",
"M*	c #326868",
"N*	c #394645",
"O*	c #373E3F",
"P*	c #303436",
"Q*	c #2D3032",
"R*	c #2C2E30",
"S*	c #2B2D2F",
"T*	c #272829",
"U*	c #2F3031",
"V*	c #353638",
"W*	c #858788",
"X*	c #1E1515",
"Y*	c #1D1514",
"Z*	c #261C18",
"`*	c #2B221F",
" =	c #1F1716",
".=	c #241B1A",
"+=	c #27201E",
"@=	c #1B1819",
"#=	c #251C1F",
"$=	c #201716",
"%=	c #1D1413",
"&=	c #231A1A",
"*=	c #201A18",
"==	c #191312",
"-=	c #24201E",
";=	c #2B2B2A",
">=	c #282728",
",=	c #2A2928",
"'=	c #211F1F",
")=	c #3F4246",
"!=	c #414346",
"~=	c #3C3D3F",
"{=	c #3C3E40",
"]=	c #3D4245",
"^=	c #454B4E",
"/=	c #45494D",
"(=	c #414244",
"_=	c #262726",
":=	c #37393C",
"<=	c #2E3033",
"[=	c #292829",
"}=	c #2B292B",
"|=	c #272528",
"1=	c #1A1717",
"2=	c #2E3233",
"3=	c #485458",
"4=	c #41494D",
"5=	c #4D9590",
"6=	c #3E7C77",
"7=	c #323C3C",
"8=	c #273132",
"9=	c #2A8081",
"0=	c #2E676A",
"a=	c #394F50",
"b=	c #384040",
"c=	c #2D2F32",
"d=	c #292B2D",
"e=	c #2B2B2E",
"f=	c #2B2C2F",
"g=	c #2D2F31",
"h=	c #313336",
"i=	c #323435",
"j=	c #36393A",
"k=	c #3D3F40",
"l=	c #404244",
"m=	c #494B4C",
"n=	c #191012",
"o=	c #1F1416",
"p=	c #291D19",
"q=	c #271D1A",
"r=	c #221816",
"s=	c #211816",
"t=	c #1F1918",
"u=	c #161514",
"v=	c #1D1817",
"w=	c #261E1A",
"x=	c #2C2420",
"y=	c #251A19",
"z=	c #241916",
"A=	c #1F1613",
"B=	c #221916",
"C=	c #201B1A",
"D=	c #211E1E",
"E=	c #282623",
"F=	c #211E1D",
"G=	c #45484D",
"H=	c #424547",
"I=	c #434644",
"J=	c #3B3F42",
"K=	c #414448",
"L=	c #3C3F42",
"M=	c #181714",
"N=	c #292A29",
"O=	c #38393A",
"P=	c #3B3E3D",
"Q=	c #313332",
"R=	c #262626",
"S=	c #272526",
"T=	c #1B1818",
"U=	c #2A3132",
"V=	c #4F5E64",
"W=	c #465257",
"X=	c #737D7C",
"Y=	c #394646",
"Z=	c #272D2F",
"`=	c #292C2D",
" -	c #343939",
".-	c #295D61",
"+-	c #296466",
"@-	c #2F3537",
"#-	c #303234",
"$-	c #303333",
"%-	c #313335",
"&-	c #3C3F41",
"*-	c #353838",
"=-	c #383B3D",
"--	c #383A3B",
";-	c #373A3B",
">-	c #343638",
",-	c #3E4041",
"'-	c #696A6B",
")-	c #181012",
"!-	c #271B19",
"~-	c #241A18",
"{-	c #211717",
"]-	c #1C1516",
"^-	c #141314",
"/-	c #1D1B19",
"(-	c #2D2520",
"_-	c #372E2A",
":-	c #271C1B",
"<-	c #251817",
"[-	c #281D1B",
"}-	c #201918",
"|-	c #201919",
"1-	c #28211F",
"2-	c #201B19",
"3-	c #45464A",
"4-	c #3E3D3F",
"5-	c #3E3E3D",
"6-	c #403D3C",
"7-	c #3D3A39",
"8-	c #3F3E3B",
"9-	c #3E3D3C",
"0-	c #3A3A3A",
"a-	c #404346",
"b-	c #171714",
"c-	c #282828",
"d-	c #373838",
"e-	c #393938",
"f-	c #353533",
"g-	c #2B2928",
"h-	c #2B282A",
"i-	c #2F2E2D",
"j-	c #1C1A19",
"k-	c #2D3435",
"l-	c #4E5D64",
"m-	c #48565B",
"n-	c #3D4347",
"o-	c #AE9C8F",
"p-	c #915339",
"q-	c #674337",
"r-	c #2E3739",
"s-	c #2B4849",
"t-	c #282F32",
"u-	c #292A2E",
"v-	c #212527",
"w-	c #1C2828",
"x-	c #1E2627",
"y-	c #1E2B2B",
"z-	c #29807B",
"A-	c #298D8A",
"B-	c #2B8F8B",
"C-	c #278A88",
"D-	c #228583",
"E-	c #215754",
"F-	c #282D2C",
"G-	c #888C8C",
"H-	c #8C8E8F",
"I-	c #A5A6A8",
"J-	c #1C1314",
"K-	c #1A1112",
"L-	c #191110",
"M-	c #171212",
"N-	c #1D1A1D",
"O-	c #302B2C",
"P-	c #39312E",
"Q-	c #372F2B",
"R-	c #191112",
"S-	c #1D1616",
"T-	c #201817",
"U-	c #2E2521",
"V-	c #251F1D",
"W-	c #424145",
"X-	c #3E3B3C",
"Y-	c #403C3B",
"Z-	c #3E3938",
"`-	c #3D3736",
" ;	c #403B39",
".;	c #3C3938",
"+;	c #363433",
"@;	c #393A39",
"#;	c #404547",
"$;	c #191816",
"%;	c #242527",
"&;	c #333335",
"*;	c #373637",
"=;	c #2E2C2E",
"-;	c #2E2C2A",
";;	c #211E20",
">;	c #201E1F",
",;	c #56656A",
"';	c #4A555A",
");	c #C68864",
"!;	c #694D43",
"~;	c #3D3835",
"{;	c #272D30",
"];	c #282D2F",
"^;	c #232E30",
"/;	c #245353",
"(;	c #2C7D7D",
"_;	c #29C0BB",
":;	c #25BCB6",
"<;	c #24B8B1",
"[;	c #2A8B86",
"};	c #336866",
"|;	c #317F7E",
"1;	c #2E8381",
"2;	c #207B76",
"3;	c #1B8C84",
"4;	c #27726E",
"5;	c #355352",
"6;	c #3F4746",
"7;	c #454F4E",
"8;	c #747779",
"9;	c #1E1615",
"0;	c #140E11",
"a;	c #151011",
"b;	c #1B1412",
"c;	c #181314",
"d;	c #332F2E",
"e;	c #38312E",
"f;	c #302825",
"g;	c #1F1816",
"h;	c #1D1717",
"i;	c #191414",
"j;	c #1B1514",
"k;	c #1E1817",
"l;	c #48494D",
"m;	c #424347",
"n;	c #424244",
"o;	c #3B3B3B",
"p;	c #3C3C3C",
"q;	c #414041",
"r;	c #3B3B3D",
"s;	c #363839",
"t;	c #3A4041",
"u;	c #434A4E",
"v;	c #252325",
"w;	c #302F32",
"x;	c #383737",
"y;	c #2B2929",
"z;	c #23221F",
"A;	c #2F3335",
"B;	c #536066",
"C;	c #475256",
"D;	c #3F4143",
"E;	c #C8AFA1",
"F;	c #9A5D3D",
"G;	c #2E3437",
"H;	c #24292A",
"I;	c #222C2D",
"J;	c #1D6C6A",
"K;	c #1B938D",
"L;	c #347C79",
"M;	c #358F87",
"N;	c #34938A",
"O;	c #347E7A",
"P;	c #2A7370",
"Q;	c #2D6662",
"R;	c #3F5651",
"S;	c #324442",
"T;	c #246360",
"U;	c #28635F",
"V;	c #206B6B",
"W;	c #227270",
"X;	c #2C3D3F",
"Y;	c #323F41",
"Z;	c #3A494B",
"`;	c #556162",
" >	c #161013",
".>	c #231D1B",
"+>	c #1E191A",
"@>	c #131012",
"#>	c #23201D",
"$>	c #2B2523",
"%>	c #2F2623",
"&>	c #2A211E",
"*>	c #211C18",
"=>	c #17110F",
"->	c #1D1612",
";>	c #1E1716",
">>	c #171312",
",>	c #464A4F",
"'>	c #404041",
")>	c #3F4040",
"!>	c #3F4343",
"~>	c #394044",
"{>	c #3B434A",
"]>	c #3B4347",
"^>	c #303133",
"/>	c #2F2F2E",
"(>	c #2F2F2C",
"_>	c #242427",
":>	c #2C2D2D",
"<>	c #1B1C1C",
"[>	c #282C2F",
"}>	c #48565E",
"|>	c #434B51",
"1>	c #3D3C3F",
"2>	c #B79584",
"3>	c #A15B39",
"4>	c #545250",
"5>	c #2F3738",
"6>	c #244241",
"7>	c #226261",
"8>	c #1F6464",
"9>	c #247A77",
"0>	c #3B5955",
"a>	c #40CDBD",
"b>	c #46E3D1",
"c>	c #45B3A7",
"d>	c #2E7873",
"e>	c #31605D",
"f>	c #3C4A45",
"g>	c #423B37",
"h>	c #2A3839",
"i>	c #453F3B",
"j>	c #2B3333",
"k>	c #2D5856",
"l>	c #272F33",
"m>	c #304F4F",
"n>	c #325A5A",
"o>	c #2D4848",
"p>	c #3B6162",
"q>	c #1A1511",
"r>	c #211B17",
"s>	c #1C1717",
"t>	c #161413",
"u>	c #1F1C19",
"v>	c #191412",
"w>	c #1E1B1A",
"x>	c #181413",
"y>	c #241C16",
"z>	c #201916",
"A>	c #231E1C",
"B>	c #1B1A19",
"C>	c #494D50",
"D>	c #444749",
"E>	c #3C3D3E",
"F>	c #3B3939",
"G>	c #3B3837",
"H>	c #393637",
"I>	c #3C3B3C",
"J>	c #3B3E41",
"K>	c #40464B",
"L>	c #40464A",
"M>	c #252525",
"N>	c #313435",
"O>	c #303232",
"P>	c #303130",
"Q>	c #343432",
"R>	c #232326",
"S>	c #232426",
"T>	c #1B1A1B",
"U>	c #2E3334",
"V>	c #4A595F",
"W>	c #40494E",
"X>	c #858586",
"Y>	c #926E61",
"Z>	c #774533",
"`>	c #4E4541",
" ,	c #272A2B",
".,	c #2C5452",
"+,	c #2E5E5E",
"@,	c #384544",
"#,	c #365A5A",
"$,	c #3D5250",
"%,	c #39817C",
"&,	c #3D8B85",
"*,	c #3C7572",
"=,	c #2D6968",
"-,	c #2E4C4B",
";,	c #343632",
">,	c #442C26",
",,	c #32231E",
"',	c #462E28",
"),	c #232021",
"!,	c #202C30",
"~,	c #1C1F22",
"{,	c #287773",
"],	c #328380",
"^,	c #306463",
"/,	c #32A3A0",
"(,	c #677174",
"_,	c #181310",
":,	c #100D0D",
"<,	c #1C1716",
"[,	c #141012",
"},	c #161314",
"|,	c #151514",
"1,	c #14100F",
"2,	c #251C19",
"3,	c #2B211C",
"4,	c #2D2723",
"5,	c #24211F",
"6,	c #434549",
"7,	c #3E3E40",
"8,	c #3A3937",
"9,	c #3A3838",
"0,	c #3F3D3D",
"a,	c #3F3E40",
"b,	c #44474A",
"c,	c #414548",
"d,	c #171611",
"e,	c #242322",
"f,	c #2F3030",
"g,	c #2B2C2B",
"h,	c #282827",
"i,	c #1F1D21",
"j,	c #232224",
"k,	c #303636",
"l,	c #444D51",
"m,	c #504E50",
"n,	c #864830",
"o,	c #7B4936",
"p,	c #424543",
"q,	c #394241",
"r,	c #364340",
"s,	c #5D5449",
"t,	c #604839",
"u,	c #5C574E",
"v,	c #5F5F56",
"w,	c #57615B",
"x,	c #55625D",
"y,	c #515B55",
"z,	c #4A524D",
"A,	c #4E4740",
"B,	c #4D3A31",
"C,	c #3F2B25",
"D,	c #3C2723",
"E,	c #2B2222",
"F,	c #18181B",
"G,	c #262A2B",
"H,	c #2D4948",
"I,	c #374F4F",
"J,	c #345A58",
"K,	c #3FA09A",
"L,	c #95A0A2",
"M,	c #1C1816",
"N,	c #141312",
"O,	c #100E0D",
"P,	c #221F1D",
"Q,	c #242020",
"R,	c #201D1D",
"S,	c #231C1B",
"T,	c #241819",
"U,	c #302422",
"V,	c #372A25",
"W,	c #312623",
"X,	c #424548",
"Y,	c #3D3A38",
"Z,	c #3B3737",
"`,	c #393636",
" '	c #3E3A3A",
".'	c #403C3C",
"+'	c #3F3D3C",
"@'	c #454446",
"#'	c #191815",
"$'	c #242325",
"%'	c #242425",
"&'	c #2D2E2C",
"*'	c #525F63",
"='	c #4B5255",
"-'	c #4D4A4C",
";'	c #7F4A32",
">'	c #3A4344",
",'	c #334446",
"''	c #252224",
")'	c #55362B",
"!'	c #623D2C",
"~'	c #57372A",
"{'	c #78452E",
"]'	c #78432C",
"^'	c #74412C",
"/'	c #653B2A",
"('	c #4E342C",
"_'	c #52382F",
":'	c #49322B",
"<'	c #1F1E1F",
"['	c #222426",
"}'	c #2D2E30",
"|'	c #1B1C20",
"1'	c #2D3031",
"2'	c #313334",
"3'	c #323535",
"4'	c #506363",
"5'	c #C5D4D3",
"6'	c #201A15",
"7'	c #201B17",
"8'	c #2F2C28",
"9'	c #2F2A26",
"0'	c #241D1C",
"a'	c #241D1D",
"b'	c #362D29",
"c'	c #3C312A",
"d'	c #322621",
"e'	c #352723",
"f'	c #312421",
"g'	c #322723",
"h'	c #29211E",
"i'	c #3C3A3B",
"j'	c #403E3C",
"k'	c #3C3939",
"l'	c #3F3C3D",
"m'	c #3F3D3B",
"n'	c #3A3B38",
"o'	c #3F4041",
"p'	c #404246",
"q'	c #1C1918",
"r'	c #23201F",
"s'	c #1F1B1B",
"t'	c #201F20",
"u'	c #292B29",
"v'	c #292A2A",
"w'	c #1C1A1B",
"x'	c #2A2E30",
"y'	c #4B575D",
"z'	c #454C4E",
"A'	c #8B5236",
"B'	c #354446",
"C'	c #2E2727",
"D'	c #352C2A",
"E'	c #312A29",
"F'	c #3E302C",
"G'	c #41322E",
"H'	c #393431",
"I'	c #2E302F",
"J'	c #2C2A2A",
"K'	c #302E2E",
"L'	c #262627",
"M'	c #202022",
"N'	c #333334",
"O'	c #2C2D30",
"P'	c #2A2C2D",
"Q'	c #2F3232",
"R'	c #2F3132",
"S'	c #2A2C2C",
"T'	c #364647",
"U'	c #6CADAC",
"V'	c #241E19",
"W'	c #211B19",
"X'	c #141211",
"Y'	c #292624",
"Z'	c #2A2423",
"`'	c #261F1E",
" )	c #25201F",
".)	c #302B29",
"+)	c #2D2623",
"@)	c #2A201E",
"#)	c #332822",
"$)	c #2F241E",
"%)	c #2F231E",
"&)	c #271D1C",
"*)	c #3F4345",
"=)	c #3F3F3E",
"-)	c #3F3E3D",
";)	c #3E3B3B",
">)	c #3C3B3D",
",)	c #373938",
"')	c #3D3F41",
"))	c #3B3F43",
"!)	c #191615",
"~)	c #191617",
"{)	c #262725",
"])	c #252626",
"^)	c #19181B",
"/)	c #131112",
"()	c #282D30",
"_)	c #445057",
":)	c #42494D",
"<)	c #525050",
"[)	c #96583A",
"})	c #3C4949",
"|)	c #364445",
"1)	c #313536",
"2)	c #1E1D20",
"3)	c #282B2D",
"4)	c #2B2E30",
"5)	c #1D1F21",
"6)	c #1F3031",
"7)	c #225150",
"8)	c #1F9C94",
"9)	c #1C8B85",
"0)	c #243638",
"a)	c #1F2324",
"b)	c #1E1F21",
"c)	c #202122",
"d)	c #2F2F31",
"e)	c #2C2C2D",
"f)	c #1B1C1F",
"g)	c #202123",
"h)	c #252628",
"i)	c #1E2022",
"j)	c #353D3F",
"k)	c #6F9E9D",
"l)	c #14100D",
"m)	c #18130E",
"n)	c #151210",
"o)	c #0C0B0C",
"p)	c #181614",
"q)	c #211B18",
"r)	c #2B2420",
"s)	c #221E1A",
"t)	c #1E1C17",
"u)	c #1F1B19",
"v)	c #221E1C",
"w)	c #26201C",
"x)	c #1F1713",
"y)	c #424344",
"z)	c #3E3E3E",
"A)	c #3C3A39",
"B)	c #3D3C3C",
"C)	c #3D3E41",
"D)	c #414347",
"E)	c #131210",
"F)	c #191514",
"G)	c #1F1C1C",
"H)	c #181715",
"I)	c #151312",
"J)	c #1E1E1D",
"K)	c #1A1B1D",
"L)	c #110F0E",
"M)	c #2B3132",
"N)	c #49555B",
"O)	c #4C494A",
"P)	c #9B5C3D",
"Q)	c #3F4D4E",
"R)	c #384749",
"S)	c #303638",
"T)	c #242728",
"U)	c #255454",
"V)	c #2B908D",
"W)	c #3AC2B8",
"X)	c #30AEA4",
"Y)	c #2F484C",
"Z)	c #1D1E20",
"`)	c #1C1D20",
" !	c #1E2023",
".!	c #4C5355",
"+!	c #4C5051",
"@!	c #4E5151",
"#!	c #1B1611",
"$!	c #17110E",
"%!	c #120D0D",
"&!	c #0E0909",
"*!	c #0E0D0C",
"=!	c #0E0D0D",
"-!	c #141413",
";!	c #181412",
">!	c #1D1716",
",!	c #201C1A",
"'!	c #1C1715",
")!	c #1A1613",
"!!	c #13110F",
"~!	c #1A1411",
"{!	c #211916",
"]!	c #1F1815",
"^!	c #3D3C3D",
"/!	c #3C3B3B",
"(!	c #3D3D3C",
"_!	c #3F3F41",
":!	c #454649",
"<!	c #11110F",
"[!	c #1D1A19",
"}!	c #252120",
"|!	c #1B1917",
"1!	c #141111",
"2!	c #171615",
"3!	c #1C1E1F",
"4!	c #2F3333",
"5!	c #4D565B",
"6!	c #985D3E",
"7!	c #405152",
"8!	c #394B4B",
"9!	c #313739",
"0!	c #222224",
"a!	c #26292B",
"b!	c #1E1F22",
"c!	c #2E3134",
"d!	c #2B2F32",
"e!	c #2D3133",
"f!	c #2B2E2F",
"g!	c #252728",
"h!	c #1E2021",
"i!	c #1C1E20",
"j!	c #1A1C1E",
"k!	c #1A2427",
"l!	c #1A6F71",
"m!	c #88A8A9",
"n!	c #140F0D",
"o!	c #1A1311",
"p!	c #120D0B",
"q!	c #100E0C",
"r!	c #0C0A09",
"s!	c #161517",
"t!	c #121416",
"u!	c #141517",
"v!	c #232322",
"w!	c #2D2A2A",
"x!	c #2C2A29",
"y!	c #171716",
"z!	c #1A1917",
"A!	c #292523",
"B!	c #211C1A",
"C!	c #3E3F41",
"D!	c #39393A",
"E!	c #3D3B39",
"F!	c #424144",
"G!	c #3A393A",
"H!	c #1E1B19",
"I!	c #282322",
"J!	c #151313",
"K!	c #1D1E1F",
"L!	c #495359",
"M!	c #3E4347",
"N!	c #3C3A3C",
"O!	c #8F593C",
"P!	c #3B4D4E",
"Q!	c #394A4C",
"R!	c #2F3638",
"S!	c #212326",
"T!	c #29292B",
"U!	c #232527",
"V!	c #1F2123",
"W!	c #294849",
"X!	c #303639",
"Y!	c #2E3232",
"Z!	c #2A2D2E",
"`!	c #181A1C",
" ~	c #16191C",
".~	c #172428",
"+~	c #168586",
"@~	c #2D292A",
"#~	c #3C3639",
"$~	c #383637",
"%~	c #3E3B3D",
"&~	c #343435",
"*~	c #2E2E2F",
"=~	c #242424",
"-~	c #0A0705",
";~	c #1B1B1E",
">~	c #191A1D",
",~	c #33302F",
"'~	c #232323",
")~	c #222423",
"!~	c #2F2C2A",
"~~	c #393838",
"{~	c #383635",
"]~	c #3B3839",
"^~	c #3D3B3C",
"/~	c #3A393B",
"(~	c #403D3F",
"_~	c #3A3839",
":~	c #13120F",
"<~	c #120E11",
"[~	c #191614",
"}~	c #151213",
"|~	c #2D2F2F",
"1~	c #4B5459",
"2~	c #363436",
"3~	c #875037",
"4~	c #344042",
"5~	c #2F3E40",
"6~	c #2F4345",
"7~	c #2A827F",
"8~	c #2C8181",
"9~	c #327377",
"0~	c #3A6566",
"a~	c #228282",
"b~	c #1A8F8C",
"c~	c #2A6867",
"d~	c #2F3C3E",
"e~	c #2B2C2C",
"f~	c #16181B",
"g~	c #181F21",
"h~	c #174245",
"i~	c #147D7F",
"j~	c #373032",
"k~	c #3E3638",
"l~	c #3D373A",
"m~	c #474141",
"n~	c #433F40",
"o~	c #373638",
"p~	c #3F4042",
"q~	c #0E0B09",
"r~	c #100F0C",
"s~	c #151413",
"t~	c #1B1A1A",
"u~	c #242323",
"v~	c #212121",
"w~	c #242627",
"x~	c #2A2C2E",
"y~	c #2C2F30",
"z~	c #282A2C",
"A~	c #444446",
"B~	c #3D3B3D",
"C~	c #393738",
"D~	c #3C3838",
"E~	c #3E3939",
"F~	c #3C3837",
"G~	c #3C383A",
"H~	c #3D3837",
"I~	c #393534",
"J~	c #14120D",
"K~	c #221C18",
"L~	c #271F1D",
"M~	c #141112",
"N~	c #656565",
"O~	c #5D5B5B",
"P~	c #4F4A4B",
"Q~	c #3C3535",
"R~	c #575556",
"S~	c #515153",
"T~	c #27292D",
"U~	c #4B332C",
"V~	c #354849",
"W~	c #386364",
"X~	c #3B6363",
"Y~	c #405C5C",
"Z~	c #465755",
"`~	c #445B5B",
" {	c #2F7B7D",
".{	c #21888A",
"+{	c #257072",
"@{	c #285D5D",
"#{	c #2B3B3C",
"${	c #2D2E31",
"%{	c #2A2B2E",
"&{	c #1D2022",
"*{	c #182224",
"={	c #191F23",
"-{	c #183A3C",
";{	c #186265",
">{	c #1E3235",
",{	c #2E2829",
"'{	c #403636",
"){	c #443837",
"!{	c #493F3A",
"~{	c #48413E",
"{{	c #3A363A",
"]{	c #0A0500",
"^{	c #263138",
"/{	c #313D49",
"({	c #38444F",
"_{	c #445159",
":{	c #465259",
"<{	c #445056",
"[{	c #4D5960",
"}{	c #536169",
"|{	c #4C5C65",
"1{	c #4B5B64",
"2{	c #4B565D",
"3{	c #423F42",
"4{	c #3F3936",
"5{	c #3D3632",
"6{	c #3F3734",
"7{	c #413834",
"8{	c #3C342F",
"9{	c #393533",
"0{	c #0D100B",
"a{	c #1F1917",
"b{	c #27201F",
"c{	c #A7A9AA",
"d{	c #6C6D6E",
"e{	c #343334",
"f{	c #333133",
"g{	c #4B4141",
"h{	c #423B3C",
"i{	c #453C3C",
"j{	c #473E3D",
"k{	c #343235",
"l{	c #222429",
"m{	c #313A3A",
"n{	c #3F5B5C",
"o{	c #405353",
"p{	c #445352",
"q{	c #425757",
"r{	c #397070",
"s{	c #188D90",
"t{	c #2E6266",
"u{	c #374144",
"v{	c #2F3135",
"w{	c #26272A",
"x{	c #1F2225",
"y{	c #1A1D1F",
"z{	c #1A272B",
"A{	c #203234",
"B{	c #254849",
"C{	c #1B292C",
"D{	c #1B1F21",
"E{	c #292324",
"F{	c #382C2D",
"G{	c #433635",
"H{	c #433531",
"I{	c #3C3431",
"J{	c #343236",
"K{	c #393B40",
"L{	c #27292C",
"M{	c #0B0600",
"N{	c #333F47",
"O{	c #35414B",
"P{	c #363F48",
"Q{	c #40484E",
"R{	c #3C4248",
"S{	c #3F4447",
"T{	c #4A5257",
"U{	c #434D53",
"V{	c #3E474E",
"W{	c #433D41",
"X{	c #3E3736",
"Y{	c #3C3331",
"Z{	c #3C322F",
"`{	c #3E332F",
" ]	c #40342F",
".]	c #3A2F2A",
"+]	c #3A3535",
"@]	c #0C0E0E",
"#]	c #1A1616",
"$]	c #261F20",
"%]	c #1C1818",
"&]	c #50504F",
"*]	c #353335",
"=]	c #3A3334",
"-]	c #4F4442",
";]	c #3E383A",
">]	c #514340",
",]	c #383436",
"']	c #272A2F",
")]	c #272E32",
"!]	c #2C5355",
"~]	c #2B6D6D",
"{]	c #2D6A6C",
"]]	c #2E5455",
"^]	c #236365",
"/]	c #275F60",
"(]	c #274445",
"_]	c #252A2D",
":]	c #24282A",
"<]	c #1D2023",
"[]	c #1A1D20",
"}]	c #1C2023",
"|]	c #1B1D20",
"1]	c #222528",
"2]	c #292B2E",
"3]	c #171B1E",
"4]	c #1B1F20",
"5]	c #B9BBB9",
"6]	c #3B3237",
"7]	c #3E3437",
"8]	c #382E2E",
"9]	c #36302E",
"0]	c #373738",
"a]	c #37393E",
"b]	c #222527",
"c]	c #0A0600",
"d]	c #2F373C",
"e]	c #343B40",
"f]	c #333639",
"g]	c #303030",
"h]	c #282321",
"i]	c #2D2823",
"j]	c #292422",
"k]	c #333331",
"l]	c #2E2E2C",
"m]	c #272625",
"n]	c #464040",
"o]	c #3F3635",
"p]	c #3D3430",
"q]	c #3D332E",
"r]	c #3D312D",
"s]	c #3C2F2C",
"t]	c #3F3130",
"u]	c #40322E",
"v]	c #423630",
"w]	c #453732",
"x]	c #382F2F",
"y]	c #090A0A",
"z]	c #1D1718",
"A]	c #292021",
"B]	c #1D1918",
"C]	c #161312",
"D]	c #686969",
"E]	c #312E2F",
"F]	c #483E3D",
"G]	c #4B4646",
"H]	c #534E4E",
"I]	c #514E4E",
"J]	c #2F2829",
"K]	c #714634",
"L]	c #282D31",
"M]	c #292E31",
"N]	c #254041",
"O]	c #1B4548",
"P]	c #1B3236",
"Q]	c #1F2326",
"R]	c #1D1F22",
"S]	c #1F2125",
"T]	c #202326",
"U]	c #222728",
"V]	c #202325",
"W]	c #29282B",
"X]	c #171E21",
"Y]	c #16474A",
"Z]	c #296D70",
"`]	c #324245",
" ^	c #3A3234",
".^	c #2E2524",
"+^	c #2D2828",
"@^	c #3B393B",
"#^	c #242626",
"$^	c #090401",
"%^	c #2C333B",
"&^	c #313943",
"*^	c #3A4247",
"=^	c #2C2927",
"-^	c #1F1C1D",
";^	c #242225",
">^	c #2A2A2A",
",^	c #494242",
"'^	c #3F3735",
")^	c #40332D",
"!^	c #3E3029",
"~^	c #3E322D",
"{^	c #3F332E",
"]^	c #473932",
"^^	c #52453F",
"/^	c #4A3E39",
"(^	c #382F2D",
"_^	c #0C0D0E",
":^	c #292121",
"<^	c #1C1819",
"[^	c #191817",
"}^	c #1C1B1A",
"|^	c #545D64",
"1^	c #3E3838",
"2^	c #7B4730",
"3^	c #2F3233",
"4^	c #193E41",
"5^	c #115F63",
"6^	c #1D393E",
"7^	c #202527",
"8^	c #252A2C",
"9^	c #2A3131",
"0^	c #283132",
"a^	c #262D2E",
"b^	c #222427",
"c^	c #1F2024",
"d^	c #1A2325",
"e^	c #1B4D50",
"f^	c #327779",
"g^	c #354548",
"h^	c #3A302E",
"i^	c #302722",
"j^	c #291F1D",
"k^	c #2E2928",
"l^	c #3B393A",
"m^	c #464548",
"n^	c #313132",
"o^	c #2D373E",
"p^	c #2F3A44",
"q^	c #384247",
"r^	c #373C3E",
"s^	c #343430",
"t^	c #211D1B",
"u^	c #2B2826",
"v^	c #323032",
"w^	c #353636",
"x^	c #383A38",
"y^	c #333433",
"z^	c #4B4444",
"A^	c #3E3734",
"B^	c #3C312D",
"C^	c #40332F",
"D^	c #3E312D",
"E^	c #3D322E",
"F^	c #3E3531",
"G^	c #483D38",
"H^	c #4E4441",
"I^	c #483C38",
"J^	c #3A322E",
"K^	c #0F1010",
"L^	c #201C19",
"M^	c #281F1D",
"N^	c #141515",
"O^	c #161615",
"P^	c #151515",
"Q^	c #303233",
"R^	c #50575E",
"S^	c #46474B",
"T^	c #3E3636",
"U^	c #854A2F",
"V^	c #433834",
"W^	c #212325",
"X^	c #1F2D2F",
"Y^	c #1C3B3D",
"Z^	c #1B3438",
"`^	c #195B5D",
" /	c #1F4345",
"./	c #202426",
"+/	c #1D2527",
"@/	c #1E595A",
"#/	c #1D4E51",
"$/	c #1E2427",
"%/	c #1A1E21",
"&/	c #1D2A2D",
"*/	c #1C2124",
"=/	c #28292A",
"-/	c #362C29",
";/	c #372E2B",
">/	c #302626",
",/	c #35312E",
"'/	c #353534",
")/	c #0B0A04",
"!/	c #323D42",
"~/	c #3B464E",
"{/	c #374146",
"]/	c #2F3336",
"^/	c #2C2B27",
"//	c #231F1C",
"(/	c #332F2D",
"_/	c #404140",
":/	c #494342",
"</	c #433A35",
"[/	c #42352E",
"}/	c #40332E",
"|/	c #3E322E",
"1/	c #3A302D",
"2/	c #4B413C",
"3/	c #4E403B",
"4/	c #413734",
"5/	c #0C0D0C",
"6/	c #1E1816",
"7/	c #29201D",
"8/	c #121212",
"9/	c #141212",
"0/	c #131113",
"a/	c #1D1B1C",
"b/	c #1D191A",
"c/	c #282725",
"d/	c #646464",
"e/	c #3D302E",
"f/	c #915031",
"g/	c #654335",
"h/	c #253031",
"i/	c #21282A",
"j/	c #1F3E3E",
"k/	c #223234",
"l/	c #202224",
"m/	c #1F2224",
"n/	c #1E3B3C",
"o/	c #1D3537",
"p/	c #1D2225",
"q/	c #2F2C2C",
"r/	c #272828",
"s/	c #1F2021",
"t/	c #6F7171",
"u/	c #2D2724",
"v/	c #39332F",
"w/	c #413F3C",
"x/	c #2E2F2E",
"y/	c #282D2E",
"z/	c #0A0903",
"A/	c #2F3A3E",
"B/	c #3D484F",
"C/	c #3E474C",
"D/	c #2C2A24",
"E/	c #32302E",
"F/	c #3B3B39",
"G/	c #363838",
"H/	c #383A3C",
"I/	c #47403F",
"J/	c #493D39",
"K/	c #483A32",
"L/	c #42332C",
"M/	c #3E312B",
"N/	c #3E322C",
"O/	c #3C302C",
"P/	c #463933",
"Q/	c #493933",
"R/	c #3C302B",
"S/	c #080A09",
"T/	c #1E1715",
"U/	c #2F2422",
"V/	c #161313",
"W/	c #151311",
"X/	c #1E1C1C",
"Y/	c #1D1A1B",
"Z/	c #171315",
"`/	c #6B6A69",
" (	c #292827",
".(	c #57372B",
"+(	c #864C32",
"@(	c #343537",
"#(	c #253233",
"$(	c #232B2C",
"%(	c #202223",
"&(	c #212224",
"*(	c #212324",
"=(	c #1D2021",
"-(	c #1D1F20",
";(	c #1C1E1E",
">(	c #202021",
",(	c #252425",
"'(	c #252526",
")(	c #1D1F1F",
"!(	c #1A1B1C",
"~(	c #9E9F9F",
"{(	c #332C2A",
"](	c #3E3A38",
"^(	c #343436",
"/(	c #2A2E32",
"((	c #202428",
"_(	c #0B0905",
":(	c #2C3336",
"<(	c #33383D",
"[(	c #323638",
"}(	c #252422",
"|(	c #403D3B",
"1(	c #424341",
"2(	c #3C3F40",
"3(	c #4A4140",
"4(	c #463936",
"5(	c #47372F",
"6(	c #42302A",
"7(	c #3B2B24",
"8(	c #3C2E27",
"9(	c #473B33",
"0(	c #3F302A",
"a(	c #3E2E27",
"b(	c #342A25",
"c(	c #090C0B",
"d(	c #2B201D",
"e(	c #251D19",
"f(	c #181212",
"g(	c #161110",
"h(	c #1B1716",
"i(	c #1E1C1A",
"j(	c #1A1617",
"k(	c #555451",
"l(	c #2D2C2A",
"m(	c #222324",
"n(	c #452C22",
"o(	c #884A2F",
"p(	c #373636",
"q(	c #313637",
"r(	c #28292B",
"s(	c #242526",
"t(	c #1B1D1E",
"u(	c #1B1D1D",
"v(	c #1C1D1E",
"w(	c #1C1D1F",
"x(	c #1E1E20",
"y(	c #433E3B",
"z(	c #2A292A",
"A(	c #1E1F20",
"B(	c #18191B",
"C(	c #9A9B9B",
"D(	c #332D2B",
"E(	c #3D3734",
"F(	c #363332",
"G(	c #100E07",
"H(	c #323133",
"I(	c #312F32",
"J(	c #2F2F2F",
"K(	c #2F2F2D",
"L(	c #383735",
"M(	c #3C3D3B",
"N(	c #3E403E",
"O(	c #3D3F3F",
"P(	c #4B4140",
"Q(	c #443734",
"R(	c #44342D",
"S(	c #413029",
"T(	c #3B2A24",
"U(	c #3A2A26",
"V(	c #3C2E29",
"W(	c #41332D",
"X(	c #3C2E2A",
"Y(	c #3C2D29",
"Z(	c #372D2A",
"`(	c #0E1110",
" _	c #1E1819",
"._	c #231B19",
"+_	c #191513",
"@_	c #0F0E0D",
"#_	c #120E0D",
"$_	c #171413",
"%_	c #181615",
"&_	c #151414",
"*_	c #43281F",
"=_	c #8A4A2E",
"-_	c #574038",
";_	c #383D3E",
">_	c #292A2C",
",_	c #272729",
"'_	c #222425",
")_	c #222325",
"!_	c #1E1F1F",
"~_	c #212021",
"{_	c #49423E",
"]_	c #717272",
"^_	c #36302B",
"/_	c #342F2E",
"(_	c #111009",
"__	c #3B383A",
":_	c #383537",
"<_	c #353535",
"[_	c #373939",
"}_	c #393B3C",
"|_	c #4A4343",
"1_	c #453B38",
"2_	c #3E302B",
"3_	c #3C2F2B",
"4_	c #3B302C",
"5_	c #3A2E2A",
"6_	c #3C322D",
"7_	c #382C28",
"8_	c #37302E",
"9_	c #0E1211",
"0_	c #221D1C",
"a_	c #131212",
"b_	c #0D0D0D",
"c_	c #0E0E0E",
"d_	c #1D1E1E",
"e_	c #202121",
"f_	c #31302F",
"g_	c #353332",
"h_	c #1B1E20",
"i_	c #1A1C1D",
"j_	c #42281F",
"k_	c #8C4C2F",
"l_	c #6A4636",
"m_	c #2E3032",
"n_	c #262728",
"o_	c #232425",
"p_	c #1F1F20",
"q_	c #443E3B",
"r_	c #353130",
"s_	c #282727",
"t_	c #444345",
"u_	c #3D3A3A",
"v_	c #3A3D3D",
"w_	c #2D3233",
"x_	c #0C0C07",
"y_	c #393537",
"z_	c #3C3737",
"A_	c #353131",
"B_	c #3C3A3A",
"C_	c #3A383A",
"D_	c #363736",
"E_	c #393B3B",
"F_	c #3B3C3D",
"G_	c #494544",
"H_	c #47413F",
"I_	c #423A36",
"J_	c #3F3733",
"K_	c #3F3934",
"L_	c #393633",
"M_	c #3A3531",
"N_	c #3F3B37",
"O_	c #393433",
"P_	c #0C100E",
"Q_	c #111313",
"R_	c #111111",
"S_	c #5D5C5E",
"T_	c #454545",
"U_	c #343232",
"V_	c #1B1C1E",
"W_	c #241F1E",
"X_	c #573425",
"Y_	c #774934",
"Z_	c #383B3C",
"`_	c #343738",
" :	c #2F3032",
".:	c #2B2B2D",
"+:	c #242525",
"@:	c #212223",
"#:	c #1D1D1E",
"$:	c #272525",
"%:	c #3B3533",
"&:	c #282829",
"*:	c #242426",
"=:	c #39322F",
"-:	c #3C3637",
";:	c #36383A",
">:	c #0A0B08",
",:	c #373333",
"':	c #403937",
"):	c #3D3936",
"!:	c #3D3B3E",
"~:	c #383938",
"{:	c #393B3A",
"]:	c #383738",
"^:	c #433F41",
"/:	c #423D3D",
"(:	c #433F39",
"_:	c #413C35",
"::	c #3F3A36",
"<:	c #313131",
"[:	c #464444",
"}:	c #3B3836",
"|:	c #0E0F0D",
"1:	c #1A1514",
"2:	c #131111",
"3:	c #131211",
"4:	c #9B9B9B",
"5:	c #232526",
"6:	c #1F2223",
"7:	c #452B22",
"8:	c #81492E",
"9:	c #403F3E",
"0:	c #28282A",
"a:	c #252627",
"b:	c #393332",
"c:	c #3E3634",
"d:	c #302E2F",
"e:	c #272728",
"f:	c #232324",
"g:	c #332A25",
"h:	c #383331",
"i:	c #272B2D",
"j:	c #10120F",
"k:	c #38322F",
"l:	c #3B3330",
"m:	c #383634",
"n:	c #373635",
"o:	c #3E3D3E",
"p:	c #454143",
"q:	c #3F3832",
"r:	c #413831",
"s:	c #3F3834",
"t:	c #393735",
"u:	c #383A39",
"v:	c #454242",
"w:	c #3A3533",
"x:	c #13120E",
"y:	c #121012",
"z:	c #0F0E10",
"A:	c #817E7F",
"B:	c #7C7877",
"C:	c #363331",
"D:	c #2D3131",
"E:	c #232626",
"F:	c #1A1B1E",
"G:	c #4B2E24",
"H:	c #884B2C",
"I:	c #423C39",
"J:	c #343839",
"K:	c #2E3133",
"L:	c #2D2E2F",
"M:	c #1F2121",
"N:	c #403A38",
"O:	c #3F3837",
"P:	c #2A2929",
"Q:	c #232325",
"R:	c #212023",
"S:	c #2A2B2C",
"T:	c #423C35",
"U:	c #40413E",
"V:	c #323634",
"W:	c #161712",
"X:	c #3A2F2B",
"Y:	c #3F322E",
"Z:	c #373533",
"`:	c #383C3A",
" <	c #333636",
".<	c #343535",
"+<	c #383836",
"@<	c #383734",
"#<	c #392C28",
"$<	c #3B2B28",
"%<	c #382E2B",
"&<	c #413D3A",
"*<	c #403A3A",
"=<	c #393331",
"-<	c #181713",
";<	c #231C1A",
"><	c #8A8889",
",<	c #413634",
"'<	c #433836",
")<	c #2D2C2C",
"!<	c #1D1D20",
"~<	c #3B2A25",
"{<	c #74432C",
"]<	c #724734",
"^<	c #272628",
"/<	c #262528",
"(<	c #1B1C1D",
"_<	c #3F3A38",
":<	c #423B3B",
"<<	c #2A2A2B",
"[<	c #423B36",
"}<	c #484643",
"|<	c #373836",
"1<	c #131613",
"2<	c #3A2D2B",
"3<	c #433632",
"4<	c #3E3A37",
"5<	c #363635",
"6<	c #333736",
"7<	c #313433",
"8<	c #353634",
"9<	c #393A37",
"0<	c #4D4A49",
"a<	c #3C3634",
"b<	c #392F2D",
"c<	c #3B2F2D",
"d<	c #3D3332",
"e<	c #413E3B",
"f<	c #41413F",
"g<	c #3E3C3A",
"h<	c #3F3A39",
"i<	c #131513",
"j<	c #241C1A",
"k<	c #2C221F",
"l<	c #838282",
"m<	c #374447",
"n<	c #2B4E56",
"o<	c #343030",
"p<	c #382A28",
"q<	c #312726",
"r<	c #1C1B1E",
"s<	c #452D23",
"t<	c #824B32",
"u<	c #373736",
"v<	c #333839",
"w<	c #303335",
"x<	c #2E2F31",
"y<	c #2E2F30",
"z<	c #282729",
"A<	c #212123",
"B<	c #423B39",
"C<	c #1B1B1D",
"D<	c #171719",
"E<	c #8E8E8F",
"F<	c #313232",
"G<	c #121412",
"H<	c #3F322F",
"I<	c #443530",
"J<	c #3F3835",
"K<	c #39393B",
"L<	c #3B3A3C",
"M<	c #343534",
"N<	c #474242",
"O<	c #403B3A",
"P<	c #443935",
"Q<	c #443A35",
"R<	c #3D332F",
"S<	c #453834",
"T<	c #3C2E2C",
"U<	c #3C2E2D",
"V<	c #383130",
"W<	c #0F1514",
"X<	c #2E231F",
"Y<	c #3D2D26",
"Z<	c #3B2D26",
"`<	c #635F5E",
" [	c #372C2B",
".[	c #262122",
"+[	c #472B22",
"@[	c #8C4D30",
"#[	c #453D3B",
"$[	c #323738",
"%[	c #333637",
"&[	c #303033",
"*[	c #413937",
"=[	c #1C1C1E",
"-[	c #656566",
";[	c #131311",
">[	c #453833",
",[	c #483933",
"'[	c #3F3633",
")[	c #393939",
"![	c #353637",
"~[	c #3A3C3B",
"{[	c #474041",
"][	c #443E3D",
"^[	c #413A35",
"/[	c #423029",
"([	c #463128",
"_[	c #442D26",
":[	c #412D25",
"<[	c #412D27",
"[[	c #372C29",
"}[	c #0D1514",
"|[	c #352A25",
"1[	c #929494",
"2[	c #2E2828",
"3[	c #3D322F",
"4[	c #372C2A",
"5[	c #382D29",
"6[	c #362B28",
"7[	c #252020",
"8[	c #17181B",
"9[	c #1A1A1D",
"0[	c #3A2620",
"a[	c #7D452C",
"b[	c #714432",
"c[	c #3E3C3B",
"d[	c #353939",
"e[	c #2F3133",
"f[	c #2A2B2D",
"g[	c #262628",
"h[	c #252527",
"i[	c #383432",
"j[	c #373332",
"k[	c #686869",
"l[	c #453A37",
"m[	c #493F3B",
"n[	c #413B3A",
"o[	c #3E3F3F",
"p[	c #363738",
"q[	c #393A3A",
"r[	c #353739",
"s[	c #433D3F",
"t[	c #444141",
"u[	c #45423E",
"v[	c #402F28",
"w[	c #413028",
"x[	c #43342B",
"y[	c #42352C",
"z[	c #3F3029",
"A[	c #45352D",
"B[	c #3D3230",
"C[	c #111818",
"D[	c #362924",
"E[	c #959595",
"F[	c #244B54",
"G[	c #433129",
"H[	c #3E2E29",
"I[	c #17181A",
"J[	c #191B1E",
"K[	c #4D2D22",
"L[	c #8D4A2E",
"M[	c #51423D",
"N[	c #373C3C",
"O[	c #34393A",
"P[	c #313434",
"Q[	c #282525",
"R[	c #3B3534",
"S[	c #363231",
"T[	c #7D7D7E",
"U[	c #34302F",
"V[	c #3A3333",
"W[	c #383535",
"X[	c #383939",
"Y[	c #363638",
"Z[	c #373A3A",
"`[	c #4A4848",
" }	c #4A4B49",
".}	c #454642",
"+}	c #3D2F2B",
"@}	c #423730",
"#}	c #3D322C",
"$}	c #392F2A",
"%}	c #453B39",
"&}	c #151A1A",
"*}	c #2E211D",
"=}	c #8C8D8D",
"-}	c #2D3336",
";}	c #28454C",
">}	c #382E2C",
",}	c #463028",
"'}	c #372925",
")}	c #1F1F21",
"!}	c #17191B",
"~}	c #4F2E23",
"{}	c #994E2D",
"]}	c #674A3E",
"^}	c #3C4040",
"/}	c #353A3A",
"(}	c #35393A",
"_}	c #2E3131",
":}	c #2C2E2F",
"<}	c #29292A",
"[}	c #342F2D",
"}}	c #423D3A",
"|}	c #353333",
"1}	c #747576",
"2}	c #3A3735",
"3}	c #393836",
"4}	c #373639",
"5}	c #38383A",
"6}	c #4F4A4A",
"7}	c #484445",
"8}	c #3D3939",
"9}	c #3B3331",
"0}	c #3A312E",
"a}	c #362E2C",
"b}	c #3F3431",
"c}	c #3E3631",
"d}	c #3D3732",
"e}	c #433A37",
"f}	c #403939",
"g}	c #161B1A",
"h}	c #2E221F",
"i}	c #6A6B6A",
"j}	c #363131",
"k}	c #403433",
"l}	c #3A2A25",
"m}	c #3F2D27",
"n}	c #1F2020",
"o}	c #492B21",
"p}	c #984D2E",
"q}	c #744B3B",
"r}	c #323536",
"s}	c #27282A",
"t}	c #282A2A",
"u}	c #393432",
"v}	c #453F3D",
"w}	c #2B2B2C",
"x}	c #8F8F90",
"y}	c #403F3D",
"z}	c #3B3A39",
"A}	c #3C3D3D",
"B}	c #363939",
"C}	c #37383B",
"D}	c #443E3E",
"E}	c #423D3C",
"F}	c #3E3836",
"G}	c #403936",
"H}	c #353537",
"I}	c #121818",
"J}	c #332927",
"K}	c #3D2D2A",
"L}	c #1E2326",
"M}	c #222122",
"N}	c #262120",
"O}	c #1E2020",
"P}	c #AFACAA",
"Q}	c #373737",
"R}	c #81523E",
"S}	c #433E3A",
"T}	c #333333",
"U}	c #322D2A",
"V}	c #4F433D",
"W}	c #3C3734",
"X}	c #191A1B",
"Y}	c #858787",
"Z}	c #35383A",
"`}	c #333738",
" |	c #333537",
".|	c #393435",
"+|	c #393434",
"@|	c #3E3935",
"#|	c #3A3736",
"$|	c #3D3E3C",
"%|	c #424242",
"&|	c #323235",
"*|	c #131717",
"=|	c #322825",
"-|	c #363F41",
";|	c #242A2C",
">|	c #191C1D",
",|	c #1A1D1D",
"'|	c #1B1E1F",
")|	c #1B1E1E",
"!|	c #171B1C",
"~|	c #191C1E",
"{|	c #414242",
"]|	c #999A99",
"^|	c #39393C",
"/|	c #3A3A3C",
"(|	c #8D543C",
"_|	c #644335",
":|	c #343637",
"<|	c #363737",
"[|	c #3C3533",
"}|	c #353433",
"||	c #343433",
"1|	c #2B2B2B",
"2|	c #2F2B2A",
"3|	c #352A28",
"4|	c #2F2A28",
"5|	c #242223",
"6|	c #1D1C1D",
"7|	c #414141",
"8|	c #3A3C3F",
"9|	c #3A3B3C",
"0|	c #36373A",
"a|	c #37383A",
"b|	c #363739",
"c|	c #3B3838",
"d|	c #3D3B3A",
"e|	c #3F3B3A",
"f|	c #3D3D3B",
"g|	c #3D3B3B",
"h|	c #393839",
"i|	c #191B18",
"j|	c #28201D",
"k|	c #322623",
"l|	c #6C8689",
"m|	c #2D5E64",
"n|	c #2B474B",
"o|	c #232528",
"p|	c #252829",
"q|	c #27292B",
"r|	c #171A1B",
"s|	c #555656",
"t|	c #3C3C3D",
"u|	c #8C6E63",
"v|	c #674B42",
"w|	c #373A3C",
"x|	c #343838",
"y|	c #3C3735",
"z|	c #3A3433",
"A|	c #383534",
"B|	c #2C2E2E",
"C|	c #292727",
"D|	c #282324",
"E|	c #2E2C2C",
"F|	c #212526",
"G|	c #232D2D",
"H|	c #243232",
"I|	c #243132",
"J|	c #788081",
"K|	c #3F4244",
"L|	c #3C3C3E",
"M|	c #1B1D1A",
"N|	c #322724",
"O|	c #332A26",
"P|	c #484A4B",
"Q|	c #292E30",
"R|	c #344144",
"S|	c #2D373A",
"T|	c #1E2123",
"U|	c #181B1C",
"V|	c #131617",
"W|	c #5E605F",
"X|	c #5E9497",
"Y|	c #537271",
"Z|	c #324E50",
"`|	c #3B4849",
" 1	c #3C3A38",
".1	c #2E3335",
"+1	c #2E3234",
"@1	c #2B3033",
"#1	c #234C4E",
"$1	c #235052",
"%1	c #214F53",
"&1	c #214D50",
"*1	c #22464A",
"=1	c #234447",
"-1	c #224143",
";1	c #274849",
">1	c #1A3B3B",
",1	c #184443",
"'1	c #175E5A",
")1	c #1D6866",
"!1	c #78A6A4",
"~1	c #454749",
"{1	c #3D4044",
"]1	c #3F4144",
"^1	c #434445",
"/1	c #454746",
"(1	c #393A3D",
"_1	c #191A19",
":1	c #302724",
"<1	c #3A2C28",
"[1	c #6E6F6F",
"}1	c #333233",
"|1	c #313031",
"11	c #2F2F30",
"21	c #7E7F7F",
"31	c #383739",
"41	c #373D40",
"51	c #202427",
"61	c #494A49",
"71	c #76AAA8",
"81	c #459A99",
"91	c #3D8F8F",
"01	c #3D8889",
"a1	c #468B8C",
"b1	c #749696",
"c1	c #313639",
"d1	c #69797A",
"e1	c #1C3D40",
"f1	c #1B3C3D",
"g1	c #193638",
"h1	c #193335",
"i1	c #1B3033",
"j1	c #212022",
"k1	c #1A1A1B",
"l1	c #19191B",
"m1	c #212122",
"n1	c #AEAEAE",
"o1	c #363535",
"p1	c #383638",
"q1	c #343437",
"r1	c #333236",
"s1	c #424549",
"t1	c #454949",
"u1	c #41464A",
"v1	c #3C4144",
"w1	c #434748",
"x1	c #474A4D",
"y1	c #3E4145",
"z1	c #291F1C",
"A1	c #3D2D27",
"B1	c #363537",
"C1	c #363536",
"D1	c #222424",
"E1	c #535455",
"F1	c #454B50",
"G1	c #353737",
"H1	c #373837",
"I1	c #3C4044",
"J1	c #23272A",
"K1	c #0C0B0D",
"L1	c #4A4A49",
"M1	c #312E2C",
"N1	c #33373A",
"O1	c #2C2F31",
"P1	c #272A2D",
"Q1	c #767676",
"R1	c #636262",
"S1	c #151316",
"T1	c #141316",
"U1	c #201E21",
"V1	c #2B282D",
"W1	c #2D2B30",
"X1	c #222124",
"Y1	c #464747",
"Z1	c #8F9090",
"`1	c #3E3F3E",
" 2	c #313537",
".2	c #323338",
"+2	c #44494C",
"@2	c #464B4B",
"#2	c #454648",
"$2	c #464A4C",
"%2	c #434749",
"&2	c #42484B",
"*2	c #43484C",
"=2	c #3A4044",
"-2	c #2D2220",
";2	c #949594",
">2	c #343434",
",2	c #272627",
"'2	c #232424",
")2	c #818181",
"!2	c #343536",
"~2	c #373739",
"{2	c #3F4347",
"]2	c #25292D",
"^2	c #090A0C",
"/2	c #2A2D2F",
"(2	c #353231",
"_2	c #2C282A",
":2	c #2F2B2C",
"<2	c #2C2A2B",
"[2	c #2E2D2F",
"}2	c #2D3030",
"|2	c #1E1D1A",
"12	c #21201F",
"22	c #32302F",
"32	c #6B6B6B",
"42	c #2D2B2E",
"52	c #5A5B5B",
"62	c #414343",
"72	c #333536",
"82	c #323136",
"92	c #42454A",
"02	c #464647",
"a2	c #444546",
"b2	c #6D6D6E",
"c2	c #7C7B7C",
"d2	c #3D4042",
"e2	c #7C7C7C",
"f2	c #545354",
"g2	c #807F7F",
"h2	c #3B434B",
"i2	c #202526",
"j2	c #080B0A",
"k2	c #232829",
"l2	c #40403F",
"m2	c #3D3B36",
"n2	c #2C2726",
"o2	c #2C2827",
"p2	c #2F2929",
"q2	c #3B3D3C",
"r2	c #1C1D17",
"s2	c #2A2A28",
"t2	c #3C3B39",
"u2	c #3D3C3B",
"v2	c #4A4A4A",
"w2	c #1F2023",
"x2	c #1D2A2C",
"y2	c #68696B",
"z2	c #303032",
"A2	c #2F2D30",
"B2	c #2C2B2F",
"C2	c #44474C",
"D2	c #484C4F",
"E2	c #454A4A",
"F2	c #8C8D8E",
"G2	c #545456",
"H2	c #323F42",
"I2	c #394A4E",
"J2	c #34494E",
"K2	c #2F3639",
"L2	c #25292A",
"M2	c #1C2024",
"N2	c #1D2529",
"O2	c #223539",
"P2	c #223137",
"Q2	c #242C2E",
"R2	c #8B8B8C",
"S2	c #3F484F",
"T2	c #3A3A39",
"U2	c #383B3F",
"V2	c #1F2325",
"W2	c #0B0C0D",
"X2	c #35393D",
"Y2	c #3A3936",
"Z2	c #2C2826",
"`2	c #2D2928",
" 3	c #3B4141",
".3	c #3A3D3C",
"+3	c #3B3B3A",
"@3	c #373537",
"#3	c #7F7E7E",
"$3	c #252426",
"%3	c #1F1E20",
"&3	c #1E1E21",
"*3	c #21383D",
"=3	c #24444A",
"-3	c #283234",
";3	c #2B2A29",
">3	c #272727",
",3	c #606162",
"'3	c #302F31",
")3	c #505558",
"!3	c #4C5152",
"~3	c #888989",
"{3	c #2E2C2D",
"]3	c #312F2E",
"^3	c #312E2E",
"/3	c #2A2727",
"(3	c #2D2B2C",
"_3	c #254148",
":3	c #284F54",
"<3	c #2A444A",
"[3	c #2C2828",
"}3	c #282626",
"|3	c #394247",
"13	c #3F4242",
"23	c #38393B",
"33	c #3F454A",
"43	c #262A2D",
"53	c #0F100F",
"63	c #383F3F",
"73	c #3D3F43",
"83	c #292626",
"93	c #231F1F",
"03	c #2D2A29",
"a3	c #3E4040",
"b3	c #3F4445",
"c3	c #1F1E1A",
"d3	c #393936",
"e3	c #5F5F60",
"f3	c #303337",
"g3	c #2E3135",
"h3	c #1F2529",
"i3	c #22454B",
"j3	c #2A3B3E",
"k3	c #2D2C2D",
"l3	c #2E2D2D",
"m3	c #5D5E5E",
"n3	c #3F3F40",
"o3	c #3B3C3B",
"p3	c #4F5253",
"q3	c #474B4C",
"r3	c #3E4043",
"s3	c #39383B",
"t3	c #797978",
"u3	c #4F4F50",
"v3	c #4E4E4E",
"w3	c #4D4D4D",
"x3	c #575A5B",
"y3	c #5A5F61",
"z3	c #2A2E2F",
"A3	c #2C2929",
"B3	c #2A2525",
"C3	c #1F1E1D",
"D3	c #353D41",
"E3	c #3F4141",
"F3	c #4A555B",
"G3	c #2D3538",
"H3	c #0D0E0E",
"I3	c #353A3D",
"J3	c #42484D",
"K3	c #3A3D42",
"L3	c #242121",
"M3	c #2B2829",
"N3	c #1D1F1B",
"O3	c #383B3E",
"P3	c #36383C",
"Q3	c #343132",
"R3	c #2F2D2D",
"S3	c #4D4E4E",
"T3	c #737475",
"U3	c #353434",
"V3	c #38383B",
"W3	c #4C4E50",
"X3	c #3E403F",
"Y3	c #333437",
"Z3	c #393C3C",
"`3	c #171718",
" 4	c #231E1D",
".4	c #292321",
"+4	c #26221F",
"@4	c #231F1D",
"#4	c #5E5E5E",
"$4	c #5A5B59",
"%4	c #2D2D2F",
"&4	c #353633",
"*4	c #404141",
"=4	c #3E454A",
"-4	c #23282B",
";4	c #0B0C0C",
">4	c #303235",
",4	c #3A3D40",
"'4	c #1E1D1C",
")4	c #23211F",
"!4	c #272524",
"~4	c #333234",
"{4	c #333235",
"]4	c #333336",
"^4	c #2C2B2E",
"/4	c #191919",
"(4	c #4C4D4D",
"_4	c #2D2825",
":4	c #44382F",
"<4	c #4A3A31",
"[4	c #48362E",
"}4	c #42312A",
"|4	c #252221",
"14	c #222020",
"24	c #211F20",
"34	c #57595A",
"44	c #323131",
"54	c #323231",
"64	c #30302F",
"74	c #353437",
"84	c #343336",
"94	c #2E2E2E",
"04	c #282627",
"a4	c #191714",
"b4	c #1B1A18",
"c4	c #1B1A1C",
"d4	c #181A1A",
"e4	c #222221",
"f4	c #242422",
"g4	c #262523",
"h4	c #262425",
"i4	c #282726",
"j4	c #1A1B1A",
"k4	c #1A1A1C",
"l4	c #1C1C1C",
"m4	c #1B1B1B",
"n4	c #1E1D1B",
"o4	c #22201E",
"p4	c #252423",
"q4	c #292725",
"r4	c #A7A7A7",
"s4	c #AAABAB",
"t4	c #1E1E1E",
"u4	c #181819",
"v4	c #222323",
"w4	c #262625",
"x4	c #242123",
"y4	c #252324",
"z4	c #262525",
"A4	c #232223",
"B4	c #222222",
"C4	c #1F1E1E",
"D4	c #1A1A1A",
"E4	c #18191A",
"F4	c #161919",
"G4	c #151816",
"H4	c #141615",
"I4	c #151616",
"J4	c #171515",
"K4	c #161614",
"L4	c #171717",
"M4	c #161717",
"N4	c #161716",
"O4	c #171817",
"P4	c #181716",
"Q4	c #191B19",
"R4	c #141514",
"S4	c #151516",
"T4	c #141616",
"U4	c #141715",
"V4	c #151614",
"W4	c #151517",
"X4	c #161619",
"Y4	c #171819",
"Z4	c #1F1D1E",
"`4	c #242224",
" 5	c #262524",
".5	c #232122",
"+5	c #221F20",
"@5	c #201F1F",
"#5	c #20211F",
"$5	c #1F201F",
"  . + @ # $ % & * = - ; > , ' ) ! ~ { ] ^ / ( _ : < [ } | 1 2 3 4 5 6 7 8 9 0 a b c d e f g h i j k l m n o p q r s t u v w x y ",
"z A B C D E F G H I J K L M N O P Q R S T U V W X Y Z `  ...+.3 @.#.$.%.&.*.=.-.;.>.,.'.).!.~.{.].^./.(.3 _.:.<.[.}.|.1.2.> 3.4.",
"5.6.7.8.9.0.a.b.c.d.e.f.g.h.i.j.k.l.m.n.o.p.q.r.Z s.t. .u.v.w.x.y.z.A.B.C.D.E.F.G.H.I.J.K.L.M.N.O.P.Q.R.S.T.U.V.W.X.Y.Z.`. +.+++",
"@+#+$+%+&+*+=+-+$+;+>+,+'+)+9.!+~+{+R ]+^+/+(+_+:+~+<+[+}+|+1+2+3+4+5+6+7+8+9+0+a+b+c+d+e+f+g+h+i+j+k+l+m+n+o+p+#+Y.q+r+s+t+u+v+",
"w+x+y+z+A+B+C+D+E+F+G+H+I+J+K+L+M+N+O+P+Q+R+S+T+U+V+U+W+X+Y+Z+`+3+ @.@+@@@#@$@%@&@*@=@-@;@>@,@'@)@!@~@{@]@! ^@/@(@_@:@<@[@}@|@1@",
"2@3@4@5@6@7@8@9@0@a@b@c@d@e@f@g@h@i@j@k@l@m@n@o@o@V+p@q@r@s@t@u@v@w@x@y@z@A@B@C@D@E@F@G@H@I@J@K@L@M@N@O@P@Q@R@S@T@U@V@W@X@Y@Z@`@",
" #.#+#@###$#%#&#D+W *#=#-#;#>#,#'#)#Y@!#~#{#]#^#t.M /#(#_#:#<#[#}#|#1#2#3#4#5#6#7#8#9#0#a#b#c#d#e#f#g#h#i#j#k#l#m#n#o#p#q#r#s#t#",
"u#v#w#D+x#y#z#A#B#e@C#D#E#F#G#H#I#J#K#L#M#N#O#P#Q#R#S#T#U#V#W#X#Y#Z#`# $.$+$@$#$$$%$&$*$=$-$;$>$,$'$)$!$,+~${$]$^$/$($_$:$<$[$}$",
"|$1$w#2$3$4$-+5$6$7$L+8$9$0$w a$U+b$c$d$e$f$g$h$i$j$k$l$m$n$o$p$q$r$s$t$u$v$w$x$y$z$A$B$C$D$E$F$G$H$I$J$K$L$M$N$O$P$N$Q$R$S$T$U$",
"V$W$X$Y$Z$`$ %.%+%@%#%$%%%&%*%=%-%;%>%,%'%)%!%~%{%]%^%/%/%(%_%:%<%[%}%|%1%2%3%4%5%6%7%8%9%0%a%b%c%d%e%f%g%h%i%j%k%l%g%m%n%o%p%q%",
"U.r%s%t%u%v%w%x%y%z%A%B%C%D%E%F%G%H%I%J%K%L%M%N%O%P%Q%R%S%T%U%V%W%X%Y%Z%`% & &.&+&@&#&$&%&&&*&=&-&;&>&,&d%'&)&!&~&{&]&^&/&(&_&:&",
"<&[&}&|&1&c.2&3&..4&5&6&7&8&9&0&a&b&c&d&e&f&g&h&i&j&k&l&m&n&o&p&q&r&s&Y%t&u&T v&w&x&y&z&A&B&C&D&E&F&G&H&;&I&J&K&L&M&N&O&P&Q&>%R&",
"S&T&U&V&$+W&X&Y&Z&`&6. *.*+*@*#*$*%*&***=*-*;*>*,*'*)*!*~*{*]*^*q&/*(*_*:*L$<*[*}*Q+|*1*2*3*4*5*6*7*8*9*0*a*b*c*d*e*f*g*h*i*j*k*",
"l*m*n*n*o*p*q*r*s*t*u*v*w*x*y*z*A*B*C*D*E*F*G*H*I*J*K*L*M*N*Z%`%O*P*Q*R*S*[*Z+T*U*I+V*v W*X*Y*Z*`* =.=+=@=#=$=%=&=*===-=;=>=,='=",
")=!=3.~=v%{=G*]=^=/=(=v*_=:=C#<=[=}=|=1=2=3=4=5=6=7=8=9=0=a=b=c=d=e=f=g=h=i=j=.+k=k=l=m*m=n=o=p=q=r=s=t=u=v=w=x=y=z=A=B=C=D=E=F=",
"G=H=I=-+7.k=o*}+J=K=L=M=N=O=P=Q=R=S=R$T=U=V=W=X=Y=Z=`= -.-+-@-#-$-<=%-!%&-*-=---;-t.>-l=,-'-)-!-~-y={-]-^-/-(-_-:-<-[-w=}-|-1-2-",
"3-4-5-6-7-8-9-0-Y@5&a-b-c-d-e-f-g-h-i-j-k-l-m-n-k=o-p-q-r-s-t-u-v-w-x-y-z-A-B-C-D-E-F-G-H-I-7*r=J-K-L-M-N-O-P-Q-D&R-S-T-7*s=U-V-",
"W-X-Y-Z-`- ;.;+;@;4&#;$;%;&;*;=;-;;;>;H&+&,;';A%7.);!;~;{;];^;/;(;_;:;<;[;};|;1;2;3;4;5;6;7;8;9;0;a;b;c;N-d;e;f;g;h;F&i;j;5*w=k;",
"l;m;n;o;p;q;r;s;t;u;6$M=v;w;x;y;z;S.j%c@A;B;C;D;E;F;G;H;H;I;J;K;L;M;N;O;P;Q;R;S;T;U;V;W;X;Y;Z;`; >]-.>+>@>#>$>%>&>*>A&=>->9;;>>>",
"n+,>v.,-'>)>m*!>~>{>]>M=N=^>R />(>_>:><>[>}>|>1>2>3>4>5>6>7>8>9>0>a>b>c>d>e>f>g>h>i>j>k>l>m>n>o>p>q>r>s>t>u>v>F&w>j-x>5*y>z>A>B>",
"C>D>E>F>G>H>I>^$J>K>L>M=M>N>O>P>Q>R>S>T>U>V>W>X>Y>Z>`> ,.,+,@,#,$,%,&,*,=,-,;,>,,,',),!,~,{,],^,/,(,_,:,x><,[,},l%|,1,7*2,3,4,5,",
"6,7,V&8,.;9,1&0,a,b,c,d,e,f,R>g,h,i,j,S.k,{#l,m,n,o,p,q,r,s,t,u,v,w,x,y,z,A,B,C,D,E,F,G,w.H,I,J,K,L,M,N,O,w>P,Q,R,S,-$T,U,V,W,S,",
"X,r.9,Y,Z,`, '.'+'@'&+#'j-!#>;h,$'%'&')&2=*'='-';'>','@-'')'!'~'{']'^'/'('_':'<'['}'|''+1'T 2'3'4'5'6'7'c%8'9'0'a'b'c'd'e'f'g'h'",
"H=o;i'j'7-k'l'm'n'o'p'#'q'r's't'u'v'c-w'x'y'z'm,A'>'B'A;P+C'D'E'F'G'H'I'J'K'L'M'g*N''%O'P'Q'R'S'T'U'V'W'X'Y'Z'`' ).)+)@)#)$)%)&)",
"*)E>=)-);)F>>)V&,)')))t>!)R,d%~){)])^)/)()_):)<)[)})|)1)2)3)4)5)6)7)8)9)0)a)b)c)d)e)f)'%g)h)i)j)k)l)m)n)o)p)q)r)s)t)u)v)w)8*x)T-",
"y)7.z)A).;A)B)=)C)D)J=E)F)G)H)I)J)E*K)L)M)N)G#O)P)Q)R)S)P+T)3)['U)V)W)X)Y)H;b)Z)`)f)f) !.!+!@!#!$!%!&!*!=!-!;!>!,!'!)!!!~!{!]!5*",
"0.^!_+0-/!(!V&(!_!:!&-<![!}!|!1!2!3!3!t>4!5!L>9#6!7!8!9!0!a!b)b!$*c!d!e!f! ,g!h!i!j!k!l!m!n!;!H$o!n!p!q!r!s!t!u!v!w!x!y!z!A!4,B!",
"C!*#D!/$W 5-9-E!0,F!G!<!H!I!1=J!j-K!])1=1'L!M!N!O!P!Q!R!S!T!U!V!Z=W!X!I%%-Y!Z!i)`! ~.~+~@~#~$~%~&~*~r#=~-~!&;~>~%'l.,~'~)~;=!~}!",
"0.^!~~{~]~^~/~k'i'(~_~:~*$f*d%<~[~i%]+}~|~1~v.2~3~4~5~6~7~8~9~0~a~b~c~d~O'e~T*j!f~g~h~i~j~k~l~m~n~o~p~ +q~r~s~t~u~k@v~w~x~f!y~z~",
"A~B~C~D~E~F~G~.'D~H~I~J~K~L~i;M~t>N~O~P~Q~R~S~T~U~V~W~X~Y~Z~`~ {.{+{@{#{${%{&{*{={-{;{>{,{'{){!{~{{{0$%{]{^{/{({_{:{<{[{}{|{1{2{",
"3{l'k'H~4{5{6{7{8{6{9{0{a{b{c{d{e{f{g{h{i{j{k{l{e$m{n{o{p{q{r{s{t{u{v{f=w{x{y{z{A{B{C{D{E{F{G{H{I{J{K{L{M{N{O{P{Q{R{S{, T{U{V{n-",
"W{A.X{R.Y{Z{`{ ].]Z{+]@]#]$]%]&]a@*]=]-];]>],]']O&)]!]~]{]]]^]/](]_]:]<][]}]|]1]2]w.3]4]5]6]7]8]9]0]a]b]c]d]e]f]g]h]i]j]x!k]l]m]",
"n]o]p]q]r]s]t]u]v]w]x]y]z]A]B]C]D]t#E]F]G]H]I]J]K]E+L]M]N]O]P]Q]R]S]S!T]U]V]|'W]R>X]Y]Z]`] ^x].^+^@^k=#^$^%^&^*^<==^P,-^;^e~>^M>",
",^'^`{)^!^~^{^]^^^/^(^_^C=:^<^2!M=[^}^h%T |^q.1^2^6{3^i)4^5^6^7^V]8^9^0^a^b^c^}'O&d^e^f^g^h^i^j^k^l^m^n^c]o^p^q^r^s^t^u^v^w^x^y^",
"z^A^B^C^D^E^F^G^H^I^J^K^L^M^#]N^O^P^t~~)Q^R^S^T^U^V^'+W^X^Y^Z^`^ /./+/@/#/$/%/&/*/-@g)V!=/-/;/>/,/'/v+f=)/!/~/{/]/^///(/a@F+_/$+",
":/</[/}/|/1/h^</2/3/4/5/6/7/a{8/9/0/a/b/c/y*d/e/f/g/I%a!h/i/+/j/k/l/m/n/o/&{i!p/c)q/r/s/c)t/u/v/w/x/y/<]z/A/B/C/-#D/E/F/G/H/c.W ",
"I/J/K/L/M/N/O/+@P/Q/R/S/T/U/L~V/W/d%X/Y/Z/`/ (i-.(+(@(x'#($(%(&(*(h!=(-(;(K!K!>(,(P '(P+)(!(~({(](^(/(((_(:(<([(}(,/|(1(2(M c.G!",
"3(4(5(6(7(8(g#9(0(a(b(c(C&d(e(f(g(h(i(@=j(k(l(m(n(o(p(q(`=r(1+s(%(h!;(t(u(v(w(x(M'y(z('(A(B(C(D(E(F(v{j*G(H(I(J(K(L(M(N(.+u.O(X ",
"P(Q(R(S(T(U(V(W(X(Y(Z(`( _._+_@_#_$_%_&_:>,=R=|]*_=_-_;_$*}'>_,_'_)_c)K!u(v(!_!_~_{_7&L'-@v(> ]_^_/_0]'+(___:_d)^(<_<_[_}_2(n*` ",
"|_1_B.2_3_4_5_6_7_r]8_9_F$0_a_b_c_N,d_e_f_g_h_i_j_k_l_P#2=m_<*>_n_o_m(s/v(u(;(K!p_q_r_s_s(e_N&t_9@u_v_w_x_y_z_A_B_C_D_,)E_F_` t#",
"G_H_I_J_K_L_,/M_N_ ;O_P_B]t=N,Q_R_)&S_T_U_=/V]V_W_X_Y_Z_`_ :O$.:=/s(+:@:v(;(;(#:K!$:%:/_&:*:>(N =:-:;:_]>:,:':):m'!:~:{:G/> ]:f{",
"^:/:(:_:::&~^ <:[&[:}:|:C$1:2:a_3:4:c-R .:5:6:h_h_7:8:9:P# :}'L$.:0:a:s(s/K!d_v(K%e_b:c:d:e:f:[&g:h:O=i:j:k:l:m:n:W o:c.T+Y@p(r#",
"p:E~q:r:s:t:O+u:U@v:w:x:6/h;y:z:A:B:C:D:E:'_5)F:5)G:H:I:J:K:L:L$L$O$T*L's(m(K!v(K%M:o_N:O:P:Q:R:S:T:U:V:W:X:Y:w:Z:M()>`: <.<+<@<",
":/R.#<$<$<%<O_9{&<*<=<-<;<k;M~><,<'<,~)<f:b)!<F:`)~<{<]<}@+&z*}'}'O'e=^</<'()_#:(<c)'__<:<<<@:w(Q:[<}<|<1<2<3<4<5<.+E>6<7<8<9<8,",
"0<a<b<c<d<e<f<g<4<h<H~i<j<k<h'l<m<n<o<p<q<r<;~;~w(|'s<t<u<v<+&w<x<${y<L$z<'(%'A<K!A(c)k.B<+]L'P+C<D<E<F<G<H<I<J<g_K<L<s#M<<_~:8<",
"N<O<I_V^P<Q<R<S<T<U<V<W<X<Y<Z<`<w:s# [p<.[;~C<V_f)>~+[@[#[$[v<[(%[&[x<g=L$}*s(*:Q:@:K!A(%:*[[=*:x(=[-[<*;[>[,['[k'Y )[> ![~[x+ +",
"{[][^[}//[([_[:[<[6([[}[|[1[2[3[4[5[6[7[N&8[8[9[F:9[0[a[b[c[>+d[d[%[e[1'g=}'f[g[a:h[m(A(**i[j[o_@:x(A<k[P^l[m[n[c[^$o[0-p[q[*#r[",
"s[t[u[{^v[w[x[y[z[A[B[C[D[E[4)F[v<G[H[K!s/2)x(Z)=[I[J[K[L[M[o@N[O[J:P[m_v&v&v&'+P'0:T*o_N&Q[R[S[T*o_m(0!T[U[V[Z-W[*;z)X[Y[/$_+Z[",
"`[ }.}F^+}5_@}#}$}>[%}&}*}=}-};}>},}'}v(s/>()}s/V_!}>~~}{}]}^}v_/}(}P[R'_}^ v&U*:}<}A*T*n_'~[}}}|}n_-@!_#:1}[$2}3})[)[4}5},)q[O=",
"6}7}8}9}0}a}b}c}d}e}f}g}h}i}j}k}l}m}W_(<n}c)c)'%!(`!>~o}p}q} .--(}d[r}3^R'^ R'^ x<<<0:&:s}t}>^u}v}w}m((<!(D<x}~:y}z}p(W A}G/B}C}",
"D}E}F}G}D+U_|}9,x;i'H}I}J}K}~$L}M}N}x.i_O}O}>(M'w(i_q[P}Q}R}S};-*-s;.<Q=T}Q^3^R'm_L$Z+&:=/C%U}5[V}W}h,p_X}!&Y}u.m#a,~:{:.+Z}`} |",
".|+|~;@|`-#|$|%|Y <_&|*|=|X(.!6$-|;|>|,|'|)|i_!|~|{|]|^|/|(|_|:|`_<|[|}|||2'T 2=m_1'<*<}<<1|2|E'3|u]4|5|6|)&7|8|o'E>G/X[9|0|a|b|",
"c|O ~~d|e|d|f|j'F>g|h|i|j|k|l|m|n|o|p|q|b]a)r|i)s|/|t|x+^|u|v|w|x|y|z|+;O_A|Q^K:^ v&B|1|<<<}<}C|D|X{E|F|G|H|I|J|Z_;-s;X[Q}Y[t./|",
"7|8|K|{|N o;L|U@9:`$$+M|h'N|O|P|>_Q|R|S|T|U|V|W|X p;V&r.a|H%X|Y|Z|`|B)7- 1%[.1+1e!@1#1$1%1&1*1=1-1;1>1,1'1)1!1> --t.t.Y a|9|_+Y[",
"~1{1..m#1.9&]1^1/1^1(1_1:1<1#}[1}1|111t(`+2+21A}Y@31G!:+}@4151=!G/61[&`,71819101a1b1c1d1e1f1g1h1i1b!j1k1l1m1n1o10-I>/!p1q1b|[_r1",
"s1x t1B+A~;#u1v1w1x1y1<>z1A1/$P$B1C1.*D1F_E1F1r.G1H1<_w^w^I1J1K1 |L1c[M1,~p(||V*N1O1P1Q1R1I>S1T1U1V1W1X1Z)C<Y1Z1W q[`1X +& 2:|.2",
"x +2@2#2F )+$2%2&2*2=2i_-2;2%'>2o1,2'2w~)2U{z%/~G!e-!2s#~2{2]2^2/2~[[@(2I&_2:2<2[2x<}2|212m]2232R1,(N$42g[9[c)I+52c.62E_72I%:|82",
"G=92H=c.'>02a2b2c2d2e2f2e_!(m1T}x;'2c)h)g2h2;%E_o;W Y@/$D!G*i2j2k2:|l2m2n2o2p2w!P>q2Z[r2s2n:t2u2O(v2f{G!11x(w2x2'%y25&F_^(z2A2B2",
"C2D2E2)>F2G2J:H2I2J2K2J(L2M2N2O2P2Q2'(5:R2S2C#T2e-@^D!O=o~U2V2W2x'X2)>Y2o2Z2`2e{+& 3.36&K'+3+3@3#3$3Q:%3&3*3=3-3;3>3,3L<2.'3g]E#",
")3!34&5}~3{3K']3^3P P /3(3t-_3:3<3d~[3}3s.|313z}D_)[D!q[2333435363z'73N'839303a3X&b3;:c3k.x;d3e3>%f3g3w{h3i3j3k3l3s_^$m3n3~2o3![",
"p3q3r3s3a3c&t3u3{|v3w30-'>x3y3z3A3o2B3C3N~D3.#p(T}Y@X[E3v.F3G3H3I3J3K3Y@m]L3M3D;X,X&Z_N3&:D]T+O3P#P3t+Q3R3||F+S3)[T3P$U331V3A}G!",
"W3&+v%O(X3;-Y3.3Z3T+`_`3 4.4+4@4#4$4m#D]s(d!%4P &4|<F+*4K|=4-4;4>4,4K#z('4)4!4~4{4]4^4/4(4_4:4<4[4}4|4142434.<4454k3k364t#74~284",
"^>z2P$94w}N$04;=04>=f:,+[^i%h%|!p)a4b4)&c4d4K%e4f4g4h4i4i4m1j4-!k4#:l4m4/4t~n4o424>;c4S.K%; p4q4x!r4s4t4u4e_v4k@w4k@x4y4S=v;z4A4",
"v~v~'~B4t4#:K!C4l4D4E4F4G4H4I4y!J4K42!L4M4I4N4O4P4y!N4N4,+L4Q4_1P^R4N^S4I4T4U4V4P^:&W4X4Y4_&J)121224Z4N&**v~-@`4 5h4.5),+5@5#5$5"};
