/* XPM */
static char * wall_xpm[] = {
"64 64 3133 2",
"  	c #121413",
". 	c #110F0C",
"+ 	c #0D0A09",
"@ 	c #070604",
"# 	c #0C0A08",
"$ 	c #120F0C",
"% 	c #110E0B",
"& 	c #080503",
"* 	c #040302",
"= 	c #0A0705",
"- 	c #0F0C09",
"; 	c #100C0B",
"> 	c #0E0A0A",
", 	c #120F0D",
"' 	c #130E0B",
") 	c #14100B",
"! 	c #16120D",
"~ 	c #14100D",
"{ 	c #110D0C",
"] 	c #151110",
"^ 	c #12100F",
"/ 	c #100E0C",
"( 	c #13110D",
"_ 	c #15110D",
": 	c #15120D",
"< 	c #16130E",
"[ 	c #191410",
"} 	c #181310",
"| 	c #15140F",
"1 	c #14120F",
"2 	c #1B1812",
"3 	c #1B1610",
"4 	c #1A1412",
"5 	c #1C1512",
"6 	c #1E1613",
"7 	c #1F1814",
"8 	c #1A1512",
"9 	c #171312",
"0 	c #191715",
"a 	c #1B1714",
"b 	c #191513",
"c 	c #1A1411",
"d 	c #171310",
"e 	c #191610",
"f 	c #1C1812",
"g 	c #16120F",
"h 	c #131010",
"i 	c #11100F",
"j 	c #11100E",
"k 	c #171513",
"l 	c #232121",
"m 	c #1F1E21",
"n 	c #232324",
"o 	c #232221",
"p 	c #1B191A",
"q 	c #131313",
"r 	c #0E0E0F",
"s 	c #1C1917",
"t 	c #3A332A",
"u 	c #3A2F27",
"v 	c #2E241F",
"w 	c #191A17",
"x 	c #0F0D0B",
"y 	c #0C0A0A",
"z 	c #141312",
"A 	c #1E1E1E",
"B 	c #2A2927",
"C 	c #292826",
"D 	c #1E1D1D",
"E 	c #1D1C1D",
"F 	c #1F1E1E",
"G 	c #252322",
"H 	c #1E1E1D",
"I 	c #1D1D1D",
"J 	c #21201F",
"K 	c #242120",
"L 	c #292724",
"M 	c #2B2928",
"N 	c #222220",
"O 	c #131310",
"P 	c #171715",
"Q 	c #262526",
"R 	c #302F2F",
"S 	c #2E2D2B",
"T 	c #2D2B27",
"U 	c #2F2E2B",
"V 	c #343330",
"W 	c #363432",
"X 	c #333230",
"Y 	c #323230",
"Z 	c #2E2F2E",
"` 	c #2D2E2D",
" .	c #32312E",
"..	c #2E2C29",
"+.	c #2F2C2B",
"@.	c #35322F",
"#.	c #363331",
"$.	c #33322F",
"%.	c #2E2D2D",
"&.	c #302E2D",
"*.	c #2D2926",
"=.	c #292623",
"-.	c #2B2825",
";.	c #2C2928",
">.	c #2C2B27",
",.	c #2D2A28",
"'.	c #2A2726",
").	c #2B2929",
"!.	c #272626",
"~.	c #1E1C1C",
"{.	c #201E1D",
"].	c #2A2828",
"^.	c #292727",
"/.	c #272625",
"(.	c #252523",
"_.	c #1C1B1C",
":.	c #191A19",
"<.	c #131312",
"[.	c #2C2721",
"}.	c #2E2420",
"|.	c #291F1E",
"1.	c #181816",
"2.	c #111011",
"3.	c #1C1C1D",
"4.	c #2B2C2C",
"5.	c #343536",
"6.	c #3D3E3D",
"7.	c #383838",
"8.	c #333233",
"9.	c #323233",
"0.	c #333436",
"a.	c #343638",
"b.	c #353838",
"c.	c #2F3131",
"d.	c #2C2D2D",
"e.	c #343433",
"f.	c #393839",
"g.	c #3E3D3D",
"h.	c #383738",
"i.	c #21211F",
"j.	c #1A1B18",
"k.	c #2C2C2E",
"l.	c #393B3D",
"m.	c #3B3C3C",
"n.	c #393A39",
"o.	c #404242",
"p.	c #434646",
"q.	c #444747",
"r.	c #454849",
"s.	c #404546",
"t.	c #3F4346",
"u.	c #414546",
"v.	c #373838",
"w.	c #353232",
"x.	c #413E3D",
"y.	c #42413F",
"z.	c #424142",
"A.	c #414043",
"B.	c #424544",
"C.	c #474748",
"D.	c #434142",
"E.	c #2E2B29",
"F.	c #2D2C28",
"G.	c #353332",
"H.	c #3A393A",
"I.	c #343535",
"J.	c #2F2F2F",
"K.	c #323131",
"L.	c #363535",
"M.	c #3D3B3A",
"N.	c #3A3938",
"O.	c #31302F",
"P.	c #312F2D",
"Q.	c #32302F",
"R.	c #363434",
"S.	c #2C2A2B",
"T.	c #2B2A29",
"U.	c #252424",
"V.	c #252625",
"W.	c #131315",
"X.	c #0B0B0A",
"Y.	c #1C1714",
"Z.	c #2F2522",
"`.	c #2C2321",
" +	c #1D1F21",
".+	c #2D2F32",
"++	c #2E3134",
"@+	c #2F3133",
"#+	c #2B2A2A",
"$+	c #2F2E2F",
"%+	c #363739",
"&+	c #37393C",
"*+	c #323435",
"=+	c #2D2D2D",
"-+	c #282826",
";+	c #323231",
">+	c #393838",
",+	c #413F3E",
"'+	c #3C3B3C",
")+	c #353636",
"!+	c #22211F",
"~+	c #131311",
"{+	c #222323",
"]+	c #303131",
"^+	c #3C3D3E",
"/+	c #393D3F",
"(+	c #393B3E",
"_+	c #3B3E40",
":+	c #3A3F3F",
"<+	c #3E4142",
"[+	c #3F4040",
"}+	c #332D2C",
"|+	c #29211F",
"1+	c #322D29",
"2+	c #393533",
"3+	c #403C3C",
"4+	c #3C393A",
"5+	c #39393A",
"6+	c #383536",
"7+	c #1F1D1A",
"8+	c #242420",
"9+	c #353432",
"0+	c #37383A",
"a+	c #2F3132",
"b+	c #2B2C2E",
"c+	c #2F3031",
"d+	c #343232",
"e+	c #3A3736",
"f+	c #3C3A38",
"g+	c #333131",
"h+	c #282628",
"i+	c #292729",
"j+	c #262427",
"k+	c #2A2829",
"l+	c #292728",
"m+	c #212222",
"n+	c #0B0C10",
"o+	c #040404",
"p+	c #161311",
"q+	c #29221E",
"r+	c #281F1D",
"s+	c #181819",
"t+	c #121214",
"u+	c #242527",
"v+	c #2F3336",
"w+	c #2C2F32",
"x+	c #313133",
"y+	c #2B2B2C",
"z+	c #353837",
"A+	c #343739",
"B+	c #313334",
"C+	c #292A2A",
"D+	c #282626",
"E+	c #211D1F",
"F+	c #262324",
"G+	c #393636",
"H+	c #343333",
"I+	c #333335",
"J+	c #2D2D2F",
"K+	c #1F1F20",
"L+	c #22221F",
"M+	c #3C3F3D",
"N+	c #3A3C3D",
"O+	c #38383A",
"P+	c #3B3B3B",
"Q+	c #3F403E",
"R+	c #393837",
"S+	c #383330",
"T+	c #2B2621",
"U+	c #2B2721",
"V+	c #34302E",
"W+	c #423F3C",
"X+	c #403E3B",
"Y+	c #3B3B3A",
"Z+	c #343332",
"`+	c #201D1C",
" @	c #1F1B1A",
".@	c #343131",
"+@	c #3D3D3C",
"@@	c #363736",
"#@	c #3F3E3D",
"$@	c #3D3B38",
"%@	c #3D3A39",
"&@	c #383635",
"*@	c #2E2C2C",
"=@	c #282726",
"-@	c #20211F",
";@	c #242323",
">@	c #1C1C1B",
",@	c #08090C",
"'@	c #020304",
")@	c #121010",
"!@	c #201B1A",
"~@	c #251E1C",
"{@	c #141414",
"]@	c #080605",
"^@	c #0F100E",
"/@	c #1C1D1F",
"(@	c #2A2A2E",
"_@	c #343435",
":@	c #2E2E2E",
"<@	c #2C2B2C",
"[@	c #2F2E30",
"}@	c #2E2E2F",
"|@	c #282929",
"1@	c #262525",
"2@	c #2A2A29",
"3@	c #2B2A2B",
"4@	c #2C2D2F",
"5@	c #323234",
"6@	c #3B3B3C",
"7@	c #373637",
"8@	c #353435",
"9@	c #353437",
"0@	c #373739",
"a@	c #242321",
"b@	c #22211D",
"c@	c #282A28",
"d@	c #333535",
"e@	c #353536",
"f@	c #3A3B39",
"g@	c #43433F",
"h@	c #3F3F3B",
"i@	c #343331",
"j@	c #302F2C",
"k@	c #34302F",
"l@	c #3D3938",
"m@	c #333031",
"n@	c #2C2B29",
"o@	c #211E1C",
"p@	c #232021",
"q@	c #353433",
"r@	c #363235",
"s@	c #3F3C3C",
"t@	c #3D3A36",
"u@	c #312F2F",
"v@	c #2C292A",
"w@	c #2A2929",
"x@	c #232224",
"y@	c #1F2020",
"z@	c #1B1C1D",
"A@	c #1A1A1A",
"B@	c #09080A",
"C@	c #0B0B0C",
"D@	c #1D1B1B",
"E@	c #272321",
"F@	c #2B2421",
"G@	c #121212",
"H@	c #060606",
"I@	c #080706",
"J@	c #0B0C0B",
"K@	c #232424",
"L@	c #343533",
"M@	c #2B2B2A",
"N@	c #29292A",
"O@	c #2A292A",
"P@	c #28272A",
"Q@	c #282829",
"R@	c #2E2D2C",
"S@	c #323132",
"T@	c #2B2D2F",
"U@	c #303334",
"V@	c #393A3B",
"W@	c #414141",
"X@	c #3B3A3B",
"Y@	c #373737",
"Z@	c #353639",
"`@	c #38393C",
" #	c #3D3E3E",
".#	c #3D3C3D",
"+#	c #292726",
"@#	c #181514",
"##	c #212124",
"$#	c #2E2E31",
"%#	c #383A3B",
"&#	c #3F3F3F",
"*#	c #373839",
"=#	c #3C3B38",
"-#	c #3D3D3A",
";#	c #434340",
">#	c #383737",
",#	c #363536",
"'#	c #3F3D3D",
")#	c #403F40",
"!#	c #242222",
"~#	c #1C1819",
"{#	c #222121",
"]#	c #32312F",
"^#	c #312E2E",
"/#	c #363433",
"(#	c #302E2F",
"_#	c #313030",
":#	c #2D2B2B",
"<#	c #303030",
"[#	c #2D2C2F",
"}#	c #2F3032",
"|#	c #242526",
"1#	c #1C1E1E",
"2#	c #1C1D1D",
"3#	c #0F1011",
"4#	c #060608",
"5#	c #0F0F10",
"6#	c #312E2B",
"7#	c #312E2A",
"8#	c #121213",
"9#	c #050507",
"0#	c #050505",
"a#	c #10110F",
"b#	c #2F3030",
"c#	c #303130",
"d#	c #28292B",
"e#	c #292A2E",
"f#	c #353839",
"g#	c #35383B",
"h#	c #383C3C",
"i#	c #393E3E",
"j#	c #333638",
"k#	c #343839",
"l#	c #36383B",
"m#	c #3A3C3F",
"n#	c #373C3F",
"o#	c #3A3E40",
"p#	c #37393D",
"q#	c #343437",
"r#	c #1B1B1C",
"s#	c #0D0E0B",
"t#	c #131512",
"u#	c #313433",
"v#	c #444B4C",
"w#	c #3E4447",
"x#	c #3B3F41",
"y#	c #3D4041",
"z#	c #393B39",
"A#	c #38393B",
"B#	c #3A3B3D",
"C#	c #3D3F3F",
"D#	c #424343",
"E#	c #3C3C3F",
"F#	c #36393A",
"G#	c #2D2F2D",
"H#	c #1E1D1B",
"I#	c #1E1F1C",
"J#	c #262625",
"K#	c #373736",
"L#	c #3A3B3A",
"M#	c #353738",
"N#	c #313436",
"O#	c #2A2D2F",
"P#	c #2C3031",
"Q#	c #323637",
"R#	c #393C3D",
"S#	c #2E3031",
"T#	c #272829",
"U#	c #1F2022",
"V#	c #0C0E0F",
"W#	c #010203",
"X#	c #0C0C0D",
"Y#	c #2B2626",
"Z#	c #191819",
"`#	c #0A0A0B",
" $	c #0A0D0B",
".$	c #050506",
"+$	c #050404",
"@$	c #151315",
"#$	c #2D2E2F",
"$$	c #363938",
"%$	c #3A3F3D",
"&$	c #31363A",
"*$	c #30353B",
"=$	c #353C40",
"-$	c #343B40",
";$	c #3C4443",
">$	c #394140",
",$	c #383E3E",
"'$	c #363E3E",
")$	c #394243",
"!$	c #394244",
"~$	c #394143",
"{$	c #404848",
"]$	c #3D4446",
"^$	c #3D4346",
"/$	c #3E4646",
"($	c #2D3435",
"_$	c #161816",
":$	c #0D0C09",
"<$	c #1E2120",
"[$	c #3D4547",
"}$	c #3B4448",
"|$	c #434948",
"1$	c #404545",
"2$	c #3A3E3F",
"3$	c #313638",
"4$	c #353A3D",
"5$	c #3E4344",
"6$	c #454B4A",
"7$	c #494E4E",
"8$	c #404446",
"9$	c #404747",
"0$	c #3A4140",
"a$	c #1E1F20",
"b$	c #121111",
"c$	c #171617",
"d$	c #2B2D2C",
"e$	c #3C413E",
"f$	c #3F4542",
"g$	c #3E4545",
"h$	c #353A3E",
"i$	c #2D3239",
"j$	c #2D3338",
"k$	c #2C3134",
"l$	c #2F3335",
"m$	c #2E3132",
"n$	c #262729",
"o$	c #1A1C1D",
"p$	c #0A0B0C",
"q$	c #101111",
"r$	c #2D2C2C",
"s$	c #2E2B2B",
"t$	c #2F2A2A",
"u$	c #212120",
"v$	c #0E0D0D",
"w$	c #080908",
"x$	c #040405",
"y$	c #0A0B09",
"z$	c #353939",
"A$	c #34373A",
"B$	c #363839",
"C$	c #363338",
"D$	c #38363D",
"E$	c #3A3A42",
"F$	c #383A42",
"G$	c #3B4044",
"H$	c #3B4043",
"I$	c #3F4445",
"J$	c #3E4546",
"K$	c #3B4346",
"L$	c #384247",
"M$	c #384046",
"N$	c #3C4348",
"O$	c #40474B",
"P$	c #3F454A",
"Q$	c #41464B",
"R$	c #3D444A",
"S$	c #384044",
"T$	c #2D3434",
"U$	c #272826",
"V$	c #2C2A28",
"W$	c #393B3F",
"X$	c #3E3F44",
"Y$	c #3C3F40",
"Z$	c #3D3F41",
"`$	c #3E4041",
" %	c #3C3E40",
".%	c #3E4043",
"+%	c #3E4044",
"@%	c #414448",
"#%	c #45474C",
"$%	c #3E4046",
"%%	c #3D3F45",
"&%	c #393C41",
"*%	c #2A2629",
"=%	c #1C0F0E",
"-%	c #1D0F0D",
";%	c #2F2624",
">%	c #3D3838",
",%	c #3A3639",
"'%	c #403C40",
")%	c #3C383D",
"!%	c #3B353C",
"~%	c #373239",
"{%	c #2E2D31",
"]%	c #2F3235",
"^%	c #2E3335",
"/%	c #191D1E",
"(%	c #0A0D0E",
"_%	c #070609",
":%	c #060609",
"<%	c #131413",
"[%	c #2E2B2A",
"}%	c #322E2C",
"|%	c #292828",
"1%	c #121110",
"2%	c #030404",
"3%	c #0F0F0F",
"4%	c #252928",
"5%	c #31393C",
"6%	c #2C353F",
"7%	c #364C52",
"8%	c #2D6E6F",
"9%	c #297E7D",
"0%	c #2C7B7E",
"a%	c #2F757B",
"b%	c #317378",
"c%	c #337476",
"d%	c #377675",
"e%	c #377475",
"f%	c #357176",
"g%	c #346F75",
"h%	c #357075",
"i%	c #367377",
"j%	c #377579",
"k%	c #38787C",
"l%	c #39757D",
"m%	c #33727C",
"n%	c #2D727A",
"o%	c #266E78",
"p%	c #267178",
"q%	c #2B7379",
"r%	c #2E7177",
"s%	c #31757B",
"t%	c #347B81",
"u%	c #307A7E",
"v%	c #317A7F",
"w%	c #337C83",
"x%	c #357F84",
"y%	c #368086",
"z%	c #377F86",
"A%	c #397E86",
"B%	c #3A7E86",
"C%	c #377981",
"D%	c #35757E",
"E%	c #31737A",
"F%	c #2D6C72",
"G%	c #2A696C",
"H%	c #2A676A",
"I%	c #2F6A70",
"J%	c #306C75",
"K%	c #30717B",
"L%	c #337C84",
"M%	c #2B7C85",
"N%	c #2B8086",
"O%	c #298087",
"P%	c #276872",
"Q%	c #2A434C",
"R%	c #263137",
"S%	c #13191B",
"T%	c #030405",
"U%	c #060607",
"V%	c #0B090A",
"W%	c #161614",
"X%	c #2D292A",
"Y%	c #2E2827",
"Z%	c #312B2A",
"`%	c #292928",
" &	c #161515",
".&	c #0E0F0C",
"+&	c #0B0C09",
"@&	c #0F1010",
"#&	c #1E2323",
"$&	c #303B3C",
"%&	c #33434A",
"&&	c #2C666B",
"*&	c #17C6CC",
"=&	c #0CE3E6",
"-&	c #08E5E6",
";&	c #09E4E5",
">&	c #0AE3E4",
",&	c #0BE2E3",
"'&	c #0DDFDE",
")&	c #11DEDC",
"!&	c #12DDDD",
"~&	c #13DCDE",
"{&	c #12DEE1",
"]&	c #13E1E4",
"^&	c #15E5E8",
"/&	c #16E3E6",
"(&	c #14E0E5",
"_&	c #12DEE4",
":&	c #10DCE3",
"<&	c #11DCE4",
"[&	c #12DDE4",
"}&	c #14E0E9",
"|&	c #14E1EB",
"1&	c #13E1EC",
"2&	c #11E2EB",
"3&	c #14E5ED",
"4&	c #16E4EE",
"5&	c #17E4EE",
"6&	c #19E6F0",
"7&	c #1AE7F2",
"8&	c #1BE9F3",
"9&	c #1BE7F1",
"0&	c #1BE4F0",
"a&	c #19E3EE",
"b&	c #18E1EC",
"c&	c #17E3ED",
"d&	c #18E6EF",
"e&	c #18E4F0",
"f&	c #15E4EF",
"g&	c #17E6F0",
"h&	c #17E6F1",
"i&	c #17E2EE",
"j&	c #15E2EB",
"k&	c #12DCE5",
"l&	c #149DAA",
"m&	c #1B4C57",
"n&	c #1C2D34",
"o&	c #0C1217",
"p&	c #030407",
"q&	c #060505",
"r&	c #080705",
"s&	c #161512",
"t&	c #302D2C",
"u&	c #2F2A28",
"v&	c #131213",
"w&	c #12110E",
"x&	c #11110D",
"y&	c #0B0B0B",
"z&	c #111315",
"A&	c #293031",
"B&	c #353E44",
"C&	c #28555A",
"D&	c #0FBCC1",
"E&	c #0EEAEE",
"F&	c #12F5F5",
"G&	c #0EF6F9",
"H&	c #0CF3F9",
"I&	c #0BF0F7",
"J&	c #0CF1F4",
"K&	c #0FF3F4",
"L&	c #10F4F3",
"M&	c #0EF5F6",
"N&	c #0EF4F7",
"O&	c #0FF4F6",
"P&	c #12F5F7",
"Q&	c #13F4F7",
"R&	c #15F4F7",
"S&	c #14F2F6",
"T&	c #15F0F5",
"U&	c #15EFF6",
"V&	c #15EFF7",
"W&	c #13EFF8",
"X&	c #15F0F9",
"Y&	c #18F0F8",
"Z&	c #18EFF8",
"`&	c #19EFF8",
" *	c #19EEF8",
".*	c #1AECF6",
"+*	c #1BEAF5",
"@*	c #1DEAF4",
"#*	c #1CEAF4",
"$*	c #1AEBF6",
"%*	c #18EAF5",
"&*	c #16E7F4",
"**	c #15E7F2",
"=*	c #14E5F2",
"-*	c #13E7F3",
";*	c #10E8F2",
">*	c #0FE8F3",
",*	c #10E8F3",
"'*	c #11E9F3",
")*	c #15EBF5",
"!*	c #16E8F3",
"~*	c #18E7F2",
"{*	c #19E6F2",
"]*	c #12D3E0",
"^*	c #18808B",
"/*	c #23464E",
"(*	c #233234",
"_*	c #0A0C0D",
":*	c #131210",
"<*	c #322B29",
"[*	c #312A29",
"}*	c #31312E",
"|*	c #161516",
"1*	c #0C0C0C",
"2*	c #090A0A",
"3*	c #0F1112",
"4*	c #1F2323",
"5*	c #2A3135",
"6*	c #2C5053",
"7*	c #11B0BA",
"8*	c #11E6F1",
"9*	c #19F1F8",
"0*	c #17F4FA",
"a*	c #15F2F9",
"b*	c #14F0F8",
"c*	c #13F0F6",
"d*	c #14F1F4",
"e*	c #16F2F5",
"f*	c #15F4F6",
"g*	c #16F4F8",
"h*	c #16F3F8",
"i*	c #19F2F7",
"j*	c #18F1F6",
"k*	c #1AF1F7",
"l*	c #1CF2F7",
"m*	c #1EF4F8",
"n*	c #1DF5F9",
"o*	c #1EF2F8",
"p*	c #1EF3F9",
"q*	c #1EF1F9",
"r*	c #1EEFF8",
"s*	c #1EF0F9",
"t*	c #1FEEF9",
"u*	c #1DECF8",
"v*	c #1FEDF9",
"w*	c #20ECF8",
"x*	c #1FEAF6",
"y*	c #1EEAF6",
"z*	c #1AE9F6",
"A*	c #17E8F5",
"B*	c #14E7F5",
"C*	c #13E6F4",
"D*	c #0FE5F3",
"E*	c #0DE5F3",
"F*	c #0DE6F3",
"G*	c #0DE5F4",
"H*	c #0FE7F4",
"I*	c #10E8F4",
"J*	c #12E8F5",
"K*	c #12E6F2",
"L*	c #18E9F4",
"M*	c #1FEBF7",
"N*	c #16C9DA",
"O*	c #1D6F7B",
"P*	c #29464E",
"Q*	c #1A2629",
"R*	c #121719",
"S*	c #0B0D0F",
"T*	c #070806",
"U*	c #161613",
"V*	c #332E2B",
"W*	c #352E2B",
"X*	c #342D2A",
"Y*	c #2B2D2B",
"Z*	c #0F0F0E",
"`*	c #080B0B",
" =	c #0A0C0B",
".=	c #0B0D0E",
"+=	c #070C0D",
"@=	c #0E1115",
"#=	c #1C4144",
"$=	c #10B2BA",
"%=	c #0BECF6",
"&=	c #11F2FA",
"*=	c #12F6FA",
"==	c #13F6F9",
"-=	c #14F6F9",
";=	c #13F8F9",
">=	c #14F9FA",
",=	c #16F9FB",
"'=	c #17F9FB",
")=	c #18F9FA",
"!=	c #17F8FA",
"~=	c #18F9FB",
"{=	c #19F9FC",
"]=	c #19FBFD",
"^=	c #19F8FC",
"/=	c #1AF7FC",
"(=	c #1AF5FD",
"_=	c #1BF3FC",
":=	c #1BF1FB",
"<=	c #1BEEF9",
"[=	c #1AEFFB",
"}=	c #1BF0FC",
"|=	c #1AF0FB",
"1=	c #19EEFA",
"2=	c #18ECF9",
"3=	c #13EAF9",
"4=	c #11EAF8",
"5=	c #10EBF9",
"6=	c #0EEAF7",
"7=	c #0CEAF6",
"8=	c #0BEAF5",
"9=	c #0AEBF6",
"0=	c #0AEAF7",
"a=	c #09EAF5",
"b=	c #0BECF7",
"c=	c #0EEEF8",
"d=	c #11F0F8",
"e=	c #14EFFA",
"f=	c #19C3D0",
"g=	c #1B5B64",
"h=	c #19282F",
"i=	c #0C1317",
"j=	c #080C0E",
"k=	c #080A0B",
"l=	c #080709",
"m=	c #0A0907",
"n=	c #191917",
"o=	c #35302C",
"p=	c #39322E",
"q=	c #38332E",
"r=	c #292B29",
"s=	c #1B1C1B",
"t=	c #0D0F0F",
"u=	c #0C0D0C",
"v=	c #08090B",
"w=	c #090A0B",
"x=	c #1F3739",
"y=	c #1D949A",
"z=	c #18C2C8",
"A=	c #1DC2C9",
"B=	c #1EBFC6",
"C=	c #20BCC3",
"D=	c #23BDC3",
"E=	c #21BFC5",
"F=	c #21BFC7",
"G=	c #21BEC3",
"H=	c #20BEC2",
"I=	c #20BFC3",
"J=	c #20C0C4",
"K=	c #1FC0C6",
"L=	c #20C2C6",
"M=	c #21C3C8",
"N=	c #23C4CA",
"O=	c #25C5CA",
"P=	c #24C1C6",
"Q=	c #26BDC4",
"R=	c #2ABCC3",
"S=	c #2DB8C0",
"T=	c #2FB3BA",
"U=	c #2FAFB7",
"V=	c #2BACB6",
"W=	c #2CACB6",
"X=	c #2DAEB6",
"Y=	c #2CACB5",
"Z=	c #29ABB4",
"`=	c #28AAB5",
" -	c #25ABB5",
".-	c #24ABB4",
"+-	c #23AAB2",
"@-	c #23A9B0",
"#-	c #25A8AE",
"$-	c #26A9B0",
"%-	c #25AAB1",
"&-	c #23AAB1",
"*-	c #24AAB2",
"=-	c #25AAB2",
"--	c #27ABB2",
";-	c #22AFB2",
">-	c #1EAEB3",
",-	c #268A90",
"'-	c #233C42",
")-	c #17181C",
"!-	c #0C0B0F",
"~-	c #08080B",
"{-	c #121313",
"]-	c #161514",
"^-	c #211F1E",
"/-	c #352E2A",
"(-	c #38322D",
"_-	c #37322D",
":-	c #252526",
"<-	c #262827",
"[-	c #252727",
"}-	c #252826",
"|-	c #21221F",
"1-	c #131314",
"2-	c #202120",
"3-	c #26282B",
"4-	c #29454A",
"5-	c #2D5256",
"6-	c #335154",
"7-	c #3D5559",
"8-	c #455860",
"9-	c #43585F",
"0-	c #455A5F",
"a-	c #43575E",
"b-	c #42565D",
"c-	c #40575D",
"d-	c #3F575E",
"e-	c #3E585F",
"f-	c #3E5A62",
"g-	c #405C63",
"h-	c #425F66",
"i-	c #436269",
"j-	c #43626A",
"k-	c #405D66",
"l-	c #415C65",
"m-	c #435F66",
"n-	c #435C62",
"o-	c #42565B",
"p-	c #3F5257",
"q-	c #384B51",
"r-	c #38494F",
"s-	c #3E4E53",
"t-	c #404F52",
"u-	c #3D4E53",
"v-	c #3B4C52",
"w-	c #3B4B51",
"x-	c #3B4B50",
"y-	c #3C4B4D",
"z-	c #3D494C",
"A-	c #3B484C",
"B-	c #3B494D",
"C-	c #3A474E",
"D-	c #3C4850",
"E-	c #404B55",
"F-	c #444D57",
"G-	c #414F53",
"H-	c #324645",
"I-	c #273132",
"J-	c #262428",
"K-	c #1B191B",
"L-	c #131013",
"M-	c #1F1E20",
"N-	c #2D2F30",
"O-	c #343738",
"P-	c #34393B",
"Q-	c #33373B",
"R-	c #323332",
"S-	c #302D29",
"T-	c #312F29",
"U-	c #333331",
"V-	c #2C2B2E",
"W-	c #292929",
"X-	c #2C2C29",
"Y-	c #252623",
"Z-	c #222320",
"`-	c #2B3236",
" ;	c #202229",
".;	c #1C1B1E",
"+;	c #373C40",
"@;	c #444B53",
"#;	c #414A4E",
"$;	c #3F444A",
"%;	c #3F4449",
"&;	c #3F4348",
"*;	c #3C4246",
"=;	c #3D4347",
"-;	c #414849",
";;	c #42484A",
">;	c #424A4C",
",;	c #424A4D",
"';	c #41494E",
");	c #424B4F",
"!;	c #424D50",
"~;	c #3D4649",
"{;	c #3F4647",
"];	c #3D4342",
"^;	c #3E4544",
"/;	c #373B3F",
"(;	c #363A40",
"_;	c #3D4247",
":;	c #40464A",
"<;	c #3D4548",
"[;	c #3E474A",
"};	c #3F474B",
"|;	c #3E4348",
"1;	c #3D4245",
"2;	c #3B3F43",
"3;	c #393E41",
"4;	c #383D41",
"5;	c #393E42",
"6;	c #3A3E42",
"7;	c #3C4045",
"8;	c #3C4247",
"9;	c #3A4145",
"0;	c #212626",
"a;	c #1D1B1E",
"b;	c #222122",
"c;	c #20201F",
"d;	c #28292A",
"e;	c #333737",
"f;	c #343A3B",
"g;	c #2D3339",
"h;	c #303335",
"i;	c #212121",
"j;	c #2C2A2D",
"k;	c #282728",
"l;	c #242324",
"m;	c #242424",
"n;	c #232321",
"o;	c #222321",
"p;	c #171B1D",
"q;	c #070C0E",
"r;	c #0D1010",
"s;	c #33393B",
"t;	c #3F464A",
"u;	c #3D4447",
"v;	c #3D4348",
"w;	c #3C4145",
"x;	c #3B3F42",
"y;	c #393D40",
"z;	c #3A3F42",
"A;	c #3B4042",
"B;	c #3D4043",
"C;	c #3D4145",
"D;	c #3E4346",
"E;	c #3E4347",
"F;	c #404548",
"G;	c #3F4447",
"H;	c #3D4244",
"I;	c #3A3C3C",
"J;	c #393A37",
"K;	c #3A3D3C",
"L;	c #2F3135",
"M;	c #363A3E",
"N;	c #3F4145",
"O;	c #383E42",
"P;	c #394044",
"Q;	c #3B4244",
"R;	c #383C40",
"S;	c #34383D",
"T;	c #32353A",
"U;	c #33363A",
"V;	c #383A3C",
"W;	c #33373A",
"X;	c #323638",
"Y;	c #131416",
"Z;	c #050405",
"`;	c #202021",
" >	c #1E1B1C",
".>	c #1C1A1B",
"+>	c #232023",
"@>	c #333232",
"#>	c #323536",
"$>	c #2B3034",
"%>	c #313635",
"&>	c #1B1A1D",
"*>	c #2C2D2E",
"=>	c #2B2B2D",
"->	c #323331",
";>	c #29272A",
">>	c #252325",
",>	c #282724",
"'>	c #1C1C1C",
")>	c #0E1011",
"!>	c #0C0D0F",
"~>	c #121515",
"{>	c #32373A",
"]>	c #383D42",
"^>	c #3C3F44",
"/>	c #3D3F43",
"(>	c #3B3C41",
"_>	c #393C40",
":>	c #373B3E",
"<>	c #373B3D",
"[>	c #383C3D",
"}>	c #383A3D",
"|>	c #3A3E41",
"1>	c #3B3E43",
"2>	c #3A3C42",
"3>	c #393B40",
"4>	c #2A2729",
"5>	c #464A4A",
"6>	c #44474A",
"7>	c #3F4144",
"8>	c #3A3D42",
"9>	c #363A3F",
"0>	c #363A3D",
"a>	c #34383C",
"b>	c #34373B",
"c>	c #35373B",
"d>	c #333739",
"e>	c #323537",
"f>	c #2E3131",
"g>	c #2C2E30",
"h>	c #111112",
"i>	c #070407",
"j>	c #131011",
"k>	c #202121",
"l>	c #2A2B2A",
"m>	c #272728",
"n>	c #2D2E2E",
"o>	c #2C2E2F",
"p>	c #27292D",
"q>	c #2A2D2E",
"r>	c #1F1D20",
"s>	c #212023",
"t>	c #2D2E30",
"u>	c #333635",
"v>	c #333433",
"w>	c #302F30",
"x>	c #2C2A2A",
"y>	c #282827",
"z>	c #151616",
"A>	c #0C0C0E",
"B>	c #0D0D10",
"C>	c #111212",
"D>	c #2D3232",
"E>	c #363B3D",
"F>	c #3B3D3F",
"G>	c #393A3D",
"H>	c #393A3E",
"I>	c #393B3A",
"J>	c #3A3D3B",
"K>	c #38393A",
"L>	c #383A3E",
"M>	c #37393E",
"N>	c #383B3E",
"O>	c #171417",
"P>	c #262424",
"Q>	c #282727",
"R>	c #3A3D40",
"S>	c #45474A",
"T>	c #46484D",
"U>	c #3D4144",
"V>	c #2F3034",
"W>	c #2E3034",
"X>	c #313233",
"Y>	c #313234",
"Z>	c #343635",
"`>	c #2E2F30",
" ,	c #09090A",
".,	c #070607",
"+,	c #050305",
"@,	c #242627",
"#,	c #292D2D",
"$,	c #2D3030",
"%,	c #323433",
"&,	c #232528",
"*,	c #222224",
"=,	c #221F1F",
"-,	c #252321",
";,	c #1A1C1B",
">,	c #1A1C1F",
",,	c #282C2C",
"',	c #262727",
"),	c #242423",
"!,	c #202221",
"~,	c #191B1B",
"{,	c #121315",
"],	c #0F0F12",
"^,	c #101011",
"/,	c #232626",
"(,	c #2D3133",
"_,	c #2E3032",
":,	c #2D2F2F",
"<,	c #2E2F31",
"[,	c #2A2C2C",
"},	c #2F302F",
"|,	c #2B2B2B",
"1,	c #292B2F",
"2,	c #2F3232",
"3,	c #1A1A1B",
"4,	c #1A1818",
"5,	c #1D1A1E",
"6,	c #2E2D30",
"7,	c #303236",
"8,	c #46494D",
"9,	c #3F4246",
"0,	c #2B2E32",
"a,	c #252528",
"b,	c #252529",
"c,	c #2A2A2B",
"d,	c #282729",
"e,	c #242325",
"f,	c #0C0D0D",
"g,	c #1D2020",
"h,	c #222526",
"i,	c #242728",
"j,	c #252627",
"k,	c #222324",
"l,	c #171719",
"m,	c #201E1E",
"n,	c #1F1D1D",
"o,	c #171816",
"p,	c #0E1013",
"q,	c #101415",
"r,	c #121415",
"s,	c #121314",
"t,	c #111113",
"u,	c #141616",
"v,	c #161717",
"w,	c #101114",
"x,	c #131415",
"y,	c #131414",
"z,	c #101110",
"A,	c #151615",
"B,	c #131514",
"C,	c #161716",
"D,	c #191A18",
"E,	c #161616",
"F,	c #110F0F",
"G,	c #111111",
"H,	c #111214",
"I,	c #110E0F",
"J,	c #0E0D0B",
"K,	c #090705",
"L,	c #0D0B0A",
"M,	c #0F0C0F",
"N,	c #151517",
"O,	c #242425",
"P,	c #151314",
"Q,	c #100F10",
"R,	c #110F10",
"S,	c #0F0D0E",
"T,	c #0D0D0D",
"U,	c #0C0B0C",
"V,	c #080609",
"W,	c #090809",
"X,	c #0D0E0D",
"Y,	c #191717",
"Z,	c #313434",
"`,	c #303435",
" '	c #2D3134",
".'	c #2C3133",
"+'	c #2F3435",
"@'	c #2F3334",
"#'	c #2D3233",
"$'	c #2A2E30",
"%'	c #2B2E30",
"&'	c #2D3031",
"*'	c #2A2B2E",
"='	c #2B2D2E",
"-'	c #353535",
";'	c #333334",
">'	c #292B2C",
",'	c #2C2B2B",
"''	c #2C2C2C",
")'	c #2A2A2A",
"!'	c #272726",
"~'	c #252525",
"{'	c #262726",
"]'	c #222425",
"^'	c #2E2F2F",
"/'	c #2D2C2D",
"('	c #292A2B",
"_'	c #2C2C2D",
":'	c #333333",
"<'	c #555657",
"['	c #535658",
"}'	c #535659",
"|'	c #525658",
"1'	c #515557",
"2'	c #525759",
"3'	c #535759",
"4'	c #545859",
"5'	c #4F5556",
"6'	c #4F5659",
"7'	c #505458",
"8'	c #53565A",
"9'	c #55595C",
"0'	c #54575C",
"a'	c #53545A",
"b'	c #57595C",
"c'	c #5B5D60",
"d'	c #5B5C5E",
"e'	c #555759",
"f'	c #55575A",
"g'	c #56575A",
"h'	c #545356",
"i'	c #515356",
"j'	c #535657",
"k'	c #525355",
"l'	c #4F5053",
"m'	c #505154",
"n'	c #555456",
"o'	c #555656",
"p'	c #535455",
"q'	c #4E4E4F",
"r'	c #4D4D4E",
"s'	c #4D4F50",
"t'	c #4F5152",
"u'	c #4D4E50",
"v'	c #47484C",
"w'	c #4D4E52",
"x'	c #515355",
"y'	c #515154",
"z'	c #4C4C4E",
"A'	c #45464A",
"B'	c #48494C",
"C'	c #4D4F51",
"D'	c #545557",
"E'	c #525254",
"F'	c #4A4B4F",
"G'	c #4C4D50",
"H'	c #525255",
"I'	c #565759",
"J'	c #535355",
"K'	c #515354",
"L'	c #4D4E51",
"M'	c #4B4B4E",
"N'	c #4D4C4F",
"O'	c #4C4B4E",
"P'	c #494849",
"Q'	c #4D4B4D",
"R'	c #4D4C4C",
"S'	c #4A4A4B",
"T'	c #474648",
"U'	c #494A4B",
"V'	c #49494C",
"W'	c #4B4A4E",
"X'	c #4A4A4D",
"Y'	c #4B4B4D",
"Z'	c #4A4C4D",
"`'	c #4A4B4C",
" )	c #454748",
".)	c #424446",
"+)	c #424548",
"@)	c #494B4D",
"#)	c #484A4C",
"$)	c #46484B",
"%)	c #48494D",
"&)	c #4A4B4E",
"*)	c #4A4B4D",
"=)	c #494C4C",
"-)	c #484B4D",
";)	c #47484A",
">)	c #47464A",
",)	c #47484B",
"')	c #454649",
"))	c #464548",
"!)	c #434447",
"~)	c #424346",
"{)	c #434448",
"])	c #434446",
"^)	c #434245",
"/)	c #3F3E41",
"()	c #3D3B3E",
"_)	c #3C3B3D",
":)	c #363537",
"<)	c #37363A",
"[)	c #39373B",
"})	c #37373B",
"|)	c #39393C",
"1)	c #3B3C3E",
"2)	c #3E3E41",
"3)	c #3E3E40",
"4)	c #393A3C",
"5)	c #3A3A3C",
"6)	c #3B3B3D",
"7)	c #373939",
"8)	c #373938",
"9)	c #363637",
"0)	c #363636",
"a)	c #3E3C3B",
"b)	c #3B3A3A",
"c)	c #393939",
"d)	c #393A3A",
"e)	c #3A3838",
"f)	c #3A3937",
"g)	c #3D3D3B",
"h)	c #393938",
"i)	c #353736",
"j)	c #303032",
"k)	c #303033",
"l)	c #363738",
"m)	c #323336",
"n)	c #302F31",
"o)	c #312F32",
"p)	c #2F2E31",
"q)	c #2D2D30",
"r)	c #292A2C",
"s)	c #2B292C",
"t)	c #272729",
"u)	c #252426",
"v)	c #262627",
"w)	c #252425",
"x)	c #2C2A2C",
"y)	c #29282B",
"z)	c #29292B",
"A)	c #303031",
"B)	c #2A2B2C",
"C)	c #2B2C2D",
"D)	c #2C2E2E",
"E)	c #2C2C2B",
"F)	c #2B2C2B",
"G)	c #1F201F",
"H)	c #211F1F",
"I)	c #171918",
"J)	c #191818",
"K)	c #151514",
"L)	c #181818",
"M)	c #171718",
"N)	c #161518",
"O)	c #181619",
"P)	c #171516",
"Q)	c #151415",
"R)	c #141214",
"S)	c #111013",
"T)	c #0F0E0F",
"U)	c #100C0F",
"V)	c #0F0C0E",
"W)	c #0D0C0D",
"X)	c #080708",
"Y)	c #0D0B0C",
"Z)	c #100F0F",
"`)	c #0E0F0D",
" !	c #101010",
".!	c #141315",
"+!	c #151115",
"@!	c #151515",
"#!	c #181717",
"$!	c #171616",
"%!	c #171716",
"&!	c #181817",
"*!	c #191918",
"=!	c #1B1B19",
"-!	c #1C1A19",
";!	c #1B1A19",
">!	c #181917",
",!	c #171817",
"'!	c #171717",
")!	c #1B1B1B",
"!!	c #242525",
"~!	c #252626",
"{!	c #262628",
"]!	c #222223",
"^!	c #222222",
"/!	c #2C2C2A",
"(!	c #161615",
"_!	c #232223",
":!	c #272727",
"<!	c #272627",
"[!	c #252524",
"}!	c #1A1919",
"|!	c #1A1A19",
"1!	c #191A1A",
"2!	c #18171A",
"3!	c #181618",
"4!	c #161415",
"5!	c #141213",
"6!	c #131012",
"7!	c #120F12",
"8!	c #131112",
"9!	c #090808",
"0!	c #0D0D0B",
"a!	c #090709",
"b!	c #0F100F",
"c!	c #171615",
"d!	c #161617",
"e!	c #1B181A",
"f!	c #181617",
"g!	c #242220",
"h!	c #1A1918",
"i!	c #100E0E",
"j!	c #1E1D1C",
"k!	c #212020",
"l!	c #201E20",
"m!	c #232022",
"n!	c #201F20",
"o!	c #1D1F1F",
"p!	c #1B1D1C",
"q!	c #1A1B1C",
"r!	c #2D2D2E",
"s!	c #3C3A3B",
"t!	c #353434",
"u!	c #333231",
"v!	c #313231",
"w!	c #1D1E1D",
"x!	c #1C1C1A",
"y!	c #201F1E",
"z!	c #404041",
"A!	c #464747",
"B!	c #3D3C3F",
"C!	c #393737",
"D!	c #1A191A",
"E!	c #2D2B2A",
"F!	c #272628",
"G!	c #0B0A09",
"H!	c #0A0808",
"I!	c #222322",
"J!	c #232423",
"K!	c #2F312E",
"L!	c #3B3C3A",
"M!	c #313130",
"N!	c #333332",
"O!	c #131211",
"P!	c #121311",
"Q!	c #141314",
"R!	c #323232",
"S!	c #323333",
"T!	c #2A2B2B",
"U!	c #282A2A",
"V!	c #3A3B3B",
"W!	c #434344",
"X!	c #3E3E3F",
"Y!	c #212021",
"Z!	c #201D1F",
"`!	c #3A3B3C",
" ~	c #3D3E3F",
".~	c #3A383B",
"+~	c #212223",
"@~	c #232222",
"#~	c #1F1F1F",
"$~	c #2B2A2C",
"%~	c #2B2B2E",
"&~	c #313032",
"*~	c #2D2C2B",
"=~	c #27272A",
"-~	c #262528",
";~	c #27282A",
">~	c #121112",
",~	c #0B0908",
"'~	c #2F2F2E",
")~	c #313131",
"!~	c #353534",
"~~	c #383736",
"{~	c #262624",
"]~	c #262626",
"^~	c #313232",
"/~	c #2C2E2D",
"(~	c #30302E",
"_~	c #2C2B2A",
":~	c #232123",
"<~	c #29282A",
"[~	c #221F21",
"}~	c #1A191B",
"|~	c #1E1E1F",
"1~	c #232323",
"2~	c #1B1A1A",
"3~	c #1C1B1A",
"4~	c #191919",
"5~	c #151416",
"6~	c #171618",
"7~	c #181918",
"8~	c #151414",
"9~	c #100F0E",
"0~	c #1C1A1C",
"a~	c #1F1D1E",
"b~	c #1D1C1E",
"c~	c #1E1D1E",
"d~	c #222021",
"e~	c #1F1F1E",
"f~	c #201F21",
"g~	c #212122",
"h~	c #1D1E1E",
"i~	c #313332",
"j~	c #2E2E30",
"k~	c #2E2D2E",
"l~	c #313132",
"m~	c #2D2D2C",
"n~	c #232325",
"o~	c #262425",
"p~	c #272629",
"q~	c #28282A",
"r~	c #2A2C2B",
"s~	c #2E2E2D",
"t~	c #2A2C2D",
"u~	c #444546",
"v~	c #434547",
"w~	c #444748",
"x~	c #454648",
"y~	c #444647",
"z~	c #46494A",
"A~	c #3F4143",
"B~	c #434647",
"C~	c #424546",
"D~	c #3E4042",
"E~	c #3F4043",
"F~	c #414143",
"G~	c #3D3E41",
"H~	c #3A3B3F",
"I~	c #3C3D42",
"J~	c #3E3F42",
"K~	c #3A3C3E",
"L~	c #36373A",
"M~	c #32343A",
"N~	c #333437",
"O~	c #373639",
"P~	c #353537",
"Q~	c #35373A",
"R~	c #353739",
"S~	c #393B3C",
"T~	c #373A3B",
"U~	c #37383B",
"V~	c #3B3D3E",
"W~	c #3B3A3D",
"X~	c #3B3D3D",
"Y~	c #3F403F",
"Z~	c #3F413F",
"`~	c #3C403F",
" {	c #3D3F40",
".{	c #434445",
"+{	c #414344",
"@{	c #444548",
"#{	c #424347",
"${	c #3D4044",
"%{	c #3C4042",
"&{	c #3D3F42",
"*{	c #3C3F43",
"={	c #3C4043",
"-{	c #404347",
";{	c #424348",
">{	c #3B3D41",
",{	c #3C3E42",
"'{	c #3E4144",
"){	c #393C3F",
"!{	c #36383C",
"~{	c #36363A",
"{{	c #353539",
"]{	c #303436",
"^{	c #303133",
"/{	c #323334",
"({	c #323436",
"_{	c #323538",
":{	c #333537",
"<{	c #353638",
"[{	c #323437",
"}{	c #37393B",
"|{	c #3C3D3D",
"1{	c #3E3E3E",
"2{	c #3D3E40",
"3{	c #363836",
"4{	c #383739",
"5{	c #383839",
"6{	c #303132",
"7{	c #262629",
"8{	c #262728",
"9{	c #282A2B",
"0{	c #232225",
"a{	c #242626",
"b{	c #252628",
"c{	c #252728",
"d{	c #262828",
"e{	c #282928",
"f{	c #26292A",
"g{	c #27292A",
"h{	c #2A2C2E",
"i{	c #2C2D30",
"j{	c #2E2F32",
"k{	c #2D3032",
"l{	c #2F2F32",
"m{	c #303232",
"n{	c #323335",
"o{	c #161715",
"p{	c #141514",
"q{	c #151313",
"r{	c #141413",
"s{	c #151614",
"t{	c #171815",
"u{	c #151715",
"v{	c #151816",
"w{	c #141313",
"x{	c #131212",
"y{	c #0F0E0E",
"z{	c #0E0C0C",
"A{	c #0B0A0C",
"B{	c #060506",
"C{	c #050406",
"D{	c #0A0809",
"E{	c #080707",
"F{	c #090807",
"G{	c #050403",
"H{	c #070504",
"I{	c #090907",
"J{	c #090A08",
"K{	c #0A0807",
"L{	c #0C0A09",
"M{	c #080808",
"N{	c #0B0A08",
"O{	c #0B0B07",
"P{	c #090B07",
"Q{	c #0A0A07",
"R{	c #0D0C0B",
"S{	c #0C0B0B",
"T{	c #060706",
"U{	c #080A08",
"V{	c #0B0A0B",
"W{	c #10100D",
"X{	c #121210",
"Y{	c #100F0C",
"Z{	c #12120E",
"`{	c #10100C",
" ]	c #0F120D",
".]	c #0E110F",
"+]	c #0F120E",
"@]	c #0E0F0E",
"#]	c #141513",
"$]	c #111310",
"%]	c #101211",
"&]	c #202324",
"*]	c #17191B",
"=]	c #242426",
"-]	c #292829",
";]	c #212221",
">]	c #191B1C",
",]	c #232427",
"']	c #28292C",
")]	c #212324",
"!]	c #262527",
"~]	c #232426",
"{]	c #1D1F20",
"]]	c #1E1E21",
"^]	c #1F1E1F",
"/]	c #1D1D1E",
"(]	c #1E1E20",
"_]	c #1E1F21",
":]	c #1D1E21",
"<]	c #1E1F22",
"[]	c #191A1C",
"}]	c #272828",
"|]	c #232425",
"1]	c #282828",
"2]	c #2A2A28",
"3]	c #2B2C2A",
"4]	c #0F0F0D",
"5]	c #0C0D0B",
"6]	c #111210",
"7]	c #1F2121",
"8]	c #1E2020",
"9]	c #1E201F",
"0]	c #1E1F1F",
"a]	c #1B1D1E",
"b]	c #181B1D",
"c]	c #272A2A",
"d]	c #19191B",
"e]	c #38383C",
"f]	c #3C3C3E",
"g]	c #3A3939",
"h]	c #191B1D",
"i]	c #1C1D1E",
"j]	c #1A1C1E",
"k]	c #3A4146",
"l]	c #353C41",
"m]	c #383E40",
"n]	c #363A3B",
"o]	c #303538",
"p]	c #2E3438",
"q]	c #31353B",
"r]	c #2E3339",
"s]	c #313439",
"t]	c #383A3A",
"u]	c #343637",
"v]	c #313435",
"w]	c #32373B",
"x]	c #31373C",
"y]	c #2E373B",
"z]	c #292E31",
"A]	c #121113",
"B]	c #0E0C0D",
"C]	c #313336",
"D]	c #313338",
"E]	c #373738",
"F]	c #343537",
"G]	c #353737",
"H]	c #0F100D",
"I]	c #2E3230",
"J]	c #2C2F2F",
"K]	c #2C2E2C",
"L]	c #2F322F",
"M]	c #323633",
"N]	c #262929",
"O]	c #111216",
"P]	c #202223",
"Q]	c #262222",
"R]	c #3E4143",
"S]	c #4A4B4B",
"T]	c #454547",
"U]	c #403F41",
"V]	c #1F2224",
"W]	c #181A1D",
"X]	c #1A2124",
"Y]	c #344043",
"Z]	c #39454A",
"`]	c #364047",
" ^	c #374044",
".^	c #363F41",
"+^	c #363E3F",
"@^	c #363C3D",
"#^	c #2D363A",
"$^	c #30393D",
"%^	c #2F383E",
"&^	c #32373C",
"*^	c #3A3D3E",
"=^	c #393D3C",
"-^	c #393D3B",
";^	c #383D3C",
">^	c #363D3E",
",^	c #323B3E",
"'^	c #364044",
")^	c #354044",
"!^	c #383C3E",
"~^	c #3D403E",
"{^	c #3A3A39",
"]^	c #373A3A",
"^^	c #393E3C",
"/^	c #3B3E3F",
"(^	c #40403F",
"_^	c #37393A",
":^	c #1E2320",
"<^	c #0D100D",
"[^	c #1D2223",
"}^	c #2C3234",
"|^	c #2C3132",
"1^	c #343938",
"2^	c #353735",
"3^	c #2C2F2E",
"4^	c #1A1A1C",
"5^	c #2D2A27",
"6^	c #2D312E",
"7^	c #333536",
"8^	c #2E2E33",
"9^	c #2F3437",
"0^	c #252C30",
"a^	c #273135",
"b^	c #2F3E41",
"c^	c #334548",
"d^	c #304046",
"e^	c #2C3B40",
"f^	c #2B363A",
"g^	c #2A3437",
"h^	c #2D3739",
"i^	c #2D3537",
"j^	c #2A3337",
"k^	c #293438",
"l^	c #273438",
"m^	c #2A363A",
"n^	c #2D3538",
"o^	c #2D3235",
"p^	c #303536",
"q^	c #313636",
"r^	c #2E3436",
"s^	c #2C3538",
"t^	c #293439",
"u^	c #283539",
"v^	c #2B373A",
"w^	c #252D2B",
"x^	c #202523",
"y^	c #2C312F",
"z^	c #303637",
"A^	c #313839",
"B^	c #2F3538",
"C^	c #303336",
"D^	c #303333",
"E^	c #343837",
"F^	c #303434",
"G^	c #313534",
"H^	c #333738",
"I^	c #3B3F3E",
"J^	c #3D3F3E",
"K^	c #393C3B",
"L^	c #3D4542",
"M^	c #26302E",
"N^	c #0F1614",
"O^	c #121617",
"P^	c #202625",
"Q^	c #2E3734",
"R^	c #343C3A",
"S^	c #363C3B",
"T^	c #2C3033",
"U^	c #373837",
"V^	c #363737",
"W^	c #353635",
"X^	c #373433",
"Y^	c #141718",
"Z^	c #111517",
"`^	c #111317",
" /	c #191C1F",
"./	c #202427",
"+/	c #2B3235",
"@/	c #303B41",
"#/	c #2F4248",
"$/	c #3B5558",
"%/	c #3B5758",
"&/	c #3C5859",
"*/	c #334E51",
"=/	c #2C4247",
"-/	c #2E4245",
";/	c #324548",
">/	c #334648",
",/	c #334448",
"'/	c #32464A",
")/	c #2E464A",
"!/	c #2F484A",
"~/	c #324749",
"{/	c #334545",
"]/	c #364746",
"^/	c #364747",
"//	c #334447",
"(/	c #35484B",
"_/	c #364A4E",
":/	c #33484C",
"</	c #334749",
"[/	c #334748",
"}/	c #354848",
"|/	c #334342",
"1/	c #2F3D3E",
"2/	c #303E40",
"3/	c #303F41",
"4/	c #2E4043",
"5/	c #314041",
"6/	c #303C3C",
"7/	c #323D3C",
"8/	c #323D3D",
"9/	c #2F3B3D",
"0/	c #2D3B3E",
"a/	c #2E3A3E",
"b/	c #333B3F",
"c/	c #363D40",
"d/	c #323D40",
"e/	c #334244",
"f/	c #384849",
"g/	c #2C4445",
"h/	c #1D383A",
"i/	c #14292D",
"j/	c #162325",
"k/	c #222B2B",
"l/	c #2A3435",
"m/	c #283230",
"n/	c #293030",
"o/	c #313736",
"p/	c #373B3A",
"q/	c #424445",
"r/	c #494E4F",
"s/	c #3E3735",
"t/	c #373333",
"u/	c #14181A",
"v/	c #0A1015",
"w/	c #0A1218",
"x/	c #111419",
"y/	c #1C1B19",
"z/	c #1F2F2E",
"A/	c #274B4D",
"B/	c #2C6264",
"C/	c #26656A",
"D/	c #2A6D70",
"E/	c #266A6E",
"F/	c #2B7274",
"G/	c #23686E",
"H/	c #1A6168",
"I/	c #1C6167",
"J/	c #1E646A",
"K/	c #1C6269",
"L/	c #1D626A",
"M/	c #1C646D",
"N/	c #18656C",
"O/	c #18676F",
"P/	c #1F686F",
"Q/	c #216C73",
"R/	c #226F76",
"S/	c #237078",
"T/	c #206E76",
"U/	c #237279",
"V/	c #247076",
"W/	c #236A70",
"X/	c #276369",
"Y/	c #305C60",
"Z/	c #2D6168",
"`/	c #2E626A",
" (	c #30636C",
".(	c #34636C",
"+(	c #33656B",
"@(	c #30676C",
"#(	c #326668",
"$(	c #2A6C72",
"%(	c #2D6C73",
"&(	c #2E6E76",
"*(	c #2D7078",
"=(	c #2E7279",
"-(	c #317379",
";(	c #31757C",
">(	c #34777C",
",(	c #31787F",
"'(	c #2E7B82",
")(	c #2C7B81",
"!(	c #237E85",
"~(	c #1A7980",
"{(	c #0E5F68",
"](	c #17545C",
"^(	c #193E43",
"/(	c #16262A",
"((	c #1A2122",
"_(	c #1C201F",
":(	c #3A393B",
"<(	c #3F3F3E",
"[(	c #3F3533",
"}(	c #11171A",
"|(	c #071117",
"1(	c #0B131A",
"2(	c #112A2C",
"3(	c #167077",
"4(	c #149BA4",
"5(	c #14B2B9",
"6(	c #19C6C8",
"7(	c #11C4C9",
"8(	c #0FC8CC",
"9(	c #0CC4CA",
"0(	c #12CCD0",
"a(	c #0DC5CD",
"b(	c #09C1C7",
"c(	c #07BFC3",
"d(	c #0BC3C6",
"e(	c #0CC2C6",
"f(	c #0AC2C8",
"g(	c #0CC6CD",
"h(	c #0BC4CA",
"i(	c #10C2C9",
"j(	c #0FBAC0",
"k(	c #06C4CD",
"l(	c #04CBD6",
"m(	c #06CCD8",
"n(	c #06CAD3",
"o(	c #0BCFD7",
"p(	c #08C7D1",
"q(	c #0AC8D2",
"r(	c #17B7BF",
"s(	c #229293",
"t(	c #14BBC3",
"u(	c #0EBBC3",
"v(	c #11B6C2",
"w(	c #14B6C1",
"x(	c #14B6BF",
"y(	c #19B2B8",
"z(	c #209898",
"A(	c #15C3CB",
"B(	c #0CC3CD",
"C(	c #0CC4CD",
"D(	c #0AC7CE",
"E(	c #0CCBD0",
"F(	c #0AC9CF",
"G(	c #0CCAD0",
"H(	c #09C7CC",
"I(	c #08C6CB",
"J(	c #0FCBCF",
"K(	c #0FCCD2",
"L(	c #10D0D6",
"M(	c #11D0D6",
"N(	c #09BBC7",
"O(	c #07A4B1",
"P(	c #0B7480",
"Q(	c #18393F",
"R(	c #1E2829",
"S(	c #161A19",
"T(	c #3C3C3B",
"U(	c #373535",
"V(	c #413532",
"W(	c #2D2A2B",
"X(	c #0D1218",
"Y(	c #051016",
"Z(	c #10181B",
"`(	c #0F4F53",
" _	c #05BAC6",
"._	c #08D1D9",
"+_	c #16DEE3",
"@_	c #1EEDED",
"#_	c #16E5E7",
"$_	c #17E9ED",
"%_	c #13E9EE",
"&_	c #14EEF1",
"*_	c #11E8EE",
"=_	c #12E8EC",
"-_	c #0FE8E9",
";_	c #14EEEF",
">_	c #16EDEE",
",_	c #10E8EC",
"'_	c #11EBF0",
")_	c #12EBF2",
"!_	c #16E7EE",
"~_	c #15D5DC",
"{_	c #15E7EF",
"]_	c #16EFF9",
"^_	c #17F1FB",
"/_	c #17F2F9",
"(_	c #15F3FA",
"__	c #0BE9F1",
":_	c #0CEEF7",
"<_	c #1ED9E0",
"[_	c #29B2B1",
"}_	c #0AECF2",
"|_	c #0BE9F2",
"1_	c #09E9F1",
"2_	c #0BE8EF",
"3_	c #1AE0E5",
"4_	c #29B5B4",
"5_	c #1BE5EE",
"6_	c #13EAF2",
"7_	c #11ECF3",
"8_	c #10EFF3",
"9_	c #12F1F3",
"0_	c #11F0F3",
"a_	c #11F1F3",
"b_	c #11F2F5",
"c_	c #11F4F6",
"d_	c #13F6F6",
"e_	c #13F4F8",
"f_	c #1BFBFE",
"g_	c #12EBF6",
"h_	c #0ADDE6",
"i_	c #0CAAB5",
"j_	c #17494E",
"k_	c #131616",
"l_	c #3A3837",
"m_	c #373634",
"n_	c #373735",
"o_	c #3F3330",
"p_	c #2F2C2D",
"q_	c #0F141A",
"r_	c #081217",
"s_	c #0C1618",
"t_	c #0E5C5F",
"u_	c #03CDD9",
"v_	c #0BD7DC",
"w_	c #11DBE3",
"x_	c #13E3E9",
"y_	c #0EDFE5",
"z_	c #13E8EE",
"A_	c #12EAF0",
"B_	c #0FE6EB",
"C_	c #0EE2E8",
"D_	c #17EDEF",
"E_	c #12EAEE",
"F_	c #19EDEF",
"G_	c #18EDF0",
"H_	c #14EBEF",
"I_	c #14EBF0",
"J_	c #18EAEF",
"K_	c #18D2D7",
"L_	c #1BEAF0",
"M_	c #1AEBF5",
"N_	c #1CEFF8",
"O_	c #1AEFF5",
"P_	c #15EDF3",
"Q_	c #12EBF1",
"R_	c #10EFF4",
"S_	c #1ED8DD",
"T_	c #2AB5B1",
"U_	c #17F0F4",
"V_	c #0DEEF4",
"W_	c #11EDF6",
"X_	c #0FF1F6",
"Y_	c #0AEDF2",
"Z_	c #18E4E7",
"`_	c #2DB6B1",
" :	c #1BE9F1",
".:	c #12EBF3",
"+:	c #12EFF7",
"@:	c #12F3F7",
"#:	c #14F3F6",
"$:	c #15F6F7",
"%:	c #14F4F6",
"&:	c #13F5F7",
"*:	c #12F5F6",
"=:	c #10F2F6",
"-:	c #12F7F8",
";:	c #13F7F9",
">:	c #0FEDF4",
",:	c #0AEDF1",
"':	c #0AC4CB",
"):	c #185356",
"!:	c #242B29",
"~:	c #151412",
"{:	c #262322",
"]:	c #3C3835",
"^:	c #393734",
"/:	c #383634",
"(:	c #423934",
"_:	c #0F1418",
"::	c #0B1518",
"<:	c #0E181A",
"[:	c #10494D",
"}:	c #11B3C0",
"|:	c #19CCD9",
"1:	c #17D7E1",
"2:	c #15D9E2",
"3:	c #10D7DE",
"4:	c #16E1E9",
"5:	c #0FD8E2",
"6:	c #0FD1DB",
"7:	c #14D7DF",
"8:	c #19DEE2",
"9:	c #15D8E0",
"0:	c #1ADFE4",
"a:	c #21EBF0",
"b:	c #18E2E8",
"c:	c #18E8EC",
"d:	c #1BE2E7",
"e:	c #1AC2CA",
"f:	c #1CE5EF",
"g:	c #19ECF5",
"h:	c #1BEFF7",
"i:	c #18ECF2",
"j:	c #0FE2E8",
"k:	c #14E8EC",
"l:	c #19EFF1",
"m:	c #1DD4DA",
"n:	c #1FA8AA",
"o:	c #1BDFE7",
"p:	c #13E4EE",
"q:	c #14E3F1",
"r:	c #19ECF6",
"s:	c #15EAEF",
"t:	c #1ED7DC",
"u:	c #29AAAC",
"v:	c #20E6F1",
"w:	c #15EAF6",
"x:	c #14EBF6",
"y:	c #13EBF2",
"z:	c #16EAEF",
"A:	c #17E9EC",
"B:	c #16E6E9",
"C:	c #19E6E9",
"D:	c #15E1E5",
"E:	c #15E3E6",
"F:	c #12E0E5",
"G:	c #17E7EB",
"H:	c #18E9EE",
"I:	c #18E7ED",
"J:	c #12E8EB",
"K:	c #15C1C8",
"L:	c #1D5256",
"M:	c #222827",
"N:	c #191B18",
"O:	c #161413",
"P:	c #282621",
"Q:	c #3E3B36",
"R:	c #393633",
"S:	c #393634",
"T:	c #423932",
"U:	c #2C2C28",
"V:	c #0D1215",
"W:	c #081216",
"X:	c #0B1319",
"Y:	c #172025",
"Z:	c #1F585C",
"`:	c #32777A",
" <	c #2F737E",
".<	c #2F8088",
"+<	c #2F8C91",
"@<	c #26848C",
"#<	c #24848D",
"$<	c #22828B",
"%<	c #25848B",
"&<	c #1F7A83",
"*<	c #1F7881",
"=<	c #1F7C85",
"-<	c #288C91",
";<	c #288E95",
"><	c #218E97",
",<	c #1B8F98",
"'<	c #258A91",
")<	c #31787B",
"!<	c #1F878D",
"~<	c #209497",
"{<	c #229BA1",
"]<	c #20939B",
"^<	c #1A838D",
"/<	c #238991",
"(<	c #268D90",
"_<	c #238287",
":<	c #2D7778",
"<<	c #257D83",
"[<	c #218389",
"}<	c #248890",
"|<	c #2A9097",
"1<	c #298D8F",
"2<	c #2B7F84",
"3<	c #357074",
"4<	c #1E858B",
"5<	c #228D8F",
"6<	c #288D95",
"7<	c #258992",
"8<	c #278B95",
"9<	c #24848E",
"0<	c #28888F",
"a<	c #2B888D",
"b<	c #288187",
"c<	c #278288",
"d<	c #248088",
"e<	c #2B8791",
"f<	c #258591",
"g<	c #29979B",
"h<	c #239B96",
"i<	c #1A6966",
"j<	c #223133",
"k<	c #1A1E1F",
"l<	c #151617",
"m<	c #181716",
"n<	c #3A3733",
"o<	c #373332",
"p<	c #383633",
"q<	c #3C322E",
"r<	c #0F1618",
"s<	c #081517",
"t<	c #081319",
"u<	c #113E46",
"v<	c #11A3AD",
"w<	c #0EC7D1",
"x<	c #0FC1D1",
"y<	c #10C9D9",
"z<	c #0ECFDD",
"A<	c #13D3DC",
"B<	c #13D1D7",
"C<	c #19D4D7",
"D<	c #10C1CA",
"E<	c #0AB9C4",
"F<	c #0DBBC6",
"G<	c #15CAD2",
"H<	c #15CCD7",
"I<	c #11CAD7",
"J<	c #15CFDC",
"K<	c #1F9EA6",
"L<	c #26969B",
"M<	c #19CCDA",
"N<	c #12CDD9",
"O<	c #16CEDC",
"P<	c #17CCD9",
"Q<	c #16C3D1",
"R<	c #1BC6D2",
"S<	c #1BCCD4",
"T<	c #16C3CC",
"U<	c #15A6AA",
"V<	c #17B2BA",
"W<	c #15C3CE",
"X<	c #13C5D3",
"Y<	c #19CBD9",
"Z<	c #16C5D3",
"`<	c #21B1BE",
" [	c #319094",
".[	c #1AC4D0",
"+[	c #16CBDC",
"@[	c #12CBD9",
"#[	c #13D1DE",
"$[	c #0FCFDB",
"%[	c #11D2DA",
"&[	c #11D0D7",
"*[	c #11CCD6",
"=[	c #0FCDD7",
"-[	c #11CFD8",
";[	c #17D2DD",
">[	c #0BC9D7",
",[	c #10DDE3",
"'[	c #12E4E9",
")[	c #139397",
"![	c #1C3537",
"~[	c #191F1E",
"{[	c #151718",
"][	c #262422",
"^[	c #383432",
"/[	c #34322F",
"([	c #3A2E2C",
"_[	c #0C1517",
":[	c #061215",
"<[	c #0F1A1F",
"[[	c #16474F",
"}[	c #05AFBD",
"|[	c #06D1D9",
"1[	c #0DD5DF",
"2[	c #12DBE5",
"3[	c #0AD1DF",
"4[	c #0FD9E5",
"5[	c #14E0E7",
"6[	c #14DCE3",
"7[	c #16E0E4",
"8[	c #10D7E0",
"9[	c #0FD8E3",
"0[	c #0DD6E2",
"a[	c #11E4EF",
"b[	c #12E8F6",
"c[	c #0CE3F0",
"d[	c #13ECF8",
"e[	c #21B9C0",
"f[	c #20BCC6",
"g[	c #12E6F6",
"h[	c #11E6F5",
"i[	c #15E5F5",
"j[	c #19EBF6",
"k[	c #18E7F4",
"l[	c #17E7F2",
"m[	c #16EBF4",
"n[	c #13E5F0",
"o[	c #0FC9D0",
"p[	c #14D8E1",
"q[	c #14E8F4",
"r[	c #14E8F7",
"s[	c #17EEFC",
"t[	c #0EE9F9",
"u[	c #20D2DF",
"v[	c #36A5A5",
"w[	c #1AE6F1",
"x[	c #11E8F5",
"y[	c #18E7F6",
"z[	c #18E9F5",
"A[	c #17EBF5",
"B[	c #13ECF5",
"C[	c #10EDF5",
"D[	c #10EDF4",
"E[	c #0EECF6",
"F[	c #0EEBF5",
"G[	c #14EFF9",
"H[	c #0DE3F1",
"I[	c #11E7EF",
"J[	c #0AE7F1",
"K[	c #109CA5",
"L[	c #1D363A",
"M[	c #181D1D",
"N[	c #0F1315",
"O[	c #0F1213",
"P[	c #393733",
"Q[	c #363230",
"R[	c #322E2D",
"S[	c #3B2F2C",
"T[	c #0D1517",
"U[	c #071315",
"V[	c #11191D",
"W[	c #18434A",
"X[	c #05A6B3",
"Y[	c #07CAD2",
"Z[	c #15D6DE",
"`[	c #17D6E0",
" }	c #12CFDC",
".}	c #15D3DF",
"+}	c #14D5E0",
"@}	c #15D1DC",
"#}	c #1BD8E1",
"$}	c #1BDBE4",
"%}	c #1DE2E8",
"&}	c #1ADDE6",
"*}	c #17E1EC",
"=}	c #16E2EF",
"-}	c #10E2F0",
";}	c #18E8F6",
">}	c #2BBFC2",
",}	c #24D3DA",
"'}	c #16DDED",
")}	c #1BE0EF",
"!}	c #1FE3F3",
"~}	c #20E5F1",
"{}	c #21E5F0",
"]}	c #22E5F0",
"^}	c #21E6F0",
"/}	c #20E6F0",
"(}	c #1FDADF",
"_}	c #1EDCE3",
":}	c #1EE5F1",
"<}	c #1AE2F1",
"[}	c #18E6F4",
"}}	c #0CE1EF",
"|}	c #24D4DE",
"1}	c #3DA8A3",
"2}	c #1EE2EC",
"3}	c #17E2EF",
"4}	c #21E3F0",
"5}	c #21E5F1",
"6}	c #1FE7F1",
"7}	c #1EE9F1",
"8}	c #1CEAF0",
"9}	c #1DE9F0",
"0}	c #1BE8EF",
"a}	c #1AE5EE",
"b}	c #1CE7EF",
"c}	c #1DEBF2",
"d}	c #18E2EB",
"e}	c #0DE2ED",
"f}	c #15919A",
"g}	c #253537",
"h}	c #191E1C",
"i}	c #101514",
"j}	c #0E1111",
"k}	c #353331",
"l}	c #35312E",
"m}	c #3E322C",
"n}	c #2A2826",
"o}	c #0E1416",
"p}	c #0A1314",
"q}	c #13464C",
"r}	c #03B3C3",
"s}	c #02CCD8",
"t}	c #0DD2DC",
"u}	c #12DAE3",
"v}	c #11D8E3",
"w}	c #13D9E4",
"x}	c #14DEE7",
"y}	c #13DAE2",
"z}	c #19DCE3",
"A}	c #1CE0E7",
"B}	c #1FE8EC",
"C}	c #1EE5EC",
"D}	c #1BE2ED",
"E}	c #11D7E4",
"F}	c #1AE5F2",
"G}	c #21DCE7",
"H}	c #24B3B5",
"I}	c #28E7EF",
"J}	c #1AE7F5",
"K}	c #1CE7F6",
"L}	c #1FE6F4",
"M}	c #21E6F2",
"N}	c #23E9F2",
"O}	c #25E9F4",
"P}	c #25EAF4",
"Q}	c #24EDF5",
"R}	c #21E8ED",
"S}	c #1DDEE8",
"T}	c #22E8F5",
"U}	c #17DFF0",
"V}	c #16E3F2",
"W}	c #17EBF7",
"X}	c #2DD1D8",
"Y}	c #3AA19B",
"Z}	c #29EBF4",
"`}	c #1FEBFA",
" |	c #24EAF9",
".|	c #27EEFA",
"+|	c #26F0FA",
"@|	c #24EFF9",
"#|	c #21EFF6",
"$|	c #1FEEF4",
"%|	c #1FEFF6",
"&|	c #1FEDF7",
"*|	c #1FF0F6",
"=|	c #1EF0F8",
"-|	c #19E9F7",
";|	c #11DFEF",
">|	c #15D5E3",
",|	c #1D7479",
"'|	c #232C29",
")|	c #1C211E",
"!|	c #131615",
"~|	c #1F1E1C",
"{|	c #373430",
"]|	c #3D312C",
"^|	c #0B0F12",
"/|	c #090F11",
"(|	c #0B0E10",
"_|	c #123137",
":|	c #107C87",
"<|	c #18868F",
"[|	c #21878F",
"}|	c #248A94",
"||	c #238A94",
"1|	c #21858E",
"2|	c #268D93",
"3|	c #298B91",
"4|	c #28868D",
"5|	c #329195",
"6|	c #319294",
"7|	c #2F8D90",
"8|	c #2D888F",
"9|	c #257B83",
"0|	c #2B7D82",
"a|	c #317778",
"b|	c #387476",
"c|	c #309199",
"d|	c #29949E",
"e|	c #2B959F",
"f|	c #2A929C",
"g|	c #2D929A",
"h|	c #329297",
"i|	c #318E93",
"j|	c #328F94",
"k|	c #328F96",
"l|	c #2F898E",
"m|	c #31888E",
"n|	c #2B7D86",
"o|	c #338389",
"p|	c #338187",
"q|	c #3C7477",
"r|	c #406A69",
"s|	c #368C94",
"t|	c #338D96",
"u|	c #368B93",
"v|	c #3A8A90",
"w|	c #388B91",
"x|	c #368B8F",
"y|	c #348C8F",
"z|	c #338C90",
"A|	c #348D92",
"B|	c #348F93",
"C|	c #339499",
"D|	c #308E94",
"E|	c #247175",
"F|	c #205355",
"G|	c #27312E",
"H|	c #0C0C0B",
"I|	c #1D1C18",
"J|	c #31302E",
"K|	c #33312E",
"L|	c #382C28",
"M|	c #221F1E",
"N|	c #101012",
"O|	c #0F0E10",
"P|	c #151214",
"Q|	c #211F20",
"R|	c #352D2C",
"S|	c #42393A",
"T|	c #3C3235",
"U|	c #3C3638",
"V|	c #3A3538",
"W|	c #322F33",
"X|	c #3A383A",
"Y|	c #393538",
"Z|	c #312F34",
"`|	c #343032",
" 1	c #383234",
".1	c #373133",
"+1	c #383131",
"@1	c #3C3534",
"#1	c #383334",
"$1	c #383538",
"%1	c #3F3D40",
"&1	c #353335",
"*1	c #363333",
"=1	c #333435",
"-1	c #393D3E",
";1	c #363332",
">1	c #3B3737",
",1	c #3B3635",
"'1	c #3B3434",
")1	c #3B3333",
"!1	c #373030",
"~1	c #363031",
"{1	c #372F31",
"]1	c #383130",
"^1	c #2F2727",
"/1	c #2F2525",
"(1	c #241B1E",
"_1	c #201D20",
":1	c #111213",
"<1	c #0E0F0F",
"[1	c #1B1815",
"}1	c #2F2D2B",
"|1	c #2E2C2A",
"11	c #2F2F2C",
"21	c #322723",
"31	c #1B1818",
"41	c #09080B",
"51	c #16181C",
"61	c #292D32",
"71	c #30363D",
"81	c #394045",
"91	c #384141",
"01	c #394242",
"a1	c #363D3F",
"b1	c #2A2F32",
"c1	c #272A2D",
"d1	c #27292C",
"e1	c #2D3132",
"f1	c #303235",
"g1	c #2D3335",
"h1	c #2A3033",
"i1	c #323738",
"j1	c #35393B",
"k1	c #3C4041",
"l1	c #353A3B",
"m1	c #333837",
"n1	c #34383A",
"o1	c #373A3C",
"p1	c #3B3F3F",
"q1	c #3C4242",
"r1	c #393D3D",
"s1	c #373B3B",
"t1	c #313235",
"u1	c #363939",
"v1	c #2C2B2D",
"w1	c #2A282B",
"x1	c #221F25",
"y1	c #181919",
"z1	c #1D1916",
"A1	c #302D2B",
"B1	c #2E2C2B",
"C1	c #2F2D2D",
"D1	c #372D27",
"E1	c #1C1B1B",
"F1	c #0B0C0C",
"G1	c #16181B",
"H1	c #2C3337",
"I1	c #30373C",
"J1	c #31383E",
"K1	c #3E4747",
"L1	c #3D4545",
"M1	c #2B2F32",
"N1	c #24252A",
"O1	c #212227",
"P1	c #313237",
"Q1	c #3C3D3C",
"R1	c #343334",
"S1	c #373636",
"T1	c #3C3D3B",
"U1	c #3E413F",
"V1	c #343636",
"W1	c #3B3C3D",
"X1	c #414140",
"Y1	c #3E3A3D",
"Z1	c #403D3E",
"`1	c #41403F",
" 2	c #3F413E",
".2	c #383637",
"+2	c #3C3B3A",
"@2	c #3E3C3A",
"#2	c #3A3634",
"$2	c #34312F",
"%2	c #2F2D2C",
"&2	c #262326",
"*2	c #0E0E0D",
"=2	c #0B0B09",
"-2	c #1D1917",
";2	c #352824",
">2	c #1E1A1B",
",2	c #2B3439",
"'2	c #2E3841",
")2	c #2F3945",
"!2	c #38424A",
"~2	c #384147",
"{2	c #383F45",
"]2	c #394144",
"^2	c #303438",
"/2	c #2F3237",
"(2	c #312F2E",
"_2	c #272427",
":2	c #302F32",
"<2	c #353A3A",
"[2	c #35393C",
"}2	c #3B4040",
"|2	c #333337",
"12	c #373C3C",
"22	c #383D3F",
"32	c #404343",
"42	c #3F4042",
"52	c #424143",
"62	c #404141",
"72	c #3E403F",
"82	c #3C3C3D",
"92	c #404040",
"02	c #3E3C3D",
"a2	c #3C3839",
"b2	c #3C3937",
"c2	c #0D0D0F",
"d2	c #1F1B1B",
"e2	c #302C2B",
"f2	c #2F2B2A",
"g2	c #3C2C29",
"h2	c #362D2B",
"i2	c #433D39",
"j2	c #423E3A",
"k2	c #2E2D29",
"l2	c #181A1A",
"m2	c #293338",
"n2	c #34444F",
"o2	c #364954",
"p2	c #36454E",
"q2	c #35414B",
"r2	c #3B464D",
"s2	c #3B464C",
"t2	c #373F45",
"u2	c #373F44",
"v2	c #1E1D20",
"w2	c #282A2D",
"x2	c #303535",
"y2	c #2F3438",
"z2	c #343A3D",
"A2	c #31373A",
"B2	c #363A3C",
"C2	c #34393C",
"D2	c #34393D",
"E2	c #2D3135",
"F2	c #36393B",
"G2	c #363837",
"H2	c #343434",
"I2	c #303034",
"J2	c #313134",
"K2	c #302622",
"L2	c #503D33",
"M2	c #3C322C",
"N2	c #2D2C2A",
"O2	c #31302D",
"P2	c #483933",
"Q2	c #4A403C",
"R2	c #4C4745",
"S2	c #4F4A49",
"T2	c #595855",
"U2	c #111619",
"V2	c #11181D",
"W2	c #182125",
"X2	c #171D20",
"Y2	c #151A1D",
"Z2	c #171C1F",
"`2	c #15191B",
" 3	c #181A1B",
".3	c #111110",
"+3	c #101210",
"@3	c #101311",
"#3	c #131412",
"$3	c #101112",
"%3	c #101213",
"&3	c #101313",
"*3	c #131516",
"=3	c #151717",
"-3	c #141617",
";3	c #141817",
">3	c #131517",
",3	c #111414",
"'3	c #141618",
")3	c #121414",
"!3	c #141614",
"~3	c #131513",
"{3	c #111313",
"]3	c #0F1012",
"^3	c #0E1012",
"/3	c #101212",
"(3	c #131214",
"_3	c #121312",
":3	c #342A23",
"<3	c #5E4231",
"[3	c #674734",
"}3	c #513A2D",
"|3	c #2E2724",
"13	c #2B2A28",
"23	c #423632",
"33	c #433A37",
"43	c #4D4744",
"53	c #514A46",
"63	c #554D49",
"73	c #39312E",
"83	c #2D2722",
"93	c #302925",
"03	c #312925",
"a3	c #352E28",
"b3	c #352C27",
"c3	c #302824",
"d3	c #312824",
"e3	c #372C25",
"f3	c #392C25",
"g3	c #392C24",
"h3	c #392D24",
"i3	c #3B2F25",
"j3	c #3B2F26",
"k3	c #3E3229",
"l3	c #41362B",
"m3	c #3F3228",
"n3	c #3F3127",
"o3	c #3F3227",
"p3	c #3D3026",
"q3	c #3A2C23",
"r3	c #3A2B24",
"s3	c #3B2D25",
"t3	c #3B2D24",
"u3	c #3F3027",
"v3	c #403027",
"w3	c #413028",
"x3	c #413128",
"y3	c #42332B",
"z3	c #41332B",
"A3	c #43352C",
"B3	c #44362D",
"C3	c #40312A",
"D3	c #3F312A",
"E3	c #3D3229",
"F3	c #3F332A",
"G3	c #3E322A",
"H3	c #3D3129",
"I3	c #3A2E27",
"J3	c #3C322A",
"K3	c #3E342C",
"L3	c #3B312C",
"M3	c #372E2A",
"N3	c #3B332E",
"O3	c #3A332E",
"P3	c #3C342E",
"Q3	c #382E28",
"R3	c #2C231F",
"S3	c #1D1718",
"T3	c #2A211F",
"U3	c #513F34",
"V3	c #573D30",
"W3	c #583D2F",
"X3	c #5A4233",
"Y3	c #392D28",
"Z3	c #262523",
"`3	c #453930",
" 4	c #40332E",
".4	c #473A34",
"+4	c #483934",
"@4	c #483A33",
"#4	c #4E3E36",
"$4	c #52443C",
"%4	c #5A4C42",
"&4	c #584941",
"*4	c #5D4D44",
"=4	c #5F4E44",
"-4	c #57463E",
";4	c #5A483F",
">4	c #604B40",
",4	c #634D40",
"'4	c #634D3F",
")4	c #634D3E",
"!4	c #675241",
"~4	c #685041",
"{4	c #6E5746",
"]4	c #755D4C",
"^4	c #705646",
"/4	c #725747",
"(4	c #725947",
"_4	c #725845",
":4	c #6D5141",
"<4	c #6B4E40",
"[4	c #6E5443",
"}4	c #6D5241",
"|4	c #6F5343",
"14	c #725545",
"24	c #705242",
"34	c #735545",
"44	c #715645",
"54	c #6E5444",
"64	c #725949",
"74	c #745B4B",
"84	c #6D5245",
"94	c #6C5145",
"04	c #6C5446",
"a4	c #6D5546",
"b4	c #695144",
"c4	c #685144",
"d4	c #674F43",
"e4	c #654E42",
"f4	c #644E42",
"g4	c #665145",
"h4	c #6C574A",
"i4	c #675247",
"j4	c #5E4B44",
"k4	c #64534A",
"l4	c #65564C",
"m4	c #67564B",
"n4	c #635044",
"o4	c #534138",
"p4	c #40322D",
"q4	c #3E2F2A",
"r4	c #47382F",
"s4	c #4C3D33",
"t4	c #45332D",
"u4	c #402F27",
"v4	c #312624",
"w4	c #272524",
"x4	c #40352C",
"y4	c #42362E",
"z4	c #41342D",
"A4	c #3F322D",
"B4	c #453730",
"C4	c #46392F",
"D4	c #453830",
"E4	c #493C31",
"F4	c #483B33",
"G4	c #473931",
"H4	c #4F3F35",
"I4	c #483830",
"J4	c #4B3B32",
"K4	c #4E3D32",
"L4	c #4E3D31",
"M4	c #514033",
"N4	c #513E32",
"O4	c #574334",
"P4	c #5C4737",
"Q4	c #5D4536",
"R4	c #5E4838",
"S4	c #5B4535",
"T4	c #5C4536",
"U4	c #574035",
"V4	c #5F4A3A",
"W4	c #5E493B",
"X4	c #5A4638",
"Y4	c #5E4B3C",
"Z4	c #5A4538",
"`4	c #5B4638",
" 5	c #5E4B3B",
".5	c #5D493A",
"+5	c #5A473A",
"@5	c #5C493C",
"#5	c #5B463B",
"$5	c #5A453A",
"%5	c #5D4A3D",
"&5	c #5A473B",
"*5	c #554138",
"=5	c #58463B",
"-5	c #544338",
";5	c #554339",
">5	c #4F3D35",
",5	c #554439",
"'5	c #57463A",
")5	c #514037",
"!5	c #4F3E36",
"~5	c #56473C",
"{5	c #524238",
"]5	c #554539",
"^5	c #4C3A31",
"/5	c #45352D",
"(5	c #44352D",
"_5	c #3C2E29",
":5	c #382B26",
"<5	c #342621",
"[5	c #352823",
"}5	c #322925",
"|5	c #2C2824",
"15	c #241F1C",
"25	c #27211E",
"35	c #27201E",
"45	c #29231F",
"55	c #29241E",
"65	c #28221E",
"75	c #29231E",
"85	c #2B2521",
"95	c #2A2421",
"05	c #2C2622",
"a5	c #332D27",
"b5	c #2D2624",
"c5	c #2D2724",
"d5	c #322A25",
"e5	c #322924",
"f5	c #342A25",
"g5	c #362D25",
"h5	c #342A24",
"i5	c #372D25",
"j5	c #342B25",
"k5	c #352B25",
"l5	c #352E27",
"m5	c #332D26",
"n5	c #352F27",
"o5	c #352D27",
"p5	c #352C26",
"q5	c #393129",
"r5	c #39322A",
"s5	c #352D28",
"t5	c #38302A",
"u5	c #382F2A",
"v5	c #362D27",
"w5	c #362D28",
"x5	c #39322B",
"y5	c #372E29",
"z5	c #352C28",
"A5	c #362C27",
"B5	c #342C26",
"C5	c #362E29",
"D5	c #332B26",
"E5	c #302723",
"F5	c #2C2420",
"G5	c #2E2521",
"H5	c #28201D",
"I5	c #241D1A",
"J5	c #211A16",
"K5	c #211B17",
"L5	c #1F1B18",
"M5	c #1A1715",
"N5	c #1A1716",
"O5	c #262829",
"P5	c #222221",
"Q5	c #1D1D1C",
"R5	c #1F1F1D",
"S5	c #1F201D",
"T5	c #211E1D",
"U5	c #23211E",
"V5	c #232320",
"W5	c #23221F",
"X5	c #232220",
"Y5	c #212321",
"Z5	c #232420",
"`5	c #242523",
" 6	c #232522",
".6	c #1D1E1C",
"+6	c #1D1C1B",
"@6	c #1F1D1B",
"#6	c #1A1B1B",
"  . + @ # $ % & * = - ; > , ' ) ! ~ { ] ^ / ( _ _ : < [ } [ | 1 2 3 4 5 6 7 8 9 0 a b c c d e f g h i j k l m n o p q r s t u v ",
"w x y z A B C l D E F G H I J K L M N O P Q R S T U V W X Y Z `  ...+.@.#.#.$.%.&.*.=.-.;.B >.,.'.).!.~.{.].^./.(._.:.r <.[.}.|.",
"1.2.3.4.5.6.7.8.9.0.a.b.c.d.e.e.f.g.h.i.j.k.l.m.n.o.p.q.r.s.t.u.v.w.x.y.z.A.B.C.D.E.F.G.H.I.J.K.L.M.N.O.P.Q.R.S.T.U.V.W.X.Y.Z.`.",
"A  +.+++@+9.Z #+$+%+&+*+=+l -+;+>+,+'+)+!+~+{+]+I.^+/+(+_+:+<+[+}+|+1+2+3+4+5+[+6+7+8+9+0+a+b+c+d+e+f+g+&.h+i+j+k+l+m+n+o+p+q+r+",
"s+t+u+v+w+x+y+Z z+A+B+C+D+E+F+R N.G+H+I+J+K+j.L+Y M+N+O+P+Q+m.R+S+T+U+V+W+X+N.Y+Z+`+ @.@+@@@v.#@$@%@&@*@=@J -@n =+;@>@,@'@)@!@~@",
"{@]@^@/@(@_@:@<@[@}@|@1@2@3@4@5@6@7@8@5+9@0@I.a@b@c@d@e@8@+@f@g@h@i@j@k@l@w.m@Y+h@n@o@p@$+q@r@s@t@.@u@v@w@x@y@z@y@A@2.B@C@D@E@F@",
"G@H@I@J@K@L@M@N@O@P@Q@R@S@T@U@V@W@X@Y@5.Z@`@ #.#+#@#P ##$#V@%#&#^+*#=#-#;#>#,#'#)#8.!#~#{#]#^#H+/#(#_#:#<#[#}#|#1#2#3#4#5#/.6#7#",
"8#9#0#0#a#;@N@b#c#d#e#f#g#h#i#j#k#l#m#/+n#o#/+p#q#r#s#t#u#v#w#x#y#N+z#5.A#B#C#D#E#F#G#H#I#J#J.K#L#M#N#O#P#Q#R#S#T#U#V#W#X#w@n@Y#",
"Z#`# $.$+$@$#$$$%$&$*$=$-$;$>$,$'$'$)$!$~${$]$^$/$($_$:$<$[$}$^$|$1$2$3$4$5$6$7$8$9$0$a$b$c$d$e$f$g$h$i$j$k$l$m$n$o$p$'@q$r$s$t$",
"u$v$w$x$y$-@z$A$B$C$D$E$F$G$H$I$J$K$L$M$N$O$P$Q$R$S$T$U$V$5.W$X$Y$Z$`$ %.%+%@%#%$%%%&%*%=%-%;%>%,%'%)%!%~%{%]%^%/%(%_%:%<%*@[%}%",
"|%1%H@2%3%4%5%6%7%8%9%0%a%b%c%d%e%f%g%h%i%j%k%l%m%n%o%p%q%r%s%t%u%v%w%x%y%z%A%B%C%D%E%F%G%H%I%J%K%L%M%N%O%P%Q%R%S%T%U%V%W%X%Y%Z%",
"`% &.&+&@&#&$&%&&&*&=&-&;&>&,&'&)&!&!&~&{&]&^&/&(&_&:&<&[&}&|&1&2&3&4&5&6&7&8&9&0&a&b&c&d&e&5&f&g&h&i&j&k&l&m&n&o&p&q&r&s&t&u&Y%",
"M@v&w&x&y&z&A&B&C&D&E&F&G&H&I&J&K&L&M&N&O&P&Q&R&S&T&U&V&W&X&Y&Z&`& *.*+*@*#*$*%*&***=*-*;*>*,*'*)*!*~*{*]*^*/*(*S%_*H@0#:*u&<*[*",
"}*|*1*J@2*3*4*5*6*7*8*9*0*a*b*c*d*e*f*g*h*i*j*k*l*m*n*o*p*q*r*s*t*u*v*w*x*y*z*A*B*C*D*E*F*G*H*I*J*K*L*M*N*O*P*Q*R*S*9#T*U*V*W*X*",
"Y*2#Z*`* =.=+=@=#=$=%=&=*=====-=-=;=>=,='=)=!=~={={=]=^=/=(=_=:=<=[=}=|=1=2=3=4=5=6=7=8=9=0=a=9=b=c=d=e=f=g=h=i=j=k=l=m=n=o=p=q=",
"C+r=s=t=u=v=w=q x=y=z=A=B=C=D=E=F=E=G=H=I=J=K=L=M=N=O=P=Q=R=S=T=U=V=W=X=Y=Z=`= -.-+-@-#-$-%-&-*-=---;->-,-'-)-!-~-{-<.]-^-/-(-_-",
":-<-[-}-|-1-1-2-3-4-5-6-7-8-9-0-8-a-b-c-d-e-f-g-h-i-j-k-l-m-n-o-p-q-r-s-t-s-u-v-w-x-y-z-A-B-C-D-E-F-G-H-I-J-K-L-M-N-O-P-Q-R-S-T-",
";+U-V-W-X-Y-Z-A ` `- ;.;+;@;#;O$$;%;&;^$*;=;w#-;;;>;,;';);!;~;{;];^;/;(;_;:;<;[;};|;1;2;3;4;5;6;7;8;9;0;1-a;b;c;b;d;e;f;g;h;].i;",
"L.L.j;k;Q l;m;n;o;p;q;r;s;t;u;^$v;w;x;y;/;3;z;A;B;C;D;E;F;G;H;I;J;K;L;M;N;2;O;P;Q;3;R;S;T;U;P-V;U;W;X;Y;Z;@$`; >.>+>@>#>$>%>#+&>",
"*>K.=>R-->;>>>,>'>)>!>~>{>]>x;2;^>/>(>_>:><>[>p#}>|>1>2>3>o#N+R 4>[#A$5>6>7>8>9>:>0>a>b>c>d>e>0.0.f>g>h>i>j>I k>l>m>n>o>p>q>r>F ",
"s>t>a+u>v>w>x>y>z>A>B>C>D>E>(+F>`@G>H>V;B$I>J>*#K>N+L>M>2$N>|#O>P>Q>x+B.R>S>T>U>}>V>W>X>Y>Z>I.`>$+` T# ,.,+,B>@,#,$,%,b#&,*,=,-,",
";,>,&,,,T#',),!,~,{,],^,/,(,_,S#:,S#<,:,[,c#},|,<@b+1,w+2,T@3,v&0 4,5,6,7,8,9,0,6,a,b,4.N@c,d,e,m;m;3. ,4#U%f,g,h,i,j,k,o$l,m,n,",
"o,)>p,q,r,s,t,u,v,w,x,y,z,8#A,B,C,D,E,C>3%<.z 1%F,2.G,H,s,b$I,J,K,L,F,M,N,O,I h>P,b$v$3%Q,R,S,v$T,U,2*u=V,W,X,T,Z*q 2.h>z,z, &Y,",
"Z,`, '.'v++'@'#'D>$'%'&'T@*'='#$-';'N->'b+}@,'m>Q@|@Q@Q@#+'')'!'~'{'4.d;]'=>^']+/'m>T#T#/'@>c+>'('_']+S#4@n>},$+^'K.8.:'e.:'R--'",
"<'['}'|'1'2'3'4'5'6'7'8'9'0'a'b'c'd'e'}'f'g'h'i'j'k'l'm'n'o'p'q'r's't'u'v'w'x'y'z'A'B'C'y'D'E'F'G'H'I'J'K'L'M'N'O'P'P'Q'R'S'C.T'",
"U'V'W'M'X'Y'Z'`' ).)+)A'@)#)$)%)&)*)Z'=)-);)>),)')))!)~){)])^)/)()_)P+5+:)0@A#<)[)})|)1)2)3)B#4)4)5)6).#m.7)8)7.9)0)>#X@.#a)b)c)",
"d)c)e)R+f)g)-#Y+h)i)_@e@v.5.j)k)e@l)I+Y>m)5@x+n)o)p)q)k.r)=>s)P@t)u)b;l;v)w)~'i+x)y)N@Q@z)A)n>B)4@J+4@#$C)D)G#4.=+E)E)E)''%.F)''",
"u$G)F H)!+c;N u$'>I)A,3,_.J)K){@J)L)M)N,N)O)P)Q) &R)S)Q,i T)U)V)S,W)X)Y)b$Z)`) !b$.!+! ! !@! &c$P)#!$!1-Q)%!&!*!=!-!;!J)>!,!'!)!",
"Q !!~!{!]!^!/!<-v&G,(!2._!=+:!<![!J)^,1-}!L)|!;!1!2!3!4!5!6!7!8!L-W,9!0!a! !b!y&Z*c!H)d!Q,e!f!4,g!h!Z)i i!j!k!l!i;{#m!n!o!p!q!a$",
"r!<#-'s!>#t!u!v!{+w!x!y!n.z!A!B!b)C!2#z@D!.!M-q)J+$+E!#+y>1@~'O,F!z@G!H!R,>@I!J![!K!L!M!E)N!:@=+e.]!O!P!Q!m>S@r!R!U-^'S!R-=+T!U!",
"V@V!C#W!X!'+&#+@|@Y!Z!|%[+`! ~.~0)7._'+~@~#~$~4@%~&~*~O@W-|@=~v)-~;~>~,~#~n O,'~/'y+d.)~!~~~9.x+X>b#{~4,]~N@n>r!$+_#[@^~^~}@T!/~",
"T!}@Z D)W-)'(~_~:~`;!#F |@l+<~r!k+u)[~}~K+|~1~2-q!Z#2~3~L)4~5~6~7~|!8~9~}!0~_.a~|~b~c~d~e~),f~n!n I!e~L)#~E {#G)D y!g~k>h~c~)!2-",
"i~R!)~N!->M!)~8.;'^~j~*><#_#J.k~R!)~J.l~j~^'T!''M@m~#+Q>~'k,n~o~:!m;~'r)p~q~y+y+)'|,y+<~<~<@/'r!r!C+_'_'N@=+r~r~/~%.s~=+4.C+t~C)",
"u~v~w~x~y~ )z~y~y~.)A~B~C~D~D~E~')y~F~G~H~I~J~K~`!B#6)K>K>L~M~N~O+O~P~Q~R~}>(+l.K~S~T~U~`@4)^+S~1)V~W~B#K>X~%#K>X~6.#@Y~Z~`~ {`$",
".{+{u~')@{v~v~#{1;${%{o#&{*{={-{;{&{>{,{*{'{){!{N>~{{{a.B+h;]{B+^{/{0.({a.j#_{:{<{%+:{e>A+[{A+F#a.%+<{B$F#b.}{0+S~|{|{1{&#`$ ~2{",
"3{K#Y@4{0@5{O+0+M#Z,2,g>6{q)*'q)J+('7{8{9{B)t)@,('t)0{|#a{j,m>Q@b{|#e,a{T#{!c{d{e{y+k.f{g{h{%'i{j{<,j{N-<,k{}#l{x+:'@>m{a+U@n{I+",
"o{C,p{<%q{r{s{t{u{v{w{ &x{y{J@1*U)z{A{B{C{D{E{U%F{I@G{H{I{J{K{L{I@M{G!I{N{O{P{Q{R{S{M{T{U{V{W{X{Y{Z{`{ ].]+]a#@]a##]#]$]X,%],!H ",
"&]*]I)=]-]:-:-e{;]>]A |~,]'])]!]|#~]|#{]{]U#]]U#i;^]/](]`;_]:]<][]Q,R,@!a,j,=]}]:!]~:!|]~'v)1]2]1]3]W-4]5]6]4~7]8]h~2-9]0]a]b]]'",
"c]d]b;`!e]f]5+g]l~h]i]j]3$k]l]G$m]P-n]o]p]q]r]s]t]u]v]N#W;w]x]y]z]A]B]i]C]D]U~S~*#E]H.F]k)G]m.l)I.Y@c)t{H]u=a]I]J]r~K]L]M]N]O]P]",
"@~Q]^#B.R]S]T]U] ~V]W]X]Y]Z]`] ^.^+^@^5%#^$^%^&^*^=^-^;^>^,^'^)^$^1#r{a{!^0>){V~|{~^{^7)]^^^/^B#(^V!_^:^<^_*[^}^|^1^c+]+2^3^4^r#",
"k~#.5^6^2,7^8^L;9^0^a^b^c^d^e^f^g^h^i^j^k^l^m^n^o^p^q^r^s^t^m^u^v^w^x^y^z^A^B^C^D^E^b.F^G^z^H^I^J^K^L^M^N^O^P^Q^R^S^T^B+%,U^V^W^",
"z.X^,!Y^Z^`^ /./+/@/#/$/%/&/*/=/-/;/>/,/'/)/!/~/{/]/^///(/_/:/</[/}/|/1/2/3/4/5/6/7/8/9/0/a/b/c/d/e/f/g/h/i/j/k/l/m/n/o/p/q/v~r/",
"s/t/u/v/w/x/y/z/A/B/C/D/E/F/G/H/I/J/K/L/M/N/O/P/Q/R/S/T/U/V/W/X/Y/Z/`/ (.(+(@(#($(%(&(*(=(-(;(>(,('()(!(~({(](^(/(((_(i]]+W@:(<(",
"[(t&}(|(1(2(3(4(5(6(7(8(9(0(a(b(c(d(e(f(g(h(i(j(k(l(m(n(o(p(q(r(s(t(u(v(w(x(y(z(A(B(C(D(E(F(G(H(I(J(K(L(M(N(O(P(Q(R(S(]-2@T(~~U(",
"V(W(X(Y(Z(`( _._+_@_#_$_%_&_*_=_-_;_>_,_'_)_!_~_{_]_^_/_(___:_<_[_U&}_|_1_2_3_4_5_6_7_8_9_0_a_b_c_d_e_-=f_g_h_i_j_R(k_r{D+l_m_n_",
"o_p_q_r_s_t_u_v_w_x_y_z_A_B_C_D_;_E_F_G_H_I_J_K_L_M_N_O_P_Q_R_S_T_U_V_W_X_Y_Z_`_ :.:+:@:#:$:%:%:&:*:=:-:;:>:,:':):!:I#~:{:]:^:/:",
"(:E!_:::<:[:}:|:|:1:2:3:4:5:6:7:8:9:0:a:b:c:d:e:f:g:h:i:j:k:l:m:n:o:p:q:r:s:t:u:v:w:x:y:z:A:B:C:D:E:F:G:H:I:J:K:L:M:N:O:P:Q:R:S:",
"T:U:V:W:X:Y:Z:`: <.<+<@<#<$<%<&<*<=<-<;<><,<'<)<!<~<{<]<^</<(<_<:<<<[<}<|<1<2<3<4<5<6<7<8<9<0<a<b<c<d<e<f<g<h<i<j<k<l<m<=.n<o<p<",
"q<T.r<s<t<u<v<w<x<y<z<z<A<B<C<D<E<F<G<H<I<J<K<L<M<N<O<P<Q<R<S<T<U<V<W<X<Y<Z<`< [.[N<+[@[#[$[%[&[*[=[-[;[>[,['[)[![~[{[E,][S:^[/[",
"([l+_[:[<[[[}[|[1[2[3[4[5[6[7[8[9[0[a[b[c[d[e[f[g[h[i[j[k[l[m[n[o[p[q[r[s[t[u[v[w[x[y[z[A[B[C[D[E[F[>:G[H[I[J[K[L[M[N[O[o P[Q[R[",
"S[^.T[U[V[W[X[Y[Z[`[ }.}+}@}#}$}%}&}*}=}-};}>},}'})}!}~}{}]}^}/}(}_}:}<}[}}}|}1}2}3}4}5}6}7}8}9}0}a}b}c}a}d}e}f}g}h}i}j}e~k}l}l}",
"m}n}o}p}N[q}r}s}t}u}v}w}x}y}z}A}B}C}D}E}F}G}H}I}J}K}L}M}N}O}P}Q}R}S}T}U}V}W}X}Y}Z}`} |.|+|@|#|$|%|&|*|=|-|;|>|,|'|)|!| !~|]#@.{|",
"]|-,^|/|(|_|:|<|[|}|||1|2|3|4|5|6|7|8|9|0|a|b|c|d|e|f|g|h|i|j|k|j|l|m|n|o|p|q|r|s|t|u|v|w|x|y|z|A|B|5|C|D|E|F|G|1@I)@&H|I|J|j@K|",
"L|M|N|V#O|P|Q|R|S|T|U|V|W|X|Y|g.h.O+Z|o)l{n{`!l{`| 1.1+1@1#1$1%1&1N.G.*1l_@>=1-10.;1>1,1'1)1!1~1{1)1+1]1^1/1(1_1i]:1<10![1}1|111",
"213141X,p$516171819101a1b1c1d1e1B+e>f1H^g1h1v++'i1A$j1k#t]K;:+k1l1m12,#>n]n1o1!{S~p1q1r1s1]^e;({t1u1d)7.v1w1x1a;e~y1z,R{z1A1B1C1",
"D1E1_*u=F1G1H1I1J1K1L1B^M1N1O1i~@@l~j~]^e;++P1B$I;Q16.R1S1T1U1V1u1Z>1@w>`!W1X1Y1Z1`1 2c)P~R18@g].2+2@2#2$2%2&2J#j!K)*2=2-26#R@%2",
";2>2<12*V{h],2'2)2!2~2{2]2^2/2S#(2_2:2d><2N>W;a>[2}2l.|2}{1222<>o#M#C+l~3242z!52X!627282W~O+4)z!92z.02a2b2G.s>/]Q)r c2y&d2e2f2[%",
"g2h2i2j2k2l2m2n2o2p2q2r2s2t2u23$Q@v2w2^%x2F#X;y2H1z2A2X;B2C2D2j1B2]{f1E23$E>F2F#7^f#G2L.,#H2M#:{I2[{J2S1R.u@r>P,<%5#K2L2M2|%N2O2",
"P2Q2R2S2T2I!U2V2W2X2Y2Z2Y2`2 3Y;@!.3+3@3  s{#3C>$3%3&3&3*3=3u,-3k_;3I)>3,3'3=3)3  !3~3<%q #]A,{3]3^3/3z>(3G@T,_3<%:3<3[3}3|313,>",
"233343536373839303a3b3c3d3e3f3g3h3i3j3k3l3m3n3o3p3q3r3s3t3u3v3w3x3y3z3A3B3C3D3E3F3G3H3H3I3G3J3K3L3M3N3O3P3Q3R3S3T3U3V3W3X3Y3Z3d~",
"`3 4.4+4@4#4$4%4&4*4=4-4;4>4,4'4)4!4~4{4]4^4/4(4_4:4<4[4}4|414243444546474849404a4b4c4d4e4f4g4h4i4j4k4l4m4n4o4p4q4r4s4t4u4v4w4w4",
"x4y4z4A4B4C4D4E4F4G4s4H4H4I4J4K4L4M4N4O4P4Q4R4S4R4T4U4V4W4X4Y4Z4`4 5.5+5@5#5$5%5&5*5=5-5;5>5,5'5,5)5!5~5{5]5^5/5(5_5:5<5[5}5|55^",
"1525253545556575859505a5a5b5c503d5e5f5g5h5e3i5h5j5k5}5l5a3m5n5o5p5q5r5s5s5t5u5t5v5w5x5y5s5z5w5A5v5y5B5C5D5o5E5F5G5H5I5J5K5L5M5N5",
"Q@|@O5c{{'U$~'m;P5e~Q5R5S5H Q5j!T5M|U5N V5N W5X5o V5P5Y5m+n;Z5n;),U.`5 6J!U.l;u$G)e~.6x!)!+6H#@6{.y!J ^-m,H I #6*!#!#!E,E, &z O!"};
